/* XPM */
static char * Bowser_left_64_xpm[] = {
"64 64 1735 2",
"  	c #010101",
". 	c #000101",
"+ 	c #010100",
"@ 	c #000000",
"# 	c #000100",
"$ 	c #583A24",
"% 	c #5A3A23",
"& 	c #5A3923",
"* 	c #5B3923",
"= 	c #5B3A23",
"- 	c #5B3A22",
"; 	c #5B3922",
"> 	c #5C3A23",
", 	c #5A3922",
"' 	c #462B19",
") 	c #2B190E",
"! 	c #1B1008",
"~ 	c #9C5F34",
"{ 	c #A15F31",
"] 	c #A16032",
"^ 	c #A06031",
"/ 	c #A16031",
"( 	c #A26130",
"_ 	c #A36131",
": 	c #A36031",
"< 	c #A26030",
"[ 	c #A26031",
"} 	c #A26131",
"| 	c #A36130",
"1 	c #A16030",
"2 	c #A25F31",
"3 	c #A15F30",
"4 	c #A15E31",
"5 	c #A05E32",
"6 	c #7B4825",
"7 	c #532F18",
"8 	c #382111",
"9 	c #000001",
"0 	c #9C5F35",
"a 	c #A15E32",
"b 	c #8D532C",
"c 	c #8C532C",
"d 	c #8C532B",
"e 	c #8D522B",
"f 	c #8D542B",
"g 	c #8D542C",
"h 	c #8C542B",
"i 	c #8D532B",
"j 	c #8B542B",
"k 	c #8B542C",
"l 	c #8D532A",
"m 	c #8C542A",
"n 	c #8C532A",
"o 	c #8B532B",
"p 	c #8C542C",
"q 	c #8C522B",
"r 	c #734323",
"s 	c #533019",
"t 	c #371F10",
"u 	c #9D5F35",
"v 	c #A05F31",
"w 	c #573018",
"x 	c #532E18",
"y 	c #522E18",
"z 	c #522F19",
"A 	c #522E19",
"B 	c #522F18",
"C 	c #522E16",
"D 	c #522F17",
"E 	c #522E17",
"F 	c #512E16",
"G 	c #532F1A",
"H 	c #371F11",
"I 	c #9D6034",
"J 	c #563017",
"K 	c #63341B",
"L 	c #65351B",
"M 	c #6F4123",
"N 	c #704224",
"O 	c #704223",
"P 	c #6F4223",
"Q 	c #6F4222",
"R 	c #704222",
"S 	c #704122",
"T 	c #6F4224",
"U 	c #6A3B1E",
"V 	c #66351B",
"W 	c #67351A",
"X 	c #5C311A",
"Y 	c #512F19",
"Z 	c #351F11",
"` 	c #9D5F34",
" .	c #803D1F",
"..	c #853E1E",
"+.	c #A36132",
"@.	c #955028",
"#.	c #883E1E",
"$.	c #853D1E",
"%.	c #6D361B",
"&.	c #361F11",
"*.	c #9F5F31",
"=.	c #573118",
"-.	c #532E17",
";.	c #8A4825",
">.	c #8E4825",
",.	c #A36033",
"'.	c #A36032",
").	c #B66F3B",
"!.	c #BA723C",
"~.	c #A76433",
"{.	c #A46033",
"].	c #AF6634",
"^.	c #B26834",
"/.	c #A66332",
"(.	c #A46132",
"_.	c #A46131",
":.	c #B16B38",
"<.	c #B9713B",
"[.	c #AB6735",
"}.	c #98542B",
"|.	c #8E4724",
"1.	c #874221",
"2.	c #6B361B",
"3.	c #543019",
"4.	c #382011",
"5.	c #532E16",
"6.	c #E6914D",
"7.	c #F09851",
"8.	c #B36C39",
"9.	c #CD7537",
"0.	c #D77838",
"a.	c #B06633",
"b.	c #D68647",
"c.	c #EF9951",
"d.	c #C47A40",
"e.	c #A46031",
"f.	c #935028",
"g.	c #6E371C",
"h.	c #361E11",
"i.	c #010000",
"j.	c #573017",
"k.	c #522E15",
"l.	c #9F5F32",
"m.	c #B56F39",
"n.	c #B76F3A",
"o.	c #A56333",
"p.	c #D78848",
"q.	c #E08E4B",
"r.	c #AF6B37",
"s.	c #A36231",
"t.	c #B46935",
"u.	c #B76B35",
"v.	c #AE6633",
"w.	c #A26231",
"x.	c #A26132",
"y.	c #CA7F43",
"z.	c #BD743D",
"A.	c #A36232",
"B.	c #935027",
"C.	c #6D371B",
"D.	c #381F10",
"E.	c #A05F32",
"F.	c #EB9751",
"G.	c #F09951",
"H.	c #AE6936",
"I.	c #A36133",
"J.	c #E18141",
"K.	c #532F19",
"L.	c #563018",
"M.	c #AF6534",
"N.	c #E08E4D",
"O.	c #E4904D",
"P.	c #AC6735",
"Q.	c #AE6533",
"R.	c #B16633",
"S.	c #6F1814",
"T.	c #39211E",
"U.	c #CB3E21",
"V.	c #090201",
"W.	c #202020",
"X.	c #212121",
"Y.	c #AC6433",
"Z.	c #B06533",
"`.	c #B46B37",
" +	c #B66E39",
".+	c #A96634",
"++	c #A46032",
"@+	c #A45F33",
"#+	c #D5783B",
"$+	c #D87A3A",
"%+	c #A96332",
"&+	c #B83017",
"*+	c #921B11",
"=+	c #BD3218",
"-+	c #D83818",
";+	c #7E140A",
">+	c #BE3418",
",+	c #BB3318",
"'+	c #49180F",
")+	c #CA7237",
"!+	c #DA7A3A",
"~+	c #EA924C",
"{+	c #A46030",
"]+	c #6C371B",
"^+	c #371F12",
"/+	c #9F5F33",
"(+	c #CB743A",
"_+	c #CE7539",
":+	c #A86332",
"<+	c #685030",
"[+	c #010201",
"}+	c #742112",
"|+	c #DB3714",
"1+	c #CC3313",
"2+	c #E23B15",
"3+	c #B52713",
"4+	c #B72813",
"5+	c #B82C14",
"6+	c #972B15",
"7+	c #37110A",
"8+	c #998657",
"9+	c #CD7438",
"0+	c #D87A39",
"a+	c #AC9F84",
"b+	c #AA6432",
"c+	c #6C361B",
"d+	c #89693C",
"e+	c #8E6D3E",
"f+	c #541B11",
"g+	c #A73119",
"h+	c #E13914",
"i+	c #DA3715",
"j+	c #C63115",
"k+	c #A7190F",
"l+	c #BB2C15",
"m+	c #81150E",
"n+	c #4E0F0A",
"o+	c #180503",
"p+	c #CEB46B",
"q+	c #A58B56",
"r+	c #BBA268",
"s+	c #C2A769",
"t+	c #C57036",
"u+	c #D8793A",
"v+	c #BB6C35",
"w+	c #934F27",
"x+	c #372011",
"y+	c #020201",
"z+	c #AC6533",
"A+	c #A46232",
"B+	c #89683A",
"C+	c #8D6B3C",
"D+	c #8B2915",
"E+	c #E23915",
"F+	c #E13A15",
"G+	c #C53115",
"H+	c #7D170F",
"I+	c #A61E11",
"J+	c #88180E",
"K+	c #761E12",
"L+	c #731910",
"M+	c #553C25",
"N+	c #D1B870",
"O+	c #D2A85B",
"P+	c #785F38",
"Q+	c #AEADAD",
"R+	c #A3A3A3",
"S+	c #A08554",
"T+	c #E7BC6D",
"U+	c #C19F63",
"V+	c #C06E36",
"W+	c #D07639",
"X+	c #B66A34",
"Y+	c #934F28",
"Z+	c #9C6034",
"`+	c #D17639",
" @	c #D77A3A",
".@	c #8A6A3E",
"+@	c #8E6D40",
"@@	c #902B16",
"#@	c #E33916",
"$@	c #CA3117",
"%@	c #7D1A0F",
"&@	c #4E2711",
"*@	c #4E2611",
"=@	c #731C10",
"-@	c #303B1B",
";@	c #3A2D12",
">@	c #B88A47",
",@	c #E3BF67",
"'@	c #D1A557",
")@	c #785E37",
"!@	c #110303",
"~@	c #0C0403",
"{@	c #7F4D25",
"]@	c #B86A29",
"^@	c #B46728",
"/@	c #945728",
"(@	c #945027",
"_@	c #362010",
":@	c #9C6135",
"<@	c #9F6032",
"[@	c #573117",
"}@	c #532E15",
"|@	c #B06B37",
"1@	c #B26B38",
"2@	c #D27639",
"3@	c #D77939",
"4@	c #AB6432",
"5@	c #33260F",
"6@	c #32250E",
"7@	c #8B2715",
"8@	c #CE3114",
"9@	c #92190D",
"0@	c #9B2012",
"a@	c #D03718",
"b@	c #8D180E",
"c@	c #422A11",
"d@	c #265831",
"e@	c #A46327",
"f@	c #E6BE71",
"g@	c #E7C472",
"h@	c #CFA45A",
"i@	c #765C38",
"j@	c #821917",
"k@	c #781915",
"l@	c #1D3F22",
"m@	c #295C2E",
"n@	c #285B2F",
"o@	c #254D29",
"p@	c #DFC27E",
"q@	c #AC6836",
"r@	c #B26C38",
"s@	c #AA6635",
"t@	c #925027",
"u@	c #381F11",
"v@	c #532F15",
"w@	c #E8944F",
"x@	c #F19951",
"y@	c #D57A3B",
"z@	c #D17638",
"A@	c #B36834",
"B@	c #AC6633",
"C@	c #A46231",
"D@	c #8B1E11",
"E@	c #5C6526",
"F@	c #6A762B",
"G@	c #854E1D",
"H@	c #7B782A",
"I@	c #D23414",
"J@	c #E23B14",
"K@	c #D43616",
"L@	c #8B1C0F",
"M@	c #2C562F",
"N@	c #A05E22",
"O@	c #A66D38",
"P@	c #C69851",
"Q@	c #866D44",
"R@	c #31281B",
"S@	c #330B08",
"T@	c #436429",
"U@	c #3F9133",
"V@	c #419733",
"W@	c #409634",
"X@	c #388533",
"Y@	c #3D5842",
"Z@	c #D6BA77",
"`@	c #D3B470",
" #	c #C59D57",
".#	c #D58547",
"+#	c #F29C52",
"@#	c #CB8043",
"##	c #563016",
"$#	c #E8934E",
"%#	c #AF6A37",
"&#	c #A66330",
"*#	c #D27839",
"=#	c #AD6533",
"-#	c #83140D",
";#	c #9A1B0F",
">#	c #647126",
",#	c #529831",
"'#	c #5D7728",
")#	c #835420",
"!#	c #D53413",
"~#	c #AC2413",
"{#	c #882E15",
"]#	c #682610",
"^#	c #458D34",
"/#	c #64672D",
"(#	c #88521D",
"_#	c #9E652C",
":#	c #583C20",
"<#	c #6B7C74",
"[#	c #82978E",
"}#	c #62866B",
"|#	c #388C33",
"1#	c #449F30",
"2#	c #3E9533",
"3#	c #338335",
"4#	c #368A30",
"5#	c #2E702A",
"6#	c #625C34",
"7#	c #D89D53",
"8#	c #E7C371",
"9#	c #C09651",
"0#	c #CE8144",
"a#	c #E7934E",
"b#	c #C37A40",
"c#	c #945028",
"d#	c #9C6035",
"e#	c #ED8118",
"f#	c #CB7337",
"g#	c #AB6533",
"h#	c #967C7B",
"i#	c #77180F",
"j#	c #5F6D26",
"k#	c #429333",
"l#	c #5C6D2B",
"m#	c #9F2713",
"n#	c #C05951",
"o#	c #C9B2B1",
"p#	c #8F9588",
"q#	c #42762A",
"r#	c #479E34",
"s#	c #1F6431",
"t#	c #56562A",
"u#	c #645729",
"v#	c #5C6558",
"w#	c #8DA69C",
"x#	c #C2D1CB",
"y#	c #C7D0CB",
"z#	c #8CA68F",
"A#	c #328232",
"B#	c #2D7631",
"C#	c #246B33",
"D#	c #318433",
"E#	c #358835",
"F#	c #4D8432",
"G#	c #988536",
"H#	c #BF9250",
"I#	c #B1783A",
"J#	c #9F6031",
"K#	c #F6B184",
"L#	c #450F0B",
"M#	c #536426",
"N#	c #357D33",
"O#	c #564827",
"P#	c #922111",
"Q#	c #967574",
"R#	c #F6F8F5",
"S#	c #A0C09F",
"T#	c #47A034",
"U#	c #90B254",
"V#	c #898F54",
"W#	c #6B713F",
"X#	c #346337",
"Y#	c #546E64",
"Z#	c #869F96",
"`#	c #D8E0DD",
" $	c #FEFEFE",
".$	c #D5DAD7",
"+$	c #97A79C",
"@$	c #97A79B",
"#$	c #97A89C",
"$$	c #829E87",
"%$	c #388D32",
"&$	c #4B952F",
"*$	c #7C6F25",
"=$	c #8E612A",
"-$	c #392012",
";$	c #9E6031",
">$	c #F6B181",
",$	c #AC6835",
"'$	c #EB9A5D",
")$	c #655B3F",
"!$	c #655A3E",
"~$	c #5F633E",
"{$	c #516837",
"]$	c #42542B",
"^$	c #3A431E",
"/$	c #707D6F",
"($	c #DCEAD9",
"_$	c #659C39",
":$	c #72A645",
"<$	c #E6CD76",
"[$	c #EDCE7C",
"}$	c #C69B56",
"|$	c #6C6E3B",
"1$	c #273A20",
"2$	c #62746D",
"3$	c #C5CCCA",
"4$	c #EFF2F1",
"5$	c #F0F4F3",
"6$	c #F1F5F3",
"7$	c #F1F4F3",
"8$	c #F1F4F2",
"9$	c #F3F6F5",
"0$	c #DFE5E1",
"a$	c #658869",
"b$	c #429C33",
"c$	c #459F33",
"d$	c #2B6A31",
"e$	c #6D371C",
"f$	c #9B6035",
"g$	c #573119",
"h$	c #FC8403",
"i$	c #F7B582",
"j$	c #EF9040",
"k$	c #BDA264",
"l$	c #ECCB7A",
"m$	c #EBCB7A",
"n$	c #DBB667",
"o$	c #BC9046",
"p$	c #897C36",
"q$	c #408B37",
"r$	c #489935",
"s$	c #5E9E39",
"t$	c #CAA457",
"u$	c #EDCF7E",
"v$	c #EDCD78",
"w$	c #EDCD79",
"x$	c #C39850",
"y$	c #636430",
"z$	c #142D14",
"A$	c #576660",
"B$	c #8BA398",
"C$	c #A0B8AD",
"D$	c #A2B7AE",
"E$	c #9FB6AC",
"F$	c #9EB7AC",
"G$	c #BBCDC4",
"H$	c #F9FAF9",
"I$	c #E3E7E5",
"J$	c #35763F",
"K$	c #449F35",
"L$	c #3E9835",
"M$	c #1E562F",
"N$	c #532F17",
"O$	c #F99D07",
"P$	c #F9B70C",
"Q$	c #F8810F",
"R$	c #F5910F",
"S$	c #FAC708",
"T$	c #F9C313",
"U$	c #EF7E12",
"V$	c #A27536",
"W$	c #CBA860",
"X$	c #C6A35C",
"Y$	c #C49F5A",
"Z$	c #EECE7C",
"`$	c #DFC074",
" %	c #C29B4E",
".%	c #D1AA5B",
"+%	c #E9CE79",
"@%	c #EECD78",
"#%	c #EDCE7E",
"$%	c #EDCD7A",
"%%	c #EECD76",
"&%	c #A88547",
"*%	c #4D3516",
"=%	c #020403",
"-%	c #040705",
";%	c #040605",
">%	c #050806",
",%	c #616D67",
"'%	c #93A99F",
")%	c #858585",
"!%	c #E0E6E3",
"~%	c #276833",
"{%	c #439B36",
"]%	c #1B6032",
"^%	c #225A34",
"/%	c #131815",
"(%	c #111212",
"_%	c #101112",
":%	c #111213",
"<%	c #131413",
"[%	c #F58E41",
"}%	c #F8BB97",
"|%	c #F98B2F",
"1%	c #F6A731",
"2%	c #FBC605",
"3%	c #F9B505",
"4%	c #FB9308",
"5%	c #FCCF25",
"6%	c #FBE157",
"7%	c #EF8B21",
"8%	c #AE884A",
"9%	c #DDB86C",
"0%	c #EAC974",
"a%	c #E9C773",
"b%	c #E9C774",
"c%	c #EDCC79",
"d%	c #EDCC7C",
"e%	c #EBCA7C",
"f%	c #ECCB7E",
"g%	c #EECD7C",
"h%	c #EDCB76",
"i%	c #C3954F",
"j%	c #423926",
"k%	c #E0C377",
"l%	c #EDCD7B",
"m%	c #D0A65C",
"n%	c #9A6D30",
"o%	c #4B3214",
"p%	c #020302",
"q%	c #634112",
"r%	c #A36F12",
"s%	c #92691D",
"t%	c #010302",
"u%	c #171B19",
"v%	c #262B28",
"w%	c #1F1F1F",
"x%	c #848484",
"y%	c #EFF2F0",
"z%	c #94B5A2",
"A%	c #297032",
"B%	c #419836",
"C%	c #28582C",
"D%	c #B76B2A",
"E%	c #DDB871",
"F%	c #DBBB70",
"G%	c #DCBB71",
"H%	c #6B5D42",
"I%	c #F7C351",
"J%	c #FABA06",
"K%	c #F4AB5B",
"L%	c #F6B243",
"M%	c #FBBB08",
"N%	c #F9CD39",
"O%	c #FADA46",
"P%	c #FBC404",
"Q%	c #F6C33B",
"R%	c #F9E47F",
"S%	c #F9C82D",
"T%	c #F38B2C",
"U%	c #9F7641",
"V%	c #E1BB6D",
"W%	c #E3BF71",
"X%	c #EDCC7A",
"Y%	c #EECC78",
"Z%	c #E7C575",
"`%	c #CCA25D",
" &	c #CCA461",
".&	c #645032",
"+&	c #070503",
"@&	c #B68E50",
"#&	c #CA9E54",
"$&	c #C7974D",
"%&	c #7B5D33",
"&&	c #616960",
"*&	c #4A534D",
"=&	c #966F15",
"-&	c #AA7D1F",
";&	c #6C6855",
">&	c #5D6A64",
",&	c #573E14",
"'&	c #AA7016",
")&	c #9C7443",
"!&	c #7E807F",
"~&	c #55665B",
"{&	c #24612F",
"]&	c #419B34",
"^&	c #468C31",
"/&	c #C06D25",
"(&	c #D28945",
"_&	c #D7A85B",
":&	c #8F794E",
"<&	c #F4B662",
"[&	c #FAC107",
"}&	c #FABA07",
"|&	c #F8D366",
"1&	c #FAD754",
"2&	c #FADD64",
"3&	c #FAE77E",
"4&	c #E3BA1D",
"5&	c #9F8938",
"6&	c #A29869",
"7&	c #9E7916",
"8&	c #9B5B1E",
"9&	c #282828",
"0&	c #4F5D56",
"a&	c #282F2B",
"b&	c #5E462A",
"c&	c #B28E4F",
"d&	c #CFA154",
"e&	c #D4A95D",
"f&	c #DBB367",
"g&	c #DBB366",
"h&	c #DBB365",
"i&	c #D9B05F",
"j&	c #C9A259",
"k&	c #775A31",
"l&	c #785B36",
"m&	c #7B161B",
"n&	c #100202",
"o&	c #AF8042",
"p&	c #BA8A43",
"q&	c #896839",
"r&	c #3E311E",
"s&	c #444D48",
"t&	c #998142",
"u&	c #A48125",
"v&	c #674F18",
"w&	c #383F3B",
"x&	c #47514B",
"y&	c #513B16",
"z&	c #B28112",
"A&	c #E7AF08",
"B&	c #DBA812",
"C&	c #B28D15",
"D&	c #8A6119",
"E&	c #204C24",
"F&	c #46A234",
"G&	c #489E34",
"H&	c #7A642C",
"I&	c #BC6D29",
"J&	c #8D693A",
"K&	c #A86431",
"L&	c #A56331",
"M&	c #924F27",
"N&	c #542F18",
"O&	c #382010",
"P&	c #F4CBB0",
"Q&	c #F5B249",
"R&	c #F8D15E",
"S&	c #FAF0A2",
"T&	c #FAEA97",
"U&	c #F9E88F",
"V&	c #E6DA90",
"W&	c #AF922D",
"X&	c #A4831D",
"Y&	c #A4831B",
"Z&	c #A07F1A",
"`&	c #A07F1B",
" *	c #A4831C",
".*	c #876018",
"+*	c #1C1307",
"@*	c #4E5954",
"#*	c #2A2E2B",
"$*	c #6E4E16",
"%*	c #8C6938",
"&*	c #C2A886",
"**	c #BEA47E",
"=*	c #9A7841",
"-*	c #9B7841",
";*	c #B4986F",
">*	c #D0BA97",
",*	c #947143",
"'*	c #6E0D15",
")*	c #6F0D14",
"!*	c #86191A",
"~*	c #725230",
"{*	c #AE8042",
"]*	c #946E3A",
"^*	c #44351F",
"/*	c #48524E",
"(*	c #343B37",
"_*	c #AC8218",
":*	c #9F781C",
"<*	c #020202",
"[*	c #4A3512",
"}*	c #A37819",
"|*	c #E4AB06",
"1*	c #EAB709",
"2*	c #CB9C11",
"3*	c #DDA70B",
"4*	c #D39C11",
"5*	c #7D5F1D",
"6*	c #3A7A2E",
"7*	c #439C35",
"8*	c #337C31",
"9*	c #876A2E",
"0*	c #2B2213",
"a*	c #D38446",
"b*	c #F09A51",
"c*	c #C97D41",
"d*	c #6E371B",
"e*	c #F9E2D0",
"f*	c #F4AD61",
"g*	c #F6D378",
"h*	c #FCF3AC",
"i*	c #FEF7BA",
"j*	c #EEE8B2",
"k*	c #B7AE82",
"l*	c #9D791D",
"m*	c #F4BD02",
"n*	c #F7BF04",
"o*	c #ECB308",
"p*	c #F7C003",
"q*	c #F4BE05",
"r*	c #D0960F",
"s*	c #523A10",
"t*	c #6A7870",
"u*	c #39403C",
"v*	c #9C6C15",
"w*	c #896019",
"x*	c #ADA9A2",
"y*	c #999A97",
"z*	c #5E5E5E",
"A*	c #696A68",
"B*	c #7D7D7B",
"C*	c #BAB6B3",
"D*	c #6B0C14",
"E*	c #B20E1E",
"F*	c #AE1520",
"G*	c #9D8984",
"H*	c #B18043",
"I*	c #AF8041",
"J*	c #3E2F1C",
"K*	c #5E6D66",
"L*	c #6B614A",
"M*	c #A77414",
"N*	c #895F15",
"O*	c #303632",
"P*	c #373E3A",
"Q*	c #715018",
"R*	c #C38D12",
"S*	c #CFA517",
"T*	c #C1971C",
"U*	c #A16F10",
"V*	c #DEA409",
"W*	c #F4C005",
"X*	c #C89110",
"Y*	c #624A16",
"Z*	c #3D8631",
"`*	c #45A136",
" =	c #226633",
".=	c #0B1E10",
"+=	c #D28346",
"@=	c #F09852",
"#=	c #C97C41",
"$=	c #FA851F",
"%=	c #FABD08",
"&=	c #FBD22E",
"*=	c #FAE993",
"==	c #FDF6B8",
"-=	c #C4C095",
";=	c #735218",
">=	c #D69A0D",
",=	c #E2AC0C",
"'=	c #AE770C",
")=	c #E7B30F",
"!=	c #F7C104",
"~=	c #FAC50A",
"{=	c #9E6E13",
"]=	c #37260D",
"^=	c #573A16",
"/=	c #A77111",
"(=	c #8C6319",
"_=	c #342711",
":=	c #ACAAA5",
"<=	c #C2BEB6",
"[=	c #423221",
"}=	c #613023",
"|=	c #AA3B37",
"1=	c #B55D60",
"2=	c #A02222",
"3=	c #F0E6DC",
"4=	c #BC8E50",
"5=	c #A37940",
"6=	c #484338",
"7=	c #141715",
"8=	c #23180D",
"9=	c #A77413",
"0=	c #CA8A06",
"a=	c #8D6314",
"b=	c #545F59",
"c=	c #5E6C64",
"d=	c #684B1A",
"e=	c #986E2D",
"f=	c #3F4542",
"g=	c #654F31",
"h=	c #C58D16",
"i=	c #F2BB07",
"j=	c #F5C102",
"k=	c #F2BC07",
"l=	c #C38A15",
"m=	c #0C1707",
"n=	c #43973A",
"o=	c #216533",
"p=	c #0A1D0F",
"q=	c #A46130",
"r=	c #A56130",
"s=	c #A36030",
"t=	c #F4A263",
"u=	c #F9BC07",
"v=	c #FAE991",
"w=	c #FEF6B9",
"x=	c #FDF6B9",
"y=	c #C5C096",
"z=	c #513913",
"A=	c #B28415",
"B=	c #E8B208",
"C=	c #B97E0D",
"D=	c #755119",
"E=	c #84580E",
"F=	c #F9C40F",
"G=	c #FBC504",
"H=	c #CE920A",
"I=	c #4C3811",
"J=	c #A27111",
"K=	c #C88808",
"L=	c #8B6113",
"M=	c #7E5C2F",
"N=	c #B17F3B",
"O=	c #B0803E",
"P=	c #B0803D",
"Q=	c #BF9F78",
"R=	c #F3F0E6",
"S=	c #522A0B",
"T=	c #B0813F",
"U=	c #DDB465",
"V=	c #372E1B",
"W=	c #7B8D84",
"X=	c #404843",
"Y=	c #6A4717",
"Z=	c #AC750E",
"`=	c #C3870F",
" -	c #8B6317",
".-	c #5E6761",
"+-	c #9CB0A5",
"@-	c #708079",
"#-	c #543E16",
"$-	c #C78F13",
"%-	c #F7C306",
"&-	c #F8C503",
"*-	c #EFBE17",
"=-	c #0C1206",
"--	c #1F6033",
";-	c #1F5E34",
">-	c #091A0E",
",-	c #FABC0C",
"'-	c #FDCA05",
")-	c #FAE892",
"!-	c #FEF6BA",
"~-	c #4C3613",
"{-	c #9E6C10",
"]-	c #CA8A09",
"^-	c #B17B1B",
"/-	c #362813",
"(-	c #C58914",
"_-	c #F7C107",
":-	c #F6C105",
"<-	c #CB8F0B",
"[-	c #4C3812",
"}-	c #7C8D84",
"|-	c #525C56",
"1-	c #A57312",
"2-	c #C88704",
"3-	c #865D10",
"4-	c #A78F58",
"5-	c #EFCD7C",
"6-	c #EDCD7C",
"7-	c #EACC7D",
"8-	c #EDCB79",
"9-	c #ECC873",
"0-	c #A87D40",
"a-	c #2C2214",
"b-	c #000201",
"c-	c #B28D50",
"d-	c #9F7231",
"e-	c #B37C12",
"f-	c #7E5A14",
"g-	c #A8861F",
"h-	c #EFBC19",
"i-	c #F2BF19",
"j-	c #E3AE18",
"k-	c #A3721A",
"l-	c #574116",
"m-	c #D59A0B",
"n-	c #F6C106",
"o-	c #C0850F",
"p-	c #080D05",
"q-	c #215D34",
"r-	c #134524",
"s-	c #784B1C",
"t-	c #FA8314",
"u-	c #FC8A04",
"v-	c #FBBE06",
"w-	c #FACF2B",
"x-	c #F9E891",
"y-	c #6F4F16",
"z-	c #AB730B",
"A-	c #825819",
"B-	c #5E4720",
"C-	c #BF8615",
"D-	c #F3BB08",
"E-	c #F6C005",
"F-	c #CF9209",
"G-	c #8C6012",
"H-	c #2F220D",
"I-	c #2E3431",
"J-	c #1B1E1C",
"K-	c #9B6C12",
"L-	c #C68605",
"M-	c #8B6111",
"N-	c #A9925D",
"O-	c #EDCC78",
"P-	c #D5B468",
"Q-	c #B6914E",
"R-	c #ECCB75",
"S-	c #ECCC78",
"T-	c #EDCE80",
"U-	c #D1A75F",
"V-	c #423522",
"W-	c #906A38",
"X-	c #B18746",
"Y-	c #C4964B",
"Z-	c #C5964A",
"`-	c #816639",
" ;	c #6F4E1D",
".;	c #7E581C",
"+;	c #976B15",
"@;	c #D49E0E",
"#;	c #F5C003",
"$;	c #E0AB0E",
"%;	c #996C19",
"&;	c #3F4743",
"*;	c #758278",
"=;	c #6A4F17",
"-;	c #CE9208",
";;	c #BC8211",
">;	c #080C04",
",;	c #226136",
"';	c #154927",
");	c #804E18",
"!;	c #B38747",
"~;	c #766A5D",
"{;	c #F5AE62",
"];	c #F9BB05",
"^;	c #F9E58A",
"/;	c #FEF5B8",
"(;	c #EFE8B0",
"_;	c #B8B085",
":;	c #5B3F0F",
"<;	c #514C41",
"[;	c #81826B",
"};	c #C68707",
"|;	c #D79A07",
"1;	c #D79B12",
"2;	c #6A4B0E",
"3;	c #432F0F",
"4;	c #120C05",
"5;	c #4D370F",
"6;	c #65470F",
"7;	c #49350F",
"8;	c #5A4F36",
"9;	c #80714A",
"0;	c #71613F",
"a;	c #58462B",
"b;	c #7C6B45",
"c;	c #7C6C46",
"d;	c #7F704B",
"e;	c #6D5837",
"f;	c #9F7842",
"g;	c #D8B469",
"h;	c #E3BD6A",
"i;	c #E4BE6A",
"j;	c #D0A355",
"k;	c #785F39",
"l;	c #AD881A",
"m;	c #DFAB0E",
"n;	c #E1AD0E",
"o;	c #EBB607",
"p;	c #F5C002",
"q;	c #F2BD05",
"r;	c #DEA80F",
"s;	c #916718",
"t;	c #202322",
"u;	c #424A45",
"v;	c #523B0F",
"w;	c #BF8610",
"x;	c #644A1E",
"y;	c #5C7268",
"z;	c #194E2B",
"A;	c #154625",
"B;	c #7D4C17",
"C;	c #BE8E45",
"D;	c #B0894A",
"E;	c #8F857A",
"F;	c #F6A976",
"G;	c #FAB606",
"H;	c #FAD655",
"I;	c #F9DC73",
"J;	c #F9E78C",
"K;	c #EAE3AC",
"L;	c #C1B578",
"M;	c #A98F39",
"N;	c #5E6252",
"O;	c #7D5812",
"P;	c #795411",
"Q;	c #7C5717",
"R;	c #606D66",
"S;	c #333936",
"T;	c #020303",
"U;	c #36250F",
"V;	c #735225",
"W;	c #9A7840",
"X;	c #997740",
"Y;	c #99773E",
"Z;	c #DAB366",
"`;	c #ECCA7A",
" >	c #CDA65C",
".>	c #B68844",
"+>	c #684F2D",
"@>	c #8E6C17",
"#>	c #C9940B",
"$>	c #E2AC06",
"%>	c #F8C202",
"&>	c #F9C303",
"*>	c #EDB605",
"=>	c #A87512",
"->	c #43300E",
";>	c #9A6B15",
">>	c #1B201D",
",>	c #7C978B",
"'>	c #144527",
")>	c #164225",
"!>	c #7B4A18",
"~>	c #806034",
"{>	c #826739",
"]>	c #6D381C",
"^>	c #F6B258",
"/>	c #F7A809",
"(>	c #F9BD06",
"_>	c #F9C952",
":>	c #FBEC95",
"<>	c #FAE88F",
"[>	c #E8B719",
"}>	c #A26115",
"|>	c #A4821A",
"1>	c #9F5C25",
"2>	c #7E5B2B",
"3>	c #BE8F45",
"4>	c #BD8E44",
"5>	c #B88A40",
"6>	c #CEA85C",
"7>	c #CFA95E",
"8>	c #D0AB61",
"9>	c #CAA45E",
"0>	c #C9A45C",
"a>	c #796541",
"b>	c #785413",
"c>	c #BD890A",
"d>	c #E7B007",
"e>	c #F8C303",
"f>	c #F8C203",
"g>	c #F7C102",
"h>	c #EAB304",
"i>	c #A97712",
"j>	c #2A312D",
"k>	c #4F5C56",
"l>	c #211709",
"m>	c #59442A",
"n>	c #5C6D66",
"o>	c #819E91",
"p>	c #16492A",
"q>	c #14381F",
"r>	c #6E381C",
"s>	c #542F19",
"t>	c #F49E64",
"u>	c #F8AA07",
"v>	c #F5B26A",
"w>	c #F7B34E",
"x>	c #FA9C07",
"y>	c #F9CB4F",
"z>	c #F8D96F",
"A>	c #F8AA06",
"B>	c #FB8C05",
"C>	c #F9B30A",
"D>	c #F29A1F",
"E>	c #4C3B21",
"F>	c #A97B3A",
"G>	c #BA9351",
"H>	c #BE9654",
"I>	c #BE9652",
"J>	c #BB9551",
"K>	c #BD9652",
"L>	c #E3C373",
"M>	c #EDCE7B",
"N>	c #B19D68",
"O>	c #93743B",
"P>	c #BD8F13",
"Q>	c #D8A70D",
"R>	c #E7B40A",
"S>	c #F7C203",
"T>	c #F5BF04",
"U>	c #DFA90A",
"V>	c #996B14",
"W>	c #6D776A",
"X>	c #6E4F13",
"Y>	c #544937",
"Z>	c #87A197",
"`>	c #86A296",
" ,	c #4B6957",
".,	c #0B100D",
"+,	c #F69D5F",
"@,	c #F88C3D",
"#,	c #F59B5B",
"$,	c #F7AE47",
"%,	c #FBB706",
"&,	c #FB8724",
"*,	c #F59958",
"=,	c #F39C51",
"-,	c #FBBD0E",
";,	c #F48014",
">,	c #E8C573",
",,	c #EECE7B",
"',	c #ECCC79",
"),	c #E4C373",
"!,	c #958254",
"~,	c #684716",
"{,	c #A16F16",
"],	c #CA9712",
"^,	c #F1BB04",
"/,	c #E2AB0B",
"(,	c #AD7814",
"_,	c #6B491D",
":,	c #3B2913",
"<,	c #6C4D1B",
"[,	c #BB7F0C",
"},	c #88642F",
"|,	c #7B9288",
"1,	c #839F92",
"2,	c #84A094",
"3,	c #1B201E",
"4,	c #944F27",
"5,	c #532F16",
"6,	c #F9B308",
"7,	c #F6A46B",
"8,	c #F3851A",
"9,	c #F18725",
"0,	c #A45F30",
"a,	c #CA9B50",
"b,	c #EECC7B",
"c,	c #ECCB78",
"d,	c #ECCB79",
"e,	c #EDCC7B",
"f,	c #BB9452",
"g,	c #644824",
"h,	c #91691B",
"i,	c #E0AA17",
"j,	c #F3C115",
"k,	c #E4AF18",
"l,	c #B07B18",
"m,	c #624318",
"n,	c #432C0D",
"o,	c #9A6610",
"p,	c #CA8A07",
"q,	c #C68705",
"r,	c #B27D14",
"s,	c #212421",
"t,	c #859F93",
"u,	c #89A398",
"v,	c #1C211F",
"w,	c #0E0B05",
"x,	c #0F0A05",
"y,	c #F7A770",
"z,	c #DF8444",
"A,	c #E88A47",
"B,	c #B16935",
"C,	c #A07233",
"D,	c #A17233",
"E,	c #A37333",
"F,	c #A47434",
"G,	c #A37434",
"H,	c #A47435",
"I,	c #D6B367",
"J,	c #EBCB79",
"K,	c #A99462",
"L,	c #171004",
"M,	c #160F02",
"N,	c #181003",
"O,	c #130B04",
"P,	c #674A13",
"Q,	c #CF9611",
"R,	c #F3BE08",
"S,	c #F5BF05",
"T,	c #ECB707",
"U,	c #C08509",
"V,	c #885E1B",
"W,	c #889F95",
"X,	c #1A1E1C",
"Y,	c #BF9654",
"Z,	c #CB9E52",
"`,	c #65543A",
" '	c #573218",
".'	c #E38745",
"+'	c #ED8C47",
"@'	c #B26A36",
"#'	c #CA921A",
"$'	c #BE891C",
"%'	c #815518",
"&'	c #C6974A",
"*'	c #E5C375",
"='	c #E5C372",
"-'	c #E4C372",
";'	c #E4C371",
">'	c #E4C472",
",'	c #EACB78",
"''	c #E3C374",
")'	c #CAA863",
"!'	c #A1793C",
"~'	c #8C6219",
"{'	c #B67E16",
"]'	c #CC9414",
"^'	c #F4C105",
"/'	c #F6C202",
"('	c #F7C202",
"_'	c #F7C204",
":'	c #EFBB0C",
"<'	c #BD820D",
"['	c #69481B",
"}'	c #323633",
"|'	c #704E1F",
"1'	c #896024",
"2'	c #C6994B",
"3'	c #5E4C2F",
"4'	c #6F381C",
"5'	c #994F29",
"6'	c #974B26",
"7'	c #A15D30",
"8'	c #BF8A14",
"9'	c #DA9A05",
"0'	c #DC9C06",
"a'	c #C78D12",
"b'	c #976C2C",
"c'	c #CFA456",
"d'	c #EAC772",
"e'	c #D0AB63",
"f'	c #B28B48",
"g'	c #AC813F",
"h'	c #986B2C",
"i'	c #9A6911",
"j'	c #D29707",
"k'	c #ECB904",
"l'	c #F5C301",
"m'	c #F7C302",
"n'	c #F4C103",
"o'	c #E4AF09",
"p'	c #B17C19",
"q'	c #100A03",
"r'	c #AF7919",
"s'	c #B2790C",
"t'	c #966D2D",
"u'	c #41331D",
"v'	c #757675",
"w'	c #A78F6C",
"x'	c #502F18",
"y'	c #351F10",
"z'	c #C97337",
"A'	c #A07215",
"B'	c #DD9D04",
"C'	c #DC9A05",
"D'	c #DB9A05",
"E'	c #D59809",
"F'	c #A67110",
"G'	c #A17533",
"H'	c #C59E58",
"I'	c #C7A15C",
"J'	c #C39E5A",
"K'	c #C39D59",
"L'	c #C49D58",
"M'	c #BC914C",
"N'	c #B78941",
"O'	c #A27634",
"P'	c #9C6A12",
"Q'	c #D79D07",
"R'	c #F4C302",
"S'	c #F5C302",
"T'	c #F6C302",
"U'	c #C08718",
"V'	c #110A03",
"W'	c #C18517",
"X'	c #AC730D",
"Y'	c #986912",
"Z'	c #684713",
"`'	c #8D6A34",
" )	c #674F29",
".)	c #7B7B7B",
"+)	c #6D4C13",
"@)	c #BF840C",
"#)	c #DC9C05",
"$)	c #DC9B05",
"%)	c #DA9B05",
"&)	c #CB8B08",
"*)	c #AB7512",
"=)	c #936526",
"-)	c #AB7D3A",
";)	c #B0823E",
">)	c #B18340",
",)	c #B38440",
"')	c #C19247",
"))	c #C9994B",
"!)	c #BB8F45",
"~)	c #A6782F",
"{)	c #AF780E",
"])	c #DBA007",
"^)	c #F6C402",
"/)	c #F5C201",
"()	c #C78A14",
"_)	c #4E340F",
":)	c #A47017",
"<)	c #C38307",
"[)	c #CA8704",
"})	c #C58505",
"|)	c #A7710D",
"1)	c #A16D0F",
"2)	c #8D6214",
"3)	c #543B13",
"4)	c #3A2111",
"5)	c #904925",
"6)	c #8F4624",
"7)	c #876013",
"8)	c #CC8D05",
"9)	c #D39604",
"0)	c #DB9C04",
"a)	c #D89904",
"b)	c #C98A04",
"c)	c #C58708",
"d)	c #956412",
"e)	c #AF833C",
"f)	c #B68941",
"g)	c #B88C43",
"h)	c #B78B42",
"i)	c #B48840",
"j)	c #A97C33",
"k)	c #A36F11",
"l)	c #BD820A",
"m)	c #D89E08",
"n)	c #F6C301",
"o)	c #F7C303",
"p)	c #F3C006",
"q)	c #C2850B",
"r)	c #906112",
"s)	c #6A4714",
"t)	c #C4860E",
"u)	c #C78603",
"v)	c #C78604",
"w)	c #C78703",
"x)	c #AF7910",
"y)	c #A57113",
"z)	c #8E7B66",
"A)	c #8C4322",
"B)	c #8B3F1F",
"C)	c #A15E30",
"D)	c #A56132",
"E)	c #7B5813",
"F)	c #C58808",
"G)	c #CF9004",
"H)	c #D89B03",
"I)	c #D49804",
"J)	c #C88904",
"K)	c #C78706",
"L)	c #BC800B",
"M)	c #C0840D",
"N)	c #8D6013",
"O)	c #77531B",
"P)	c #704E1C",
"Q)	c #714F1C",
"R)	c #7C5519",
"S)	c #7F5616",
"T)	c #9E6B12",
"U)	c #A26E10",
"V)	c #936516",
"W)	c #CD9714",
"X)	c #F2BF05",
"Y)	c #F8C402",
"Z)	c #ECB709",
"`)	c #C88806",
" !	c #C98B13",
".!	c #493717",
"+!	c #A77523",
"@!	c #B57D1B",
"#!	c #B27B1A",
"$!	c #B8801A",
"%!	c #5C5C5C",
"&!	c #512D18",
"*!	c #9D6035",
"=!	c #9F5B30",
"-!	c #9F5B2F",
";!	c #5A4223",
">!	c #A36F15",
",!	c #CB8B05",
"'!	c #C98905",
")!	c #C68606",
"!!	c #C98809",
"~!	c #87590E",
"{!	c #7F5613",
"]!	c #795318",
"^!	c #393025",
"/!	c #232423",
"(!	c #5E4422",
"_!	c #79531B",
":!	c #7A541B",
"<!	c #79531A",
"[!	c #67481A",
"}!	c #7A5818",
"|!	c #D89E07",
"1!	c #F2C005",
"2!	c #F5C105",
"3!	c #F5C202",
"4!	c #F2BE08",
"5!	c #CC8B05",
"6!	c #CB8A06",
"7!	c #BF8512",
"8!	c #954F28",
"9!	c #72381B",
"0!	c #542F16",
"a!	c #775516",
"b!	c #C58609",
"c!	c #C68507",
"d!	c #CA8705",
"e!	c #CC8904",
"f!	c #CA8805",
"g!	c #C4860C",
"h!	c #805714",
"i!	c #251A0A",
"j!	c #0C0703",
"k!	c #0C0804",
"l!	c #090602",
"m!	c #6A4E17",
"n!	c #C88A08",
"o!	c #CC8C04",
"p!	c #D79B07",
"q!	c #F5C203",
"r!	c #EEB905",
"s!	c #C98904",
"t!	c #CA8906",
"u!	c #C88705",
"v!	c #C6890E",
"w!	c #6F371B",
"x!	c #522F16",
"y!	c #E08E4C",
"z!	c #AA6636",
"A!	c #D98849",
"B!	c #E48F4C",
"C!	c #5E4319",
"D!	c #9F6B12",
"E!	c #C88805",
"F!	c #C98805",
"G!	c #C08412",
"H!	c #3B2B0F",
"I!	c #7C591A",
"J!	c #CA8907",
"K!	c #CF9307",
"L!	c #CF9108",
"M!	c #C98806",
"N!	c #C98909",
"O!	c #7A5318",
"P!	c #512E17",
"Q!	c #351E10",
"R!	c #533016",
"S!	c #EB9650",
"T!	c #AC6736",
"U!	c #A56232",
"V!	c #E4904C",
"W!	c #948675",
"X!	c #B58612",
"Y!	c #DFAD0A",
"Z!	c #EAB204",
"`!	c #E7B104",
" ~	c #E7B005",
".~	c #CB8A05",
"+~	c #AA7714",
"@~	c #D77D3D",
"#~	c #D27737",
"$~	c #B36833",
"%~	c #694B11",
"&~	c #87621A",
"*~	c #CC8C05",
"=~	c #CB8806",
"-~	c #C98705",
";~	c #C78605",
">~	c #E7B009",
",~	c #BB830C",
"'~	c #3C2E0F",
")~	c #6F371C",
"!~	c #B46E39",
"~~	c #B66F3A",
"{~	c #9E9285",
"]~	c #AF8117",
"^~	c #E0A90F",
"/~	c #D5A412",
"(~	c #F5BF02",
"_~	c #F5C004",
":~	c #CB8B04",
"<~	c #C88A05",
"[~	c #55401A",
"}~	c #DB7938",
"|~	c #B66934",
"1~	c #8D6419",
"2~	c #AF760D",
"3~	c #D08F07",
"4~	c #E4AB07",
"5~	c #E2AA06",
"6~	c #E3AB06",
"7~	c #F8C204",
"8~	c #EAB008",
"9~	c #9F731A",
"0~	c #372010",
"a~	c #989C9A",
"b~	c #A49A83",
"c~	c #D7B681",
"d~	c #C9A153",
"e~	c #C5B492",
"f~	c #D5B34C",
"g~	c #E6AD06",
"h~	c #E6AC06",
"i~	c #CA8B04",
"j~	c #564017",
"k~	c #B66834",
"l~	c #4D3912",
"m~	c #B6810F",
"n~	c #DEA309",
"o~	c #EDB205",
"p~	c #FAC401",
"q~	c #E7AE03",
"r~	c #F4BD03",
"s~	c #E3A707",
"t~	c #624B15",
"u~	c #A06032",
"v~	c #56635E",
"w~	c #A9B0AC",
"x~	c #BDB7AE",
"y~	c #9D8B75",
"z~	c #C3C6C5",
"A~	c #778272",
"B~	c #AA7713",
"C~	c #B07B13",
"D~	c #A77412",
"E~	c #B36935",
"F~	c #B26632",
"G~	c #A76231",
"H~	c #5F4713",
"I~	c #DDA732",
"J~	c #F1CC70",
"K~	c #C58B1B",
"L~	c #F3D072",
"M~	c #F2CF71",
"N~	c #C78C13",
"O~	c #F4CF73",
"P~	c #E7C152",
"Q~	c #66572A",
"R~	c #9F6033",
"S~	c #DA8949",
"T~	c #E38F4B",
"U~	c #B16C38",
"V~	c #AF9165",
"W~	c #E1DFD8",
"X~	c #816641",
"Y~	c #ECECEA",
"Z~	c #ECECE8",
"`~	c #816033",
" {	c #E6E6E2",
".{	c #A1B3A9",
"+{	c #955128",
"@{	c #9E6135",
"#{	c #573217",
"${	c #E9924C",
"%{	c #F49A50",
"&{	c #B56F3A",
"*{	c #0B0C0B",
"={	c #0B0B0B",
"-{	c #0D0D0D",
";{	c #0B0A0B",
">{	c #0A0A0A",
",{	c #362011",
"'{	c #9F6136",
"){	c #B8703A",
"!{	c #BB723B",
"~{	c #A86433",
"{{	c #96512A",
"]{	c #914926",
"^{	c #9E5A2E",
"/{	c #CE8043",
"({	c #E08C49",
"_{	c #BB723C",
":{	c #99542B",
"<{	c #934A26",
"[{	c #9C582D",
"}{	c #A16132",
"|{	c #914A26",
"1{	c #8B3F20",
"2{	c #9D582D",
"3{	c #A46133",
"4{	c #DB8947",
"5{	c #F2974E",
"6{	c #C4773F",
"7{	c #954E28",
"8{	c #8A3E20",
"9{	c #99532B",
"0{	c #965028",
"a{	c #71381C",
"b{	c #583117",
"c{	c #552F16",
"d{	c #8D4926",
"e{	c #904A25",
"f{	c #9E5B2E",
"g{	c #B56E39",
"h{	c #BD743C",
"i{	c #9F5C2F",
"j{	c #9D592E",
"k{	c #A05E2F",
"l{	c #9E6136",
"m{	c #833D20",
"n{	c #A4602F",
"o{	c #70371C",
"p{	c #6E4326",
"q{	c #704324",
"r{	c #65351C",
"s{	c #724324",
"t{	c #724424",
"u{	c #724323",
"v{	c #734324",
"w{	c #724423",
"x{	c #734424",
"y{	c #734423",
"z{	c #724223",
"A{	c #724322",
"B{	c #6C3C1E",
"C{	c #5D3219",
"D{	c #010001",
"E{	c #502F1A",
"F{	c #2C1B11",
"G{	c #2D1A0E",
"H{	c #2D1A0F",
"I{	c #2C1A0E",
"J{	c #2E1A0E",
"K{	c #2E1A0F",
"L{	c #2E190E",
"M{	c #2D190E",
"N{	c #1D1009",
"        .                                                         +           . .                   @ @ .     @ @ @     @ @ @   ",
"# @ $ % & * * = - = = = = = * ; - = ; & ; = - = - - > - ; , * ; , ; , , ; * , & * , , - = & , = ; , ; , - - ; , * & , ; ' ) !   ",
"# @ ~ { { ] ^ / ( _ : _ _ _ < < < < [ / / } | ( } _ _ } [ < 1 1 1 1 1 ^ 1 ^ / / 1 ^ 1 1 ( / [ ( < 1 < 1 < < < 2 3 4 4 5 6 7 8   ",
"9 @ 0 a b c d e b f f g f f h d i i j k d f f d d l f i d d h d m j n o d c n h p o n d d c c f n d d h d n n n q q e c r s t   ",
"  @ u v w x y y y z z z z y y A y y y y B B y C C C y y y D y E E E y y y E B B E C C C E y B z y B y C E y y E D y F E B G H   ",
"  @ I v J E K L M M N O O O P P P O O O O O P Q R R O O O O O O Q O O O O O O O Q S R O O O P T O P O O S O O O O U V W X Y Z   ",
"  @ ` v w E  ...[ _ _ _ _ < } } +._ _ _ _ _ _ _ _ _ } _ _ _ +._ _ _ _ _ _ _ _ _ _ _ _ _ _ _ _ +._ _ _ _ _ +._ _ _ @.#.$.%.s &.  ",
"  @ I *.=.-.;.>.[ _ +._ _ _ _ +.,.'.).!.~._ _ +._ ,.{._ +._ ].^./._ '.+._ (._._ _ _ _ _ +._ (._.:.<.[._ _ _ _ _ _ }.|.1.2.3.4.  ",
"@ @ I v w 5.5 _ _ _ _ _ _ +._ +.,.'.6.7.8.} _ _.'.{.{._ _ _.9.0.a.+.,.'._ _ +._ _ _ _ '.,._ _ _ b.c.d._ _ _ e._ _ _ _ f.g.z h.  ",
"  i.I v j.k.l._ _ _ _ _ m.n.o._ (.+.p.q.r.s.e._.'.'.t.u.@ _ @ @ v.(.{.+._ w.+._ _ _ _ ,.,._._ x.y.q.z._ _ _ _.+.A.A.} B.C.7 D.  ",
"  i.I v J k.E._ +.+._ _.F.G.H._ ,.I.+._ _ e.e.(.,.'.J.@ @ @ @ @ @ e.e._ _ '.+._ _ _ _ +._ '.,.+.+.: e._ _ _.(.{.(._ } B.C.K.4.  ",
"+ @ I v L.C E.e.,.,.M.a.N.O.P._ +.+.e.e.e.(.(.e.Q.R.@ @ S.T.U.V.W.W.X.@ _ ,.Y.Z.`. +.+_ _ e.e.{.+._ _ _ _.e.e.{.++_ _ f.C.z &.  ",
"+ i.` v L.E l._ '.@+#+$+%+_ _ _ _ e.e.e.(.(.(.@ @ @ @ &+*+=+-+;+>+,+'+@ @ '.)+!+~+@ @ _ _ e.e.+++._ _ _ _.{+e.{.++_ _ f.]+K.^+  ",
"  @ ` v L.E /+_ +.,.(+_+:+_ _ _ e.e.e._._._.@ @ <+[+}+|+1+2+3+4+5+6+7+8+@ @ 9+0+@ @ a+@ _ _ _ _ w._ b+v.:+_._._._._ _ B.c+z H   ",
"  @ ` v J 5.l._ _ _ _ } } _ _ _ _ _ _ _ _ (.@ d+e+f+g+h+i+j+k+l+m+n+o+p+q+@ @ @ @ r+s+@ _ _ _ _ _ _.t+u+v+_ _ s._ _ _ w+]+B x+y+",
"  @ I v L.E l.} _ _ _ _ _ _ _ e.z+v.A+_ +.(.@ B+C+D+E+F+G+H+I+J+K+L+M+N+O+P+Q+R+S+T+U+@ @ _ _._ e.++V+W+X+_ _ _ _ _ _ Y+C.3.4.  ",
"@ @ Z+v J C l._ _ _ _ _ _ _ _.e.`+ @z+_ _ (.@ .@+@@@#@$@%@&@*@=@-@;@>@,@'@)@!@~@{@]@^@/@@ e.e.e.e.@ @ _ _ A.A+_ _ _ _ (@g.K._@. ",
". @ :@<@[@}@l._ _ '._ _ _ _ |@1@2@3@4@_ _ +.@ 5@6@7@8@9@0@a@b@c@d@e@f@g@h@i@j@k@l@m@n@o@@ _ _ @ @ p@@ _._ _.q@r@s@(._ t@]+K.u@  ",
"  @ Z+v [@v@l.} _ _ w.A.s._ w@x@y@z@A@B@C@@ @ D@E@F@G@H@I@J@K@L@M@N@O@P@Q@R@S@T@U@V@W@X@Y@@ @ Z@`@ #@ e.e._ .#+#@#w.} t@c+K.u@  ",
"  @ I v ##k.l._ _ _ A._ _ _ q.$#%#&#*#3@=#@ -#;#>#,#'#)#!#~#{#]#^#/#(#_#:#<#[#}#|#1#2#3#4#5#6#7#8#9#@ e.e._ 0#a#b#s.A+c#C.z Z   ",
"+ @ d#*.j.}@l._ _ (.e#_ _ +.| _ _ _ f#2@g#@ h#i#j#k#l#m#n#o#p#q#r#s#t#u#v#w#x#y#z#A#B#C#D#E#F#G#H#I#@ _ _ _ _ : _ _ _ f.C.z H [+",
"@ @ :@J#J C l._ _ e#K#_ _ _ _ _ _._ | _._ @ @ L#M#N#O#P#Q#R#S#T#U#V#W#X#Y#Z#`# $.$+$@$@$#$$$%$&$*$=$@ _._._ ,._ +._ _ B.]+K.-$  ",
"  @ :@;$e#e#e#_ _ e#>$,$s._ _ e.'$_ _ _ @ @ )$!$~${$]$^$/$($_$:$<$[$}$|$1$2$3$4$5$6$7$8$9$0$a$b$c$d$@ @ e.++,.+.+.+._ B.e$K.H   ",
"  @ f$J#g$e#e#_ e#h$i$x@P.j$e.e#e._ } w.@ k$l$m$n$o$p$q$r$s$t$u$v$w$w$x$y$z$A$B$C$D$E$F$G$H$I$J$K$L$M$@ @ _._._ _ _ _ f.e$z &.  ",
"# e#e#*.L.N$e#e#e#O$P$Q$R$S$T$U$_ _ _ @ @ V$W$X$Y$Z$`$ %.%+%@%w$#%[$$%%%&%*%=%-%;%;%>%,%'%)% $!%~%{%]%^%/%(%_%:%<%@ _ w+e$z x+[+",
"# e#e#e#[%7 }%|%1%2%3%4%5%6%7%_ _ _ _ @ 8%9%0%a%b%c%d%e%f%g%h%i%j%k%l%m%n%o%p%q%r%s%t%u%v%w%x%y%z%A%B%C%D%E%F%G%H%@ _ w+C.K.4.  ",
"+ @ ~ I%J%K%L%M%N%O%P%Q%R%S%T%_ _ @ @ @ U%9%V%W%X%$%@%Y%Z%`% &.&+&@&#&$&%&&&*&=&-&;&>&  ,&'&)&!&~&{&]&^&/&(&_&:&@ @ _ B.C.z H   ",
"  i.0 <&[&}&|&1&2&3&4&5&6&7&8&@ @ 9&0&a&b&c&d&e&f&g&h&i&j&k&l&m&n&o&p&q&r&s&t&u&v&w&x&y&z&A&B&C&D&E&F&G&H&I&J&@ @ K&L&M&C.N&O&  ",
"  e#~ P&Q&R&S&T&U&V&W&X&Y&Z&`& *.*+*@*#*$*%*&***=*-*;*>*,*'*)*!*~*{*]*^*/*(*_*:*<*  [*}*|*1*2*3*4*5*6*7*8*9*0*@ a*b*c*w+d*7 &.  ",
"  e#e#e*f*g*h*i*j*k*l*m*n*o*p*q*r*s*t*u*v*w*x*y*z*A*B*C*D*E*F*G*H*I*J*<*K*L*M*N*O*P*Q*R*S*T*U*V*W*X*Y*Z*`* =.=@ +=@=#=c#d*z H   ",
"@ @ e#$=%=&=*===-=;=>=n*,='=)=!=~={=]=<*^=/=(=_=:=<=[=}=|=1=2=3=4=5=6=7=8=9=0=a=b=c=d=e=f=g=h=i=j=k=l=m=n=o=p=@ q=r=s=w+]+K.H   ",
"+ @ d#t=u=v=w=x=y=z=A=B=C=D=E=F=G=H=I=@ y+J=K=L=M=N=O=P=Q=R=S=T=U=V=W=X=Y=Z=`= -9 @ 9 .-+-@-#-$-%-&-*-=---;->-@ _ _ } Y+g.G H   ",
"+ @ e#,-'-)-!-!--=~-{-]-^-/-(-_-:-<-[-}-|-1-2-3-4-h%@%5-6-7-8-9-0-a-b-c-d-e-f-g-h-i-j-k-# b-p%l-m-n-o-p-q-r-s-@ @ _ } f.e$K.x+  ",
"  e#t-u-v-w-x-w=-=y-z-A-B-C-D-E-F-G-H-I-J-K-L-M-N-O-P-Q-R-S-T-U-V-W-X-Y-Z-`- ;.;+;@;#;$;%;y+&;*;=;-;;;>;,;';);!;~;@ _ w+g.K.H   ",
"  i.d#<@{;];^;/;(;_;:;<;[;};|;1;2;3;4;. @ 5;6;7;8;9;0;a;b;c;d;e;f;g;h;i;j;k;l;m;n;o;p;q;r;s;t;u;v;w;x;y;z;A;B;C;D;E;@ B.e$z &.  ",
"  @ Z+*.F;G;H;I;J;K;L;M;N;O;P;Q;@ @ R;S;@ @ @ @ @ # T;U;V;W;X;Y;Z;`;8- >.>+>@>#>$>p;%>&>*>=>    ->;>>>,>'>)>!>~>{>@ @ B.]>K.^+  ",
"  @ Z+J#^>/>(>}&_>:><>[>}>|>1>@ e.@ @ @ @ r=_.e.@ @ @ @ 2>3>4>5>6>7>8>9>0>a>b>c>d>e>f>g>h>i>j>k>l>m>n>o>p>q>@ @ @ @ } f.r>s>H   ",
"  @ d#t>u>v>w>x>x>y>z>A>B>C>D>_ _ _ _ _ [ _ _.e.e.++{.@ E>F>G>H>I>J>K>L>M>N>O>P>Q>R>S>T>U>V>(*W>X>Y>Z>`> ,.,@ w.+._ } c#r>z H <*",
"@ @ e#e#+,N$e#@,#,$,%,&,*,=,-,;,_ _ e.e._ e.e.++e.(.++@ @ @ >,X%g%Z$,,w$',),!,~,{,],^,/,(,_,:,<,[,},|,1,2,3,@ _ _ e._ 4,g.z x+[+",
"# @ e#*.[@5,e#_ +.e#6,7,e._.8,9,++++0,0,_ '.{.{.e.e.e.{.e.@ a,b,c,d,X%e,d,f,g,h,i,j,k,l,m,n,o,p,q,r,s,t,u,v,w,x,@ e._ (@g.z H   ",
"  e#e#<@=.e#e#_ +.e#e#y,(.(._.e#e#++z,A,B,'.{.{.e.: : @ @ @ C,D,E,F,G,H,H,I,J,K,L,M,N,O,P,Q,R,S,T,U,V,J-W,X,Y,Z,`,@ _ c#r>s u@  ",
"  e#:@<@ 'e#l._ _ _ e#e#(.(.e.e.e#++.'+'@'_ (.(._ e.@ @ #'$'%'&'*'='-';'>','S-'')'!'~'{']'^'/'('_':'<'['}'|'1'2'3'@ @ @ 4'z &.  ",
"# @ d#J#[@5,l._ _ _ _.e#_.e.e._._.+.5'6'7'_.e.: _ @ @ 8'9'0'a'b'c'd'S-6-6-X%e'f'g'h'i'j'k'l'm'm'm'n'o'p'q'r's't'u'v'w'@ @ x'y'<*",
"  @ Z+*.j.}@l._ _ _ e.e#_._ e._.+.+.7'7': {.++e.z'@ A'B'C'D'E'F'G'H'I'J'K'L'M'p&N'O'P'Q'R'S'T'T'('('q*U'V'W'2-X'Y'Z'`' ).)@ O&  ",
"# i.d#J#[@5,l._ _ _ e.: _ _ _ (.'._ _ _ _ : e.'.@ +)@)#)$)D'%)&)*)=)-);)>),)')))!)~){)])^)/)S'('('(':-()_):)<)[)})|)1)2)3)@ 4)  ",
"  @ :@<@j.5.<@_ _ _.e.e.5)6)3 _ (._._ _ _ _._ _ @ 7)8)9)0)B'a)b)c)d)e)f)g)h)i)i)j)k)l)m)n)m'('e>%>o)p)q)r)s)t)u)v)w)x)y)z)@ t   ",
"  @ Z+J#j.}@l._ (._ _ _ A)B)C)_.D)A+A+_ I._._ _ @ E)F)G)H)I)J)K)L)M)N)O)P)Q)R)S)T)U)V)W)X)Y)m'm'('n'Z)`) !.!+!@!#!$!@ %!@ &!t y+",
"  @ *!E.j.}@l._._.s._ _ =!-!: _.(._.e._.,._ _.e.@ ;!>!,!'!v))!!!~!{!]!^!/!/!(!_!:!<![!}!|!1!2!3!m'4!5!6!L-7!@ @ @ @ @ 8!9!0!O&[+",
"@ @ d#<@[@5.<@e._ _ _ _.,.+._._.e.e.e.e.(._.e._ _ @ a!b!c!d!e!f!g!h!i!@ @ @ @ j!j!k!l!m!n!o!p!q!r!s!t!f!u!v!@ @ _ _ _ 4,w!5,t   ",
"  @ d#J#[@x!<@e.: < y!O.z!,._.e.e.(.(._.(._._._ A!B!@ C!D!f!E!F!`)G!H!@ e.e.@ @ @ @ @ @ I!J!p,K!L!M!F!d!f!N!O!@ _ _ _ c#g.P!Q!  ",
"  @ d#<@=.R!l.++(._ S!b*T!+._.e.e.U!A+(.+._._.,.V!@ W!X!Y!Z!`! ~.~p,+~@ @~#~$~_._.e.++@ @ %~&~*~t!t!=~-~;~>~,~'~@ } } @.)~y H   ",
"  @ I <@=.5,E.++(.+.!~~~U!_ e.{.(.U!A+_.e.e.e.'.@ {~]~^~/~S>(~_~:~s!<~[~@ }~|~_ _ e.e.e.@ @ @ 1~2~3~4~5~6~7~8~9~@ _._ @.)~z 0~[+",
"  @ I <@g$N$l.+.e.e.e.: : _._.(.(.D)_.e.: e.++@ a~b~c~d~e~f~g~h~J)s!i~j~@ }~k~_ _ e.e.e.e.@ @ l~m~n~o~p~('q~r~s~t~@ _ @.)~z 0~  ",
"@ i.*!u~=.5,l._ e.e.e.e.e.(.A+_.e.e._._ _ _ _ @ v~w~x~y~z~A~B~C~B~D~9=@ E~F~G~_ e.e.e.e.e.e.@ H~I~J~K~L~M~N~O~P~Q~@ _ @.4'K.u@. ",
". @ :@<@[@R!R~_ e.e.e.(.A++.'.e.e.e._ _ S~T~U~@ @ @ @ @ @ @ @ @ @ @ @ _ _ e._ _ _.e.e.e.e.{+@ @ V~W~X~Y~Z~`~ {.{@ @ s.+{)~K.H   ",
". @ @{u~#{5,l.} _ _._.(.(._ _._.e._._ ( ${%{&{_ _.e.e.e.e._._._ e.++_._ _ _ +._ _.e.e.e._.e._.@ *{={={-{-{;{>{*{@ _ s.@.g.A ,{[+",
"  i.'{] [@0!l._ _ e.e.e.e.e._ _ e.e._.e.){!{~{_ _ _._.(._.e.e._ : e.(._ {{]{^{_.++++/{({_{e.e.{+e.e.e.e.e._._._ :{<{[{8!w!7 0~[+",
"  @ '{}{[@0!/+_ _ _.e.e.e.e._ _ _ e.e.e.e.: e.e.e.e.e.e.e.e.e.e.e.e.e._ |{1{2{_.{.3{4{5{6{e.e.e.e.e._._ _ e.: _ 7{8{9{0{a{N$&.  ",
"+ @ @{] b{c{d{e{[ _ _ e.e.{+_._ _ e.e.e.e.e.e.e.e.e.e.{+e.e.e.e.e.e._._ f{[{C)_ (.+.g{h{q@_.e.e.e._._._ _ e.e._.i{j{k{c#d*D 0~  ",
"  @ l{}{b{C m{#._.s.w._ _._.e.e._ e.e._ _._._._.e.e.{+n{_._.(._.e.e._ _ _ } s.A.(._ _ _ _ _ _ +.(.(._._ _ _ e._ _ _ _ @.o{K.H   ",
"  i.p{q{7 D r{W s{t{t{u{u{v{r r w{x{x{w{u{u{u{u{u{r r r y{r u{u{u{r u{w{u{w{s{u{u{u{u{u{w{w{w{w{y{u{u{z{A{u{u{w{w{u{u{B{C{K.Z [+",
"  D{E{K.K.7 7 N$N$N$K.N$N$N$N$N$N$N$N$N$N$N$N$N$N$N$N$N$N$N$N$N$N$N$N$N$N$N$N$N$N$N$N$N$N$N$N$N$N$N$-.N$N$N$N$N$N$7 7 7 7 z Z [+",
"    F{G{G{H{H{G{G{G{G{H{H{G{I{G{I{G{G{J{J{G{J{G{H{H{G{G{G{H{G{G{G{J{J{G{J{J{K{L{G{G{G{H{H{G{G{G{G{J{H{H{G{G{G{G{G{G{G{H{M{G{N{  ",
"                                    [+[+      [+[+        [+    [+[+[+    [+    [+[+  [+[+[+[+    [+[+    [+        [+          "};
