/* XPM */
static char * Bowser_right_64_xpm[] = {
"64 64 1734 2",
"  	c #010101",
". 	c #000101",
"+ 	c #010100",
"@ 	c #000000",
"# 	c #000100",
"$ 	c #583A24",
"% 	c #5A3A23",
"& 	c #5A3923",
"* 	c #5B3923",
"= 	c #5B3A23",
"- 	c #5B3A22",
"; 	c #5B3922",
"> 	c #5C3A23",
", 	c #5A3922",
"' 	c #462B19",
") 	c #2B190E",
"! 	c #1B1008",
"~ 	c #9C5F34",
"{ 	c #A15F31",
"] 	c #A16032",
"^ 	c #A06031",
"/ 	c #A16031",
"( 	c #A26130",
"_ 	c #A36131",
": 	c #A36031",
"< 	c #A26030",
"[ 	c #A26031",
"} 	c #A26131",
"| 	c #A36130",
"1 	c #A16030",
"2 	c #A25F31",
"3 	c #A15F30",
"4 	c #A15E31",
"5 	c #A05E32",
"6 	c #7B4825",
"7 	c #532F18",
"8 	c #382111",
"9 	c #000001",
"0 	c #9C5F35",
"a 	c #A15E32",
"b 	c #8D532C",
"c 	c #8C532C",
"d 	c #8C532B",
"e 	c #8D522B",
"f 	c #8D542B",
"g 	c #8D542C",
"h 	c #8C542B",
"i 	c #8D532B",
"j 	c #8B542B",
"k 	c #8B542C",
"l 	c #8D532A",
"m 	c #8C542A",
"n 	c #8C532A",
"o 	c #8B532B",
"p 	c #8C542C",
"q 	c #8C522B",
"r 	c #734323",
"s 	c #533019",
"t 	c #371F10",
"u 	c #9D5F35",
"v 	c #A05F31",
"w 	c #573018",
"x 	c #532E18",
"y 	c #522E18",
"z 	c #522F19",
"A 	c #522E19",
"B 	c #522F18",
"C 	c #522E16",
"D 	c #522F17",
"E 	c #522E17",
"F 	c #512E16",
"G 	c #532F1A",
"H 	c #371F11",
"I 	c #9D6034",
"J 	c #563017",
"K 	c #63341B",
"L 	c #65351B",
"M 	c #6F4123",
"N 	c #704224",
"O 	c #704223",
"P 	c #6F4223",
"Q 	c #6F4222",
"R 	c #704222",
"S 	c #704122",
"T 	c #6F4224",
"U 	c #6A3B1E",
"V 	c #66351B",
"W 	c #67351A",
"X 	c #5C311A",
"Y 	c #512F19",
"Z 	c #351F11",
"` 	c #9D5F34",
" .	c #803D1F",
"..	c #853E1E",
"+.	c #A36132",
"@.	c #955028",
"#.	c #883E1E",
"$.	c #853D1E",
"%.	c #6D361B",
"&.	c #361F11",
"*.	c #9F5F31",
"=.	c #573118",
"-.	c #532E17",
";.	c #8A4825",
">.	c #8E4825",
",.	c #A36033",
"'.	c #A36032",
").	c #B66F3B",
"!.	c #BA723C",
"~.	c #A76433",
"{.	c #A46033",
"].	c #AF6634",
"^.	c #B26834",
"/.	c #A66332",
"(.	c #A46132",
"_.	c #A46131",
":.	c #B16B38",
"<.	c #B9713B",
"[.	c #AB6735",
"}.	c #98542B",
"|.	c #8E4724",
"1.	c #874221",
"2.	c #6B361B",
"3.	c #543019",
"4.	c #382011",
"5.	c #532E16",
"6.	c #E6914D",
"7.	c #F09851",
"8.	c #B36C39",
"9.	c #CD7537",
"0.	c #D77838",
"a.	c #B06633",
"b.	c #D68647",
"c.	c #EF9951",
"d.	c #C47A40",
"e.	c #A46031",
"f.	c #935028",
"g.	c #6E371C",
"h.	c #361E11",
"i.	c #010000",
"j.	c #573017",
"k.	c #522E15",
"l.	c #9F5F32",
"m.	c #B56F39",
"n.	c #B76F3A",
"o.	c #A56333",
"p.	c #D78848",
"q.	c #E08E4B",
"r.	c #AF6B37",
"s.	c #A36231",
"t.	c #B46935",
"u.	c #B76B35",
"v.	c #A76332",
"w.	c #C57137",
"x.	c #CD7438",
"y.	c #A26231",
"z.	c #A26132",
"A.	c #CA7F43",
"B.	c #BD743D",
"C.	c #A36232",
"D.	c #935027",
"E.	c #6D371B",
"F.	c #381F10",
"G.	c #A05F32",
"H.	c #EB9751",
"I.	c #F09951",
"J.	c #AE6936",
"K.	c #A36133",
"L.	c #E18141",
"M.	c #EE8743",
"N.	c #B76A36",
"O.	c #532F19",
"P.	c #563018",
"Q.	c #AF6534",
"R.	c #E08E4D",
"S.	c #E4904D",
"T.	c #AC6735",
"U.	c #AE6533",
"V.	c #B16633",
"W.	c #D77B3E",
"X.	c #DF7F3F",
"Y.	c #212121",
"Z.	c #202020",
"`.	c #090201",
" +	c #CB3E21",
".+	c #39211E",
"++	c #6F1814",
"@+	c #AC6433",
"#+	c #B06533",
"$+	c #B46B37",
"%+	c #B66E39",
"&+	c #A96634",
"*+	c #A46032",
"=+	c #A45F33",
"-+	c #D5783B",
";+	c #D87A3A",
">+	c #A96332",
",+	c #CF7539",
"'+	c #D8783A",
")+	c #49180F",
"!+	c #BB3318",
"~+	c #BE3418",
"{+	c #7E140A",
"]+	c #D83818",
"^+	c #BD3218",
"/+	c #921B11",
"(+	c #B83017",
"_+	c #F09850",
":+	c #C0773E",
"<+	c #A46030",
"[+	c #6C371B",
"}+	c #371F12",
"|+	c #9F5F33",
"1+	c #CB743A",
"2+	c #CE7539",
"3+	c #A86332",
"4+	c #AC9F84",
"5+	c #C67138",
"6+	c #CE7438",
"7+	c #998657",
"8+	c #37110A",
"9+	c #972B15",
"0+	c #B82C14",
"a+	c #B72813",
"b+	c #B52713",
"c+	c #E23B15",
"d+	c #CC3313",
"e+	c #DB3714",
"f+	c #742112",
"g+	c #010201",
"h+	c #685030",
"i+	c #BB733D",
"j+	c #AA6432",
"k+	c #AE6633",
"l+	c #6C361B",
"m+	c #C2A769",
"n+	c #BBA268",
"o+	c #A58B56",
"p+	c #CEB46B",
"q+	c #180503",
"r+	c #4E0F0A",
"s+	c #81150E",
"t+	c #BB2C15",
"u+	c #A7190F",
"v+	c #C63115",
"w+	c #DA3715",
"x+	c #E13914",
"y+	c #A73119",
"z+	c #541B11",
"A+	c #8E6D3E",
"B+	c #89693C",
"C+	c #C57036",
"D+	c #D8793A",
"E+	c #BB6C35",
"F+	c #934F27",
"G+	c #372011",
"H+	c #020201",
"I+	c #AC6533",
"J+	c #A46232",
"K+	c #C19F63",
"L+	c #E7BC6D",
"M+	c #A08554",
"N+	c #A3A3A3",
"O+	c #AEADAD",
"P+	c #785F38",
"Q+	c #D2A85B",
"R+	c #D1B870",
"S+	c #553C25",
"T+	c #731910",
"U+	c #761E12",
"V+	c #88180E",
"W+	c #A61E11",
"X+	c #7D170F",
"Y+	c #C53115",
"Z+	c #E13A15",
"`+	c #E23915",
" @	c #8B2915",
".@	c #8D6B3C",
"+@	c #89683A",
"@@	c #C06E36",
"#@	c #D07639",
"$@	c #B66A34",
"%@	c #934F28",
"&@	c #9C6034",
"*@	c #D17639",
"=@	c #D77A3A",
"-@	c #945728",
";@	c #B46728",
">@	c #B86A29",
",@	c #7F4D25",
"'@	c #0C0403",
")@	c #110303",
"!@	c #785E37",
"~@	c #D1A557",
"{@	c #E3BF67",
"]@	c #B88A47",
"^@	c #3A2D12",
"/@	c #303B1B",
"(@	c #731C10",
"_@	c #4E2611",
":@	c #4E2711",
"<@	c #7D1A0F",
"[@	c #CA3117",
"}@	c #E33916",
"|@	c #902B16",
"1@	c #8E6D40",
"2@	c #8A6A3E",
"3@	c #945027",
"4@	c #362010",
"5@	c #9C6135",
"6@	c #9F6032",
"7@	c #573117",
"8@	c #532E15",
"9@	c #DFC27E",
"0@	c #D77939",
"a@	c #AB6432",
"b@	c #254D29",
"c@	c #285B2F",
"d@	c #295C2E",
"e@	c #1D3F22",
"f@	c #781915",
"g@	c #821917",
"h@	c #765C38",
"i@	c #CFA45A",
"j@	c #E7C472",
"k@	c #E6BE71",
"l@	c #A46327",
"m@	c #265831",
"n@	c #422A11",
"o@	c #8D180E",
"p@	c #D03718",
"q@	c #9B2012",
"r@	c #92190D",
"s@	c #CE3114",
"t@	c #8B2715",
"u@	c #32250E",
"v@	c #33260F",
"w@	c #AC6836",
"x@	c #B26C38",
"y@	c #AA6635",
"z@	c #925027",
"A@	c #381F11",
"B@	c #532F15",
"C@	c #C59D57",
"D@	c #D3B470",
"E@	c #D6BA77",
"F@	c #3D5842",
"G@	c #388533",
"H@	c #409634",
"I@	c #419733",
"J@	c #3F9133",
"K@	c #436429",
"L@	c #330B08",
"M@	c #31281B",
"N@	c #866D44",
"O@	c #C69851",
"P@	c #A66D38",
"Q@	c #A05E22",
"R@	c #2C562F",
"S@	c #8B1C0F",
"T@	c #D43616",
"U@	c #E23B14",
"V@	c #D23414",
"W@	c #7B782A",
"X@	c #854E1D",
"Y@	c #6A762B",
"Z@	c #5C6526",
"`@	c #8B1E11",
" #	c #D58547",
".#	c #F29C52",
"+#	c #CB8043",
"@#	c #563016",
"##	c #C09651",
"$#	c #E7C371",
"%#	c #D89D53",
"&#	c #625C34",
"*#	c #2E702A",
"=#	c #368A30",
"-#	c #338335",
";#	c #3E9533",
">#	c #449F30",
",#	c #388C33",
"'#	c #62866B",
")#	c #82978E",
"!#	c #6B7C74",
"~#	c #583C20",
"{#	c #9E652C",
"]#	c #88521D",
"^#	c #64672D",
"/#	c #458D34",
"(#	c #682610",
"_#	c #882E15",
":#	c #AC2413",
"<#	c #D53413",
"[#	c #835420",
"}#	c #5D7728",
"|#	c #529831",
"1#	c #647126",
"2#	c #9A1B0F",
"3#	c #83140D",
"4#	c #A36030",
"5#	c #CE8144",
"6#	c #E7934E",
"7#	c #C37A40",
"8#	c #945028",
"9#	c #9C6035",
"0#	c #B1783A",
"a#	c #BF9250",
"b#	c #988536",
"c#	c #4D8432",
"d#	c #358835",
"e#	c #318433",
"f#	c #246B33",
"g#	c #2D7631",
"h#	c #328232",
"i#	c #8CA68F",
"j#	c #C7D0CB",
"k#	c #C2D1CB",
"l#	c #8DA69C",
"m#	c #5C6558",
"n#	c #645729",
"o#	c #56562A",
"p#	c #1F6431",
"q#	c #479E34",
"r#	c #42762A",
"s#	c #8F9588",
"t#	c #C9B2B1",
"u#	c #C05951",
"v#	c #9F2713",
"w#	c #5C6D2B",
"x#	c #429333",
"y#	c #5F6D26",
"z#	c #77180F",
"A#	c #967C7B",
"B#	c #A15E30",
"C#	c #A05D2F",
"D#	c #A25F30",
"E#	c #ED8118",
"F#	c #9F6031",
"G#	c #8E612A",
"H#	c #7C6F25",
"I#	c #4B952F",
"J#	c #388D32",
"K#	c #829E87",
"L#	c #97A89C",
"M#	c #97A79B",
"N#	c #97A79C",
"O#	c #D5DAD7",
"P#	c #FEFEFE",
"Q#	c #D8E0DD",
"R#	c #869F96",
"S#	c #546E64",
"T#	c #346337",
"U#	c #6B713F",
"V#	c #898F54",
"W#	c #90B254",
"X#	c #47A034",
"Y#	c #A0C09F",
"Z#	c #F6F8F5",
"`#	c #967574",
" $	c #922111",
".$	c #564827",
"+$	c #357D33",
"@$	c #536426",
"#$	c #450F0B",
"$$	c #924C27",
"%$	c #883D1E",
"&$	c #99552B",
"*$	c #F6B184",
"=$	c #392012",
"-$	c #9E6031",
";$	c #AC6835",
">$	c #2B6A31",
",$	c #459F33",
"'$	c #429C33",
")$	c #658869",
"!$	c #DFE5E1",
"~$	c #F3F6F5",
"{$	c #F1F4F2",
"]$	c #F1F4F3",
"^$	c #F1F5F3",
"/$	c #F0F4F3",
"($	c #EFF2F1",
"_$	c #C5CCCA",
":$	c #62746D",
"<$	c #273A20",
"[$	c #6C6E3B",
"}$	c #C69B56",
"|$	c #EDCE7C",
"1$	c #E6CD76",
"2$	c #72A645",
"3$	c #659C39",
"4$	c #DCEAD9",
"5$	c #707D6F",
"6$	c #3A431E",
"7$	c #42542B",
"8$	c #516837",
"9$	c #5F633E",
"0$	c #655A3E",
"a$	c #655B3F",
"b$	c #944F28",
"c$	c #EB9A5D",
"d$	c #9A572C",
"e$	c #F6B181",
"f$	c #6D371C",
"g$	c #9B6035",
"h$	c #573119",
"i$	c #532F16",
"j$	c #EC9550",
"k$	c #1E562F",
"l$	c #3E9835",
"m$	c #449F35",
"n$	c #35763F",
"o$	c #E3E7E5",
"p$	c #F9FAF9",
"q$	c #BBCDC4",
"r$	c #9EB7AC",
"s$	c #9FB6AC",
"t$	c #A2B7AE",
"u$	c #A0B8AD",
"v$	c #8BA398",
"w$	c #576660",
"x$	c #142D14",
"y$	c #636430",
"z$	c #C39850",
"A$	c #EDCD79",
"B$	c #EDCD78",
"C$	c #EDCF7E",
"D$	c #CAA457",
"E$	c #5E9E39",
"F$	c #489935",
"G$	c #408B37",
"H$	c #897C36",
"I$	c #BC9046",
"J$	c #DBB667",
"K$	c #EBCB7A",
"L$	c #ECCB7A",
"M$	c #BDA264",
"N$	c #EF9040",
"O$	c #F7B582",
"P$	c #FC8403",
"Q$	c #532F17",
"R$	c #131413",
"S$	c #111213",
"T$	c #101112",
"U$	c #111212",
"V$	c #131815",
"W$	c #225A34",
"X$	c #1B6032",
"Y$	c #439B36",
"Z$	c #276833",
"`$	c #E0E6E3",
" %	c #858585",
".%	c #93A99F",
"+%	c #616D67",
"@%	c #050806",
"#%	c #040605",
"$%	c #040705",
"%%	c #020403",
"&%	c #4D3516",
"*%	c #A88547",
"=%	c #EECD76",
"-%	c #EDCD7A",
";%	c #EDCE7E",
">%	c #EECD78",
",%	c #E9CE79",
"'%	c #D1AA5B",
")%	c #C29B4E",
"!%	c #DFC074",
"~%	c #EECE7C",
"{%	c #C49F5A",
"]%	c #C6A35C",
"^%	c #CBA860",
"/%	c #A27536",
"(%	c #EF7E12",
"_%	c #F9C313",
":%	c #FAC708",
"<%	c #F5910F",
"[%	c #F8810F",
"}%	c #F9B70C",
"|%	c #F99D07",
"1%	c #6B5D42",
"2%	c #DCBB71",
"3%	c #DBBB70",
"4%	c #DDB871",
"5%	c #B76B2A",
"6%	c #28582C",
"7%	c #419836",
"8%	c #297032",
"9%	c #94B5A2",
"0%	c #EFF2F0",
"a%	c #848484",
"b%	c #1F1F1F",
"c%	c #262B28",
"d%	c #171B19",
"e%	c #010302",
"f%	c #92691D",
"g%	c #A36F12",
"h%	c #634112",
"i%	c #020302",
"j%	c #4B3214",
"k%	c #9A6D30",
"l%	c #D0A65C",
"m%	c #EDCD7B",
"n%	c #E0C377",
"o%	c #423926",
"p%	c #C3954F",
"q%	c #EDCB76",
"r%	c #EECD7C",
"s%	c #ECCB7E",
"t%	c #EBCA7C",
"u%	c #EDCC7C",
"v%	c #EDCC79",
"w%	c #E9C774",
"x%	c #E9C773",
"y%	c #EAC974",
"z%	c #DDB86C",
"A%	c #AE884A",
"B%	c #EF8B21",
"C%	c #FBE157",
"D%	c #FCCF25",
"E%	c #FB9308",
"F%	c #F9B505",
"G%	c #FBC605",
"H%	c #F6A731",
"I%	c #F98B2F",
"J%	c #F8BB97",
"K%	c #F58E41",
"L%	c #8F794E",
"M%	c #D7A85B",
"N%	c #D28945",
"O%	c #C06D25",
"P%	c #468C31",
"Q%	c #419B34",
"R%	c #24612F",
"S%	c #55665B",
"T%	c #7E807F",
"U%	c #9C7443",
"V%	c #AA7016",
"W%	c #573E14",
"X%	c #5D6A64",
"Y%	c #6C6855",
"Z%	c #AA7D1F",
"`%	c #966F15",
" &	c #4A534D",
".&	c #616960",
"+&	c #7B5D33",
"@&	c #C7974D",
"#&	c #CA9E54",
"$&	c #B68E50",
"%&	c #070503",
"&&	c #645032",
"*&	c #CCA461",
"=&	c #CCA25D",
"-&	c #E7C575",
";&	c #EECC78",
">&	c #EDCC7A",
",&	c #E3BF71",
"'&	c #E1BB6D",
")&	c #9F7641",
"!&	c #A96231",
"~&	c #A56231",
"{&	c #F38B2C",
"]&	c #F9C82D",
"^&	c #F9E47F",
"/&	c #F6C33B",
"(&	c #FBC404",
"_&	c #FADA46",
":&	c #F9CD39",
"<&	c #FBBB08",
"[&	c #F6B243",
"}&	c #F4AB5B",
"|&	c #FABA06",
"1&	c #F7C351",
"2&	c #9E5F32",
"3&	c #563118",
"4&	c #533016",
"5&	c #8D693A",
"6&	c #BC6D29",
"7&	c #7A642C",
"8&	c #489E34",
"9&	c #46A234",
"0&	c #204C24",
"a&	c #8A6119",
"b&	c #B28D15",
"c&	c #DBA812",
"d&	c #E7AF08",
"e&	c #B28112",
"f&	c #513B16",
"g&	c #47514B",
"h&	c #383F3B",
"i&	c #674F18",
"j&	c #A48125",
"k&	c #998142",
"l&	c #444D48",
"m&	c #3E311E",
"n&	c #896839",
"o&	c #BA8A43",
"p&	c #AF8042",
"q&	c #100202",
"r&	c #7B161B",
"s&	c #785B36",
"t&	c #775A31",
"u&	c #C9A259",
"v&	c #D9B05F",
"w&	c #DBB365",
"x&	c #DBB366",
"y&	c #DBB367",
"z&	c #D4A95D",
"A&	c #CFA154",
"B&	c #B28E4F",
"C&	c #5E462A",
"D&	c #282F2B",
"E&	c #4F5D56",
"F&	c #282828",
"G&	c #9B5B1E",
"H&	c #9E7916",
"I&	c #A29869",
"J&	c #9F8938",
"K&	c #E3BA1D",
"L&	c #FAE77E",
"M&	c #FADD64",
"N&	c #FAD754",
"O&	c #F8D366",
"P&	c #FABA07",
"Q&	c #FAC107",
"R&	c #F4B662",
"S&	c #542F18",
"T&	c #382010",
"U&	c #2B2213",
"V&	c #876A2E",
"W&	c #337C31",
"X&	c #439C35",
"Y&	c #3A7A2E",
"Z&	c #7D5F1D",
"`&	c #D39C11",
" *	c #DDA70B",
".*	c #CB9C11",
"+*	c #EAB709",
"@*	c #E4AB06",
"#*	c #A37819",
"$*	c #4A3512",
"%*	c #020202",
"&*	c #9F781C",
"**	c #AC8218",
"=*	c #343B37",
"-*	c #48524E",
";*	c #44351F",
">*	c #946E3A",
",*	c #AE8042",
"'*	c #725230",
")*	c #86191A",
"!*	c #6F0D14",
"~*	c #6E0D15",
"{*	c #947143",
"]*	c #D0BA97",
"^*	c #B4986F",
"/*	c #9B7841",
"(*	c #9A7841",
"_*	c #BEA47E",
":*	c #C2A886",
"<*	c #8C6938",
"[*	c #6E4E16",
"}*	c #2A2E2B",
"|*	c #4E5954",
"1*	c #1C1307",
"2*	c #876018",
"3*	c #A4831C",
"4*	c #A07F1B",
"5*	c #A07F1A",
"6*	c #A4831B",
"7*	c #A4831D",
"8*	c #AF922D",
"9*	c #E6DA90",
"0*	c #F9E88F",
"a*	c #FAEA97",
"b*	c #FAF0A2",
"c*	c #F8D15E",
"d*	c #F5B249",
"e*	c #F4CBB0",
"f*	c #0B1E10",
"g*	c #226633",
"h*	c #45A136",
"i*	c #3D8631",
"j*	c #624A16",
"k*	c #C89110",
"l*	c #F4C005",
"m*	c #DEA409",
"n*	c #A16F10",
"o*	c #C1971C",
"p*	c #CFA517",
"q*	c #C38D12",
"r*	c #715018",
"s*	c #373E3A",
"t*	c #303632",
"u*	c #895F15",
"v*	c #A77414",
"w*	c #6B614A",
"x*	c #5E6D66",
"y*	c #3E2F1C",
"z*	c #AF8041",
"A*	c #B18043",
"B*	c #9D8984",
"C*	c #AE1520",
"D*	c #B20E1E",
"E*	c #6B0C14",
"F*	c #BAB6B3",
"G*	c #7D7D7B",
"H*	c #696A68",
"I*	c #5E5E5E",
"J*	c #999A97",
"K*	c #ADA9A2",
"L*	c #896019",
"M*	c #9C6C15",
"N*	c #39403C",
"O*	c #6A7870",
"P*	c #523A10",
"Q*	c #D0960F",
"R*	c #F4BE05",
"S*	c #F7C003",
"T*	c #ECB308",
"U*	c #F7BF04",
"V*	c #F4BD02",
"W*	c #9D791D",
"X*	c #B7AE82",
"Y*	c #EEE8B2",
"Z*	c #FEF7BA",
"`*	c #FCF3AC",
" =	c #F6D378",
".=	c #F4AD61",
"+=	c #F9E2D0",
"@=	c #0A1D0F",
"#=	c #216533",
"$=	c #43973A",
"%=	c #0C1707",
"&=	c #C38A15",
"*=	c #F2BC07",
"==	c #F5C102",
"-=	c #F2BB07",
";=	c #C58D16",
">=	c #654F31",
",=	c #3F4542",
"'=	c #986E2D",
")=	c #684B1A",
"!=	c #5E6C64",
"~=	c #545F59",
"{=	c #8D6314",
"]=	c #CA8A06",
"^=	c #A77413",
"/=	c #23180D",
"(=	c #141715",
"_=	c #484338",
":=	c #A37940",
"<=	c #BC8E50",
"[=	c #F0E6DC",
"}=	c #A02222",
"|=	c #B55D60",
"1=	c #AA3B37",
"2=	c #613023",
"3=	c #423221",
"4=	c #C2BEB6",
"5=	c #ACAAA5",
"6=	c #342711",
"7=	c #8C6319",
"8=	c #A77111",
"9=	c #573A16",
"0=	c #37260D",
"a=	c #9E6E13",
"b=	c #FAC50A",
"c=	c #F7C104",
"d=	c #E7B30F",
"e=	c #AE770C",
"f=	c #E2AC0C",
"g=	c #D69A0D",
"h=	c #735218",
"i=	c #C4C095",
"j=	c #FDF6B8",
"k=	c #FAE993",
"l=	c #FBD22E",
"m=	c #FABD08",
"n=	c #FA851F",
"o=	c #091A0E",
"p=	c #1F5E34",
"q=	c #1F6033",
"r=	c #0C1206",
"s=	c #EFBE17",
"t=	c #F8C503",
"u=	c #F7C306",
"v=	c #C78F13",
"w=	c #543E16",
"x=	c #708079",
"y=	c #9CB0A5",
"z=	c #5E6761",
"A=	c #8B6317",
"B=	c #C3870F",
"C=	c #AC750E",
"D=	c #6A4717",
"E=	c #404843",
"F=	c #7B8D84",
"G=	c #372E1B",
"H=	c #DDB465",
"I=	c #B0813F",
"J=	c #522A0B",
"K=	c #F3F0E6",
"L=	c #BF9F78",
"M=	c #B0803D",
"N=	c #B0803E",
"O=	c #B17F3B",
"P=	c #7E5C2F",
"Q=	c #8B6113",
"R=	c #C88808",
"S=	c #A27111",
"T=	c #4C3811",
"U=	c #CE920A",
"V=	c #FBC504",
"W=	c #F9C40F",
"X=	c #84580E",
"Y=	c #755119",
"Z=	c #B97E0D",
"`=	c #E8B208",
" -	c #B28415",
".-	c #513913",
"+-	c #C5C096",
"@-	c #FDF6B9",
"#-	c #FEF6B9",
"$-	c #FAE991",
"%-	c #F9BC07",
"&-	c #F4A263",
"*-	c #784B1C",
"=-	c #134524",
"--	c #215D34",
";-	c #080D05",
">-	c #C0850F",
",-	c #F6C106",
"'-	c #D59A0B",
")-	c #574116",
"!-	c #000201",
"~-	c #A3721A",
"{-	c #E3AE18",
"]-	c #F2BF19",
"^-	c #EFBC19",
"/-	c #A8861F",
"(-	c #7E5A14",
"_-	c #B37C12",
":-	c #9F7231",
"<-	c #B28D50",
"[-	c #2C2214",
"}-	c #A87D40",
"|-	c #ECC873",
"1-	c #EDCB79",
"2-	c #EACC7D",
"3-	c #EDCD7C",
"4-	c #EFCD7C",
"5-	c #A78F58",
"6-	c #865D10",
"7-	c #C88704",
"8-	c #A57312",
"9-	c #525C56",
"0-	c #7C8D84",
"a-	c #4C3812",
"b-	c #CB8F0B",
"c-	c #F6C105",
"d-	c #F7C107",
"e-	c #C58914",
"f-	c #362813",
"g-	c #B17B1B",
"h-	c #CA8A09",
"i-	c #9E6C10",
"j-	c #4C3613",
"k-	c #FEF6BA",
"l-	c #FAE892",
"m-	c #FDCA05",
"n-	c #FABC0C",
"o-	c #766A5D",
"p-	c #B38747",
"q-	c #804E18",
"r-	c #154927",
"s-	c #226136",
"t-	c #080C04",
"u-	c #BC8211",
"v-	c #CE9208",
"w-	c #6A4F17",
"x-	c #758278",
"y-	c #3F4743",
"z-	c #996C19",
"A-	c #E0AB0E",
"B-	c #F5C003",
"C-	c #D49E0E",
"D-	c #976B15",
"E-	c #7E581C",
"F-	c #6F4E1D",
"G-	c #816639",
"H-	c #C5964A",
"I-	c #C4964B",
"J-	c #B18746",
"K-	c #906A38",
"L-	c #423522",
"M-	c #D1A75F",
"N-	c #EDCE80",
"O-	c #ECCC78",
"P-	c #ECCB75",
"Q-	c #B6914E",
"R-	c #D5B468",
"S-	c #EDCC78",
"T-	c #A9925D",
"U-	c #8B6111",
"V-	c #C68605",
"W-	c #9B6C12",
"X-	c #1B1E1C",
"Y-	c #2E3431",
"Z-	c #2F220D",
"`-	c #8C6012",
" ;	c #CF9209",
".;	c #F6C005",
"+;	c #F3BB08",
"@;	c #BF8615",
"#;	c #5E4720",
"$;	c #825819",
"%;	c #AB730B",
"&;	c #6F4F16",
"*;	c #F9E891",
"=;	c #FACF2B",
"-;	c #FBBE06",
";;	c #FC8A04",
">;	c #FA8314",
",;	c #8F857A",
"';	c #B0894A",
");	c #BE8E45",
"!;	c #7D4C17",
"~;	c #154625",
"{;	c #194E2B",
"];	c #5C7268",
"^;	c #644A1E",
"/;	c #BF8610",
"(;	c #523B0F",
"_;	c #424A45",
":;	c #202322",
"<;	c #916718",
"[;	c #DEA80F",
"};	c #F2BD05",
"|;	c #F5C002",
"1;	c #EBB607",
"2;	c #E1AD0E",
"3;	c #DFAB0E",
"4;	c #AD881A",
"5;	c #785F39",
"6;	c #D0A355",
"7;	c #E4BE6A",
"8;	c #E3BD6A",
"9;	c #D8B469",
"0;	c #9F7842",
"a;	c #6D5837",
"b;	c #7F704B",
"c;	c #7C6C46",
"d;	c #7C6B45",
"e;	c #58462B",
"f;	c #71613F",
"g;	c #80714A",
"h;	c #5A4F36",
"i;	c #49350F",
"j;	c #65470F",
"k;	c #4D370F",
"l;	c #120C05",
"m;	c #432F0F",
"n;	c #6A4B0E",
"o;	c #D79B12",
"p;	c #D79A07",
"q;	c #C68707",
"r;	c #81826B",
"s;	c #514C41",
"t;	c #5B3F0F",
"u;	c #B8B085",
"v;	c #EFE8B0",
"w;	c #FEF5B8",
"x;	c #F9E58A",
"y;	c #F9BB05",
"z;	c #F5AE62",
"A;	c #826739",
"B;	c #806034",
"C;	c #7B4A18",
"D;	c #164225",
"E;	c #144527",
"F;	c #7C978B",
"G;	c #1B201D",
"H;	c #9A6B15",
"I;	c #43300E",
"J;	c #A87512",
"K;	c #EDB605",
"L;	c #F9C303",
"M;	c #F8C202",
"N;	c #E2AC06",
"O;	c #C9940B",
"P;	c #8E6C17",
"Q;	c #684F2D",
"R;	c #B68844",
"S;	c #CDA65C",
"T;	c #ECCA7A",
"U;	c #DAB366",
"V;	c #99773E",
"W;	c #997740",
"X;	c #9A7840",
"Y;	c #735225",
"Z;	c #36250F",
"`;	c #020303",
" >	c #333936",
".>	c #606D66",
"+>	c #7C5717",
"@>	c #795411",
"#>	c #7D5812",
"$>	c #5E6252",
"%>	c #A98F39",
"&>	c #C1B578",
"*>	c #EAE3AC",
"=>	c #F9E78C",
"->	c #F9DC73",
";>	c #FAD655",
">>	c #FAB606",
",>	c #F6A976",
"'>	c #6D381C",
")>	c #14381F",
"!>	c #16492A",
"~>	c #819E91",
"{>	c #5C6D66",
"]>	c #59442A",
"^>	c #211709",
"/>	c #4F5C56",
"(>	c #2A312D",
"_>	c #A97712",
":>	c #EAB304",
"<>	c #F7C102",
"[>	c #F8C203",
"}>	c #F8C303",
"|>	c #E7B007",
"1>	c #BD890A",
"2>	c #785413",
"3>	c #796541",
"4>	c #C9A45C",
"5>	c #CAA45E",
"6>	c #D0AB61",
"7>	c #CFA95E",
"8>	c #CEA85C",
"9>	c #B88A40",
"0>	c #BD8E44",
"a>	c #BE8F45",
"b>	c #7E5B2B",
"c>	c #9F5C25",
"d>	c #A4821A",
"e>	c #A26115",
"f>	c #E8B719",
"g>	c #FAE88F",
"h>	c #FBEC95",
"i>	c #F9C952",
"j>	c #F9BD06",
"k>	c #F7A809",
"l>	c #F6B258",
"m>	c #6E381C",
"n>	c #542F19",
"o>	c #9F6033",
"p>	c #0B100D",
"q>	c #4B6957",
"r>	c #86A296",
"s>	c #87A197",
"t>	c #544937",
"u>	c #6E4F13",
"v>	c #6D776A",
"w>	c #996B14",
"x>	c #DFA90A",
"y>	c #F5BF04",
"z>	c #F7C203",
"A>	c #E7B40A",
"B>	c #D8A70D",
"C>	c #BD8F13",
"D>	c #93743B",
"E>	c #B19D68",
"F>	c #EDCE7B",
"G>	c #E3C373",
"H>	c #BD9652",
"I>	c #BB9551",
"J>	c #BE9652",
"K>	c #BE9654",
"L>	c #BA9351",
"M>	c #A97B3A",
"N>	c #4C3B21",
"O>	c #F29A1F",
"P>	c #F9B30A",
"Q>	c #FB8C05",
"R>	c #F8AA06",
"S>	c #F8D96F",
"T>	c #F9CB4F",
"U>	c #FA9C07",
"V>	c #F7B34E",
"W>	c #F5B26A",
"X>	c #F8AA07",
"Y>	c #F49E64",
"Z>	c #9D6035",
"`>	c #1B201E",
" ,	c #84A094",
".,	c #839F92",
"+,	c #7B9288",
"@,	c #88642F",
"#,	c #BB7F0C",
"$,	c #6C4D1B",
"%,	c #3B2913",
"&,	c #6B491D",
"*,	c #AD7814",
"=,	c #E2AB0B",
"-,	c #F1BB04",
";,	c #CA9712",
">,	c #A16F16",
",,	c #684716",
"',	c #958254",
"),	c #E4C373",
"!,	c #ECCC79",
"~,	c #EECE7B",
"{,	c #E8C573",
"],	c #D58647",
"^,	c #EE9851",
"/,	c #F48014",
"(,	c #FBBD0E",
"_,	c #F39C51",
":,	c #F59958",
"<,	c #FB8724",
"[,	c #FBB706",
"},	c #F7AE47",
"|,	c #F59B5B",
"1,	c #F88C3D",
"2,	c #F69D5F",
"3,	c #0F0A05",
"4,	c #0E0B05",
"5,	c #1C211F",
"6,	c #89A398",
"7,	c #859F93",
"8,	c #212421",
"9,	c #B27D14",
"0,	c #C68705",
"a,	c #CA8A07",
"b,	c #9A6610",
"c,	c #432C0D",
"d,	c #624318",
"e,	c #B07B18",
"f,	c #E4AF18",
"g,	c #F3C115",
"h,	c #E0AA17",
"i,	c #91691B",
"j,	c #644824",
"k,	c #BB9452",
"l,	c #ECCB79",
"m,	c #EDCC7B",
"n,	c #ECCB78",
"o,	c #EECC7B",
"p,	c #CA9B50",
"q,	c #D98848",
"r,	c #F19A52",
"s,	c #F18725",
"t,	c #F3851A",
"u,	c #F6A46B",
"v,	c #F9B308",
"w,	c #65543A",
"x,	c #CB9E52",
"y,	c #BF9654",
"z,	c #1A1E1C",
"A,	c #889F95",
"B,	c #885E1B",
"C,	c #C08509",
"D,	c #ECB707",
"E,	c #F5BF05",
"F,	c #F3BE08",
"G,	c #CF9611",
"H,	c #674A13",
"I,	c #130B04",
"J,	c #181003",
"K,	c #160F02",
"L,	c #171004",
"M,	c #A99462",
"N,	c #EBCB79",
"O,	c #D6B367",
"P,	c #A47435",
"Q,	c #A37434",
"R,	c #A47434",
"S,	c #A37333",
"T,	c #A17233",
"U,	c #A07233",
"V,	c #A36034",
"W,	c #A86434",
"X,	c #F7A770",
"Y,	c #5E4C2F",
"Z,	c #C6994B",
"`,	c #896024",
" '	c #704E1F",
".'	c #323633",
"+'	c #69481B",
"@'	c #BD820D",
"#'	c #EFBB0C",
"$'	c #F7C204",
"%'	c #F7C202",
"&'	c #F6C202",
"*'	c #F4C105",
"='	c #CC9414",
"-'	c #B67E16",
";'	c #8C6219",
">'	c #A1793C",
",'	c #CAA863",
"''	c #E3C374",
")'	c #EACB78",
"!'	c #E4C472",
"~'	c #E4C371",
"{'	c #E4C372",
"]'	c #E5C372",
"^'	c #E5C375",
"/'	c #C6974A",
"('	c #815518",
"_'	c #BE891C",
":'	c #CA921A",
"<'	c #955128",
"['	c #6F381C",
"}'	c #A78F6C",
"|'	c #757675",
"1'	c #41331D",
"2'	c #966D2D",
"3'	c #B2790C",
"4'	c #AF7919",
"5'	c #100A03",
"6'	c #B17C19",
"7'	c #E4AF09",
"8'	c #F4C103",
"9'	c #F7C302",
"0'	c #F5C301",
"a'	c #ECB904",
"b'	c #D29707",
"c'	c #9A6911",
"d'	c #986B2C",
"e'	c #AC813F",
"f'	c #B28B48",
"g'	c #D0AB63",
"h'	c #EAC772",
"i'	c #CFA456",
"j'	c #976C2C",
"k'	c #C78D12",
"l'	c #DC9C06",
"m'	c #DA9A05",
"n'	c #BF8A14",
"o'	c #502F18",
"p'	c #351F10",
"q'	c #7B7B7B",
"r'	c #674F29",
"s'	c #8D6A34",
"t'	c #684713",
"u'	c #986912",
"v'	c #AC730D",
"w'	c #C18517",
"x'	c #110A03",
"y'	c #C08718",
"z'	c #F6C302",
"A'	c #F5C302",
"B'	c #F4C302",
"C'	c #D79D07",
"D'	c #9C6A12",
"E'	c #A27634",
"F'	c #B78941",
"G'	c #BC914C",
"H'	c #C49D58",
"I'	c #C39D59",
"J'	c #C39E5A",
"K'	c #C7A15C",
"L'	c #C59E58",
"M'	c #A17533",
"N'	c #A67110",
"O'	c #D59809",
"P'	c #DB9A05",
"Q'	c #DC9A05",
"R'	c #DD9D04",
"S'	c #A07215",
"T'	c #D28245",
"U'	c #EA924E",
"V'	c #6E371B",
"W'	c #543B13",
"X'	c #8D6214",
"Y'	c #A16D0F",
"Z'	c #A7710D",
"`'	c #C58505",
" )	c #CA8704",
".)	c #C38307",
"+)	c #A47017",
"@)	c #4E340F",
"#)	c #C78A14",
"$)	c #F5C201",
"%)	c #F6C402",
"&)	c #DBA007",
"*)	c #AF780E",
"=)	c #A6782F",
"-)	c #BB8F45",
";)	c #C9994B",
">)	c #C19247",
",)	c #B38440",
"')	c #B18340",
"))	c #B0823E",
"!)	c #AB7D3A",
"~)	c #936526",
"{)	c #AB7512",
"])	c #CB8B08",
"^)	c #DA9B05",
"/)	c #DC9B05",
"()	c #DC9C05",
"_)	c #BF840C",
":)	c #6D4C13",
"<)	c #D88647",
"[)	c #F29850",
"})	c #C87A40",
"|)	c #72381C",
"1)	c #562F18",
"2)	c #3A2111",
"3)	c #8E7B66",
"4)	c #A57113",
"5)	c #AF7910",
"6)	c #C78703",
"7)	c #C78604",
"8)	c #C78603",
"9)	c #C4860E",
"0)	c #6A4714",
"a)	c #906112",
"b)	c #C2850B",
"c)	c #F3C006",
"d)	c #F7C303",
"e)	c #F6C301",
"f)	c #D89E08",
"g)	c #BD820A",
"h)	c #A36F11",
"i)	c #A97C33",
"j)	c #B48840",
"k)	c #B78B42",
"l)	c #B88C43",
"m)	c #B68941",
"n)	c #AF833C",
"o)	c #956412",
"p)	c #C58708",
"q)	c #C98A04",
"r)	c #D89904",
"s)	c #DB9C04",
"t)	c #D39604",
"u)	c #CC8D05",
"v)	c #876013",
"w)	c #D48546",
"x)	c #E6924C",
"y)	c #AD6836",
"z)	c #CD8043",
"A)	c #E6914B",
"B)	c #C4793F",
"C)	c #965128",
"D)	c #6F371B",
"E)	c #5C5C5C",
"F)	c #B8801A",
"G)	c #B27B1A",
"H)	c #B57D1B",
"I)	c #A77523",
"J)	c #493717",
"K)	c #C98B13",
"L)	c #C88806",
"M)	c #ECB709",
"N)	c #F8C402",
"O)	c #F2BF05",
"P)	c #CD9714",
"Q)	c #936516",
"R)	c #A26E10",
"S)	c #9E6B12",
"T)	c #7F5616",
"U)	c #7C5519",
"V)	c #714F1C",
"W)	c #704E1C",
"X)	c #77531B",
"Y)	c #8D6013",
"Z)	c #C0840D",
"`)	c #BC800B",
" !	c #C78706",
".!	c #C88904",
"+!	c #D49804",
"@!	c #D89B03",
"#!	c #CF9004",
"$!	c #C58808",
"%!	c #7B5813",
"&!	c #DC8B4A",
"*!	c #F19A51",
"=!	c #C2773F",
"-!	c #512D18",
";!	c #BF8512",
">!	c #CB8A06",
",!	c #CC8B05",
"'!	c #F2BE08",
")!	c #F5C202",
"!!	c #F5C105",
"~!	c #F2C005",
"{!	c #D89E07",
"]!	c #7A5818",
"^!	c #67481A",
"/!	c #79531A",
"(!	c #7A541B",
"_!	c #79531B",
":!	c #5E4422",
"<!	c #232423",
"[!	c #393025",
"}!	c #795318",
"|!	c #7F5613",
"1!	c #87590E",
"2!	c #C98809",
"3!	c #C68606",
"4!	c #C98905",
"5!	c #CB8B05",
"6!	c #A36F15",
"7!	c #5A4223",
"8!	c #AE6937",
"9!	c #B36C38",
"0!	c #A86534",
"a!	c #B26B37",
"b!	c #A96533",
"c!	c #954F28",
"d!	c #72381B",
"e!	c #542F16",
"f!	c #C6890E",
"g!	c #C88705",
"h!	c #CA8805",
"i!	c #CA8906",
"j!	c #C98904",
"k!	c #EEB905",
"l!	c #F5C203",
"m!	c #D79B07",
"n!	c #CC8C04",
"o!	c #C88A08",
"p!	c #6A4E17",
"q!	c #090602",
"r!	c #0C0804",
"s!	c #0C0703",
"t!	c #251A0A",
"u!	c #805714",
"v!	c #C4860C",
"w!	c #CC8904",
"x!	c #CA8705",
"y!	c #C68507",
"z!	c #C58609",
"A!	c #775516",
"B!	c #A56032",
"C!	c #944F27",
"D!	c #522F16",
"E!	c #7A5318",
"F!	c #C98909",
"G!	c #C98805",
"H!	c #C98806",
"I!	c #CF9108",
"J!	c #CF9307",
"K!	c #CA8907",
"L!	c #7C591A",
"M!	c #B16B37",
"N!	c #3B2B0F",
"O!	c #C08412",
"P!	c #C88805",
"Q!	c #9F6B12",
"R!	c #5E4319",
"S!	c #A56132",
"T!	c #512E17",
"U!	c #351E10",
"V!	c #3C2E0F",
"W!	c #BB830C",
"X!	c #E7B009",
"Y!	c #C78605",
"Z!	c #C98705",
"`!	c #CB8806",
" ~	c #CC8C05",
".~	c #87621A",
"+~	c #694B11",
"@~	c #E4904C",
"#~	c #B56E39",
"$~	c #AA7714",
"%~	c #CB8A05",
"&~	c #E7B005",
"*~	c #E7B104",
"=~	c #EAB204",
"-~	c #DFAD0A",
";~	c #B58612",
">~	c #948675",
",~	c #A46231",
"'~	c #BE6C34",
")~	c #CE7336",
"!~	c #B66933",
"~~	c #6F371C",
"{~	c #9F731A",
"]~	c #EAB008",
"^~	c #F8C204",
"/~	c #E3AB06",
"(~	c #E2AA06",
"_~	c #E4AB07",
":~	c #D08F07",
"<~	c #AF760D",
"[~	c #8D6419",
"}~	c #B26D38",
"|~	c #B66F3A",
"1~	c #A66433",
"2~	c #55401A",
"3~	c #C88A05",
"4~	c #CB8B04",
"5~	c #F5C004",
"6~	c #F5BF02",
"7~	c #D5A412",
"8~	c #E0A90F",
"9~	c #AF8117",
"0~	c #9E9285",
"a~	c #C46F35",
"b~	c #D77937",
"c~	c #BB6B34",
"d~	c #372010",
"e~	c #624B15",
"f~	c #E3A707",
"g~	c #F4BD03",
"h~	c #E7AE03",
"i~	c #FAC401",
"j~	c #EDB205",
"k~	c #DEA309",
"l~	c #B6810F",
"m~	c #4D3912",
"n~	c #564017",
"o~	c #CA8B04",
"p~	c #E6AC06",
"q~	c #E6AD06",
"r~	c #D5B34C",
"s~	c #C5B492",
"t~	c #C9A153",
"u~	c #D7B681",
"v~	c #A49A83",
"w~	c #989C9A",
"x~	c #AB6433",
"y~	c #A06032",
"z~	c #66572A",
"A~	c #E7C152",
"B~	c #F4CF73",
"C~	c #C78C13",
"D~	c #F2CF71",
"E~	c #F3D072",
"F~	c #C58B1B",
"G~	c #F1CC70",
"H~	c #DDA732",
"I~	c #5F4713",
"J~	c #A77412",
"K~	c #AA7713",
"L~	c #B07B13",
"M~	c #778272",
"N~	c #C3C6C5",
"O~	c #9D8B75",
"P~	c #BDB7AE",
"Q~	c #A9B0AC",
"R~	c #56635E",
"S~	c #A1B3A9",
"T~	c #E6E6E2",
"U~	c #816033",
"V~	c #ECECE8",
"W~	c #ECECEA",
"X~	c #816641",
"Y~	c #E1DFD8",
"Z~	c #AF9165",
"`~	c #DA8949",
" {	c #E38F4B",
".{	c #B16C38",
"+{	c #A4602F",
"@{	c #9E6135",
"#{	c #573217",
"${	c #0B0C0B",
"%{	c #0A0A0A",
"&{	c #0B0A0B",
"*{	c #0D0D0D",
"={	c #0B0B0B",
"-{	c #E9924C",
";{	c #F49A50",
">{	c #B56F3A",
",{	c #A46130",
"'{	c #362011",
"){	c #9F6136",
"!{	c #B8703A",
"~{	c #BB723B",
"{{	c #A86433",
"]{	c #96512A",
"^{	c #914926",
"/{	c #9E5A2E",
"({	c #CE8043",
"_{	c #E08C49",
":{	c #BB723C",
"<{	c #99542B",
"[{	c #934A26",
"}{	c #9C582D",
"|{	c #A16132",
"1{	c #914A26",
"2{	c #8B3F20",
"3{	c #9D582D",
"4{	c #A46133",
"5{	c #DB8947",
"6{	c #F2974E",
"7{	c #C4773F",
"8{	c #954E28",
"9{	c #8A3E20",
"0{	c #99532B",
"a{	c #965028",
"b{	c #71381C",
"c{	c #583117",
"d{	c #552F16",
"e{	c #8D4926",
"f{	c #904A25",
"g{	c #9E5B2E",
"h{	c #BD743C",
"i{	c #9F5C2F",
"j{	c #9D592E",
"k{	c #A05E2F",
"l{	c #9E6136",
"m{	c #833D20",
"n{	c #70371C",
"o{	c #6E4326",
"p{	c #704324",
"q{	c #65351C",
"r{	c #724324",
"s{	c #724424",
"t{	c #724323",
"u{	c #734324",
"v{	c #724423",
"w{	c #734424",
"x{	c #734423",
"y{	c #724223",
"z{	c #724322",
"A{	c #6C3C1E",
"B{	c #5D3219",
"C{	c #010001",
"D{	c #502F1A",
"E{	c #2C1B11",
"F{	c #2D1A0E",
"G{	c #2D1A0F",
"H{	c #2C1A0E",
"I{	c #2E1A0E",
"J{	c #2E1A0F",
"K{	c #2E190E",
"L{	c #2D190E",
"M{	c #1D1009",
"        .                                                         +           . .                   @ @ .     @ @ @     @ @ @   ",
"# @ $ % & * * = - = = = = = * ; - = ; & ; = - = - - > - ; , * ; , ; , , ; * , & * , , - = & , = ; , ; , - - ; , * & , ; ' ) !   ",
"# @ ~ { { ] ^ / ( _ : _ _ _ < < < < [ / / } | ( } _ _ } [ < 1 1 1 1 1 ^ 1 ^ / / 1 ^ 1 1 ( / [ ( < 1 < 1 < < < 2 3 4 4 5 6 7 8   ",
"9 @ 0 a b c d e b f f g f f h d i i j k d f f d d l f i d d h d m j n o d c n h p o n d d c c f n d d h d n n n q q e c r s t   ",
"  @ u v w x y y y z z z z y y A y y y y B B y C C C y y y D y E E E y y y E B B E C C C E y B z y B y C E y y E D y F E B G H   ",
"  @ I v J E K L M M N O O O P P P O O O O O P Q R R O O O O O O Q O O O O O O O Q S R O O O P T O P O O S O O O O U V W X Y Z   ",
"  @ ` v w E  ...[ _ _ _ _ < } } +._ _ _ _ _ _ _ _ _ } _ _ _ +._ _ _ _ _ _ _ _ _ _ _ _ _ _ _ _ +._ _ _ _ _ +._ _ _ @.#.$.%.s &.  ",
"  @ I *.=.-.;.>.[ _ +._ _ _ _ +.,.'.).!.~._ _ +._ ,.{._ +._ ].^./._ '.+._ (._._ _ _ _ _ +._ (._.:.<.[._ _ _ _ _ _ }.|.1.2.3.4.  ",
"@ @ I v w 5.5 _ _ _ _ _ _ +._ +.,.'.6.7.8.} _ _.'.{.{._ _ _.9.0.a.+.,.'._ _ +._ _ _ _ '.,._ _ _ b.c.d._ _ _ e._ _ _ _ f.g.z h.  ",
"  i.I v j.k.l._ _ _ _ _ m.n.o._ (.+.p.q.r.s.e._.'.'.t.u.v._ w.x.@ @ {.@ _ y.+._ _ _ _ ,.,._._ z.A.q.B._ _ _ _.+.C.C.} D.E.7 F.  ",
"  i.I v J k.G._ +.+._ _.H.I.J._ ,.K.+._ _ e.e.(.,.'.L.M.N._ _ @ @ @ @ @ @ '.+._ _ _ _ +._ '.,.+.+.: e._ _ _.(.{.(._ } D.E.O.4.  ",
"+ @ I v P.C G.e.,.,.Q.a.R.S.T._ +.+.e.e.e.(.(.e.U.V.W.X.@ Y.Z.Z.`. +.+++@ @ @+#+$+%+&+_ _ e.e.{.+._ _ _ _.e.e.{.*+_ _ f.E.z &.  ",
"+ i.` v P.E l._ '.=+-+;+>+_ _ _ _ e.e.e.(.@ @ *+,+'+a.@ @ )+!+~+{+]+^+/+(+@ @ @ @ _+:+_ _ e.e.*++._ _ _ _.<+e.{.*+_ _ f.[+O.}+  ",
"  @ ` v P.E |+_ +.,.1+2+3+_ _ _ e.e.e._.@ 4+@ @ 5+6+@ @ 7+8+9+0+a+b+c+d+e+f+g+h+@ @ i+} _ _ _ _ y._ j+k+3+_._._._._ _ D.l+z H   ",
"  @ ` v J 5.l._ _ _ _ } } _ _ _ _ _ _ _ @ m+n+@ @ @ @ o+p+q+r+s+t+u+v+w+x+y+z+A+B+@ _ _ _ _ _ _ _ _.C+D+E+_ _ s._ _ _ F+[+B G+H+",
"  @ I v P.E l.} _ _ _ _ _ _ _ e.I+k+J+@ @ K+L+M+N+O+P+Q+R+S+T+U+V+W+X+Y+Z+`+ @.@+@@ _ _._ _ _._ e.*+@@#@$@_ _ _ _ _ _ %@E.3.4.  ",
"@ @ &@v J C l._ _ _ _ _ _ @ @ e.*@=@I+@ -@;@>@,@'@)@!@~@{@]@^@/@(@_@:@<@[@}@|@1@2@@ e.e._.e.e.e.e.*+_ _ _ C.J+_ _ _ _ 3@g.O.4@. ",
". @ 5@6@7@8@l._ _ '._ _ _ @ 9@@ @ 0@a@@ b@c@d@e@f@g@h@i@j@k@l@m@n@o@p@q@r@s@t@u@v@@ e.e.e._ _ _ _._ _._._ _.w@x@y@(._ z@[+O.A@  ",
"  @ &@v 7@B@l.} _ _ y.C.s.@ C@D@E@@ @ F@G@H@I@J@K@L@M@N@O@P@Q@R@S@T@U@V@W@X@Y@Z@`@@ @ '._._ _ } _ _ _ e.e._  #.#+#y.} z@l+O.A@  ",
"  @ I v @#k.l._ _ _ C._ _ @ ##$#%#&#*#=#-#;#>#,#'#)#!#~#{#]#^#/#(#_#:#<#[#}#|#1#2#3#@ '._ } _ 4#_._ _ e.e._ 5#6#7#s.J+8#E.z Z   ",
"+ @ 9#*.j.8@l._ _ (._ _ _ @ 0#a#b#c#d#e#f#g#h#i#j#k#l#m#n#o#p#q#r#s#t#u#v#w#x#y#z#A#@ _ _ _ B#C#D#_ _ _ _ E#_ : _ _ _ f.E.z H g+",
"@ @ 5@F#J C l._ _ _ _ _ _ @ G#H#I#J#K#L#M#M#N#O#P#Q#R#S#T#U#V#W#X#Y#Z#`# $.$+$@$#$@ @ _ _ _ $$%$&$_ _ _._.*$E#_ +._ _ D.[+O.=$  ",
"  @ 5@-$P.-.l._ _ _ T.;$@ @ >$,$'$)$!$~${$]$^$/$($_$:$<$[$}$|$1$2$3$4$5$6$7$8$9$0$a$@ @ _ _ b$c$d$C._ e.e.e$E#+.+.E#E#E#f$O.H   ",
"  @ g$F#h$i$l._ _ _ j$@ @ k$l$m$n$o$p$q$r$s$t$u$v$w$x$y$z$A$A$B$C$D$E$F$G$H$I$J$K$L$M$@ _ _ _ z.E#_ N$e.e.O$P$E#_ E#E#f.f$z &.  ",
"# @ g$*.P.Q$@ R$S$T$U$V$W$X$Y$Z$`$P# %.%+%@%#%#%$%%%&%*%=%-%|$;%A$>%,%'%)%!%~%{%]%^%/%@ @ _ _ : (%_%:%<%[%}%|%E#E#E#_ F+f$E#E#g+",
"# @ 9#l.P.7 @ 1%2%3%4%5%6%7%8%9%0%a%b%c%d%e%f%g%h%i%j%k%l%m%n%o%p%q%r%s%t%u%v%w%x%y%z%A%@ _ e.e.'.B%C%D%E%F%G%H%I%J%_ K%E#E#E#  ",
"+ @ ~ *.=.Q$@ @ L%M%N%O%P%Q%R%S%T%U%V%W%  X%Y%Z%`% &.&+&@&#&$&%&&&*&=&-&;&>%-%>&,&'&z%)&@ @ @ !&~&{&]&^&/&(&_&:&<&[&}&|&1&z H   ",
"  i.0 2&3&4&l.@ @ 5&6&7&8&9&0&a&b&c&d&e&f&g&h&i&j&k&l&m&n&o&p&q&r&s&t&u&v&w&x&y&z&A&B&C&D&E&F&@ @ G&H&I&J&K&L&M&N&O&P&Q&R&S&T&  ",
"  @ ~ *.=.i$l._ @ U&V&W&X&Y&Z&`& *.*+*@*#*$*  %*&***=*-*;*>*,*'*)*!*~*{*]*^*/*(*_*:*<*[*}*|*1*2*3*4*5*6*7*8*9*0*a*b*c*d*e*7 E#  ",
"  @ &@v =.5.l._ @ f*g*h*i*j*k*l*m*n*o*p*q*r*s*t*u*v*w*x*%*y*z*A*B*C*D*E*F*G*H*I*J*K*L*M*N*O*P*Q*R*S*T*U*V*W*X*Y*Z*`* =.=+=E#E#  ",
"@ @ I v =.5.l._ @ @=#=$=%=&=*===-=;=>=,='=)=!=~={=]=^=/=(=_=:=<=[=}=|=1=2=3=4=5=6=7=8=9=%*0=a=b=c=d=e=f=U*g=h=i=j=k=l=m=n=E#H   ",
"+ @ 9#*.=.5.l._ @ o=p=q=r=s=t=u=v=w=x=y=z=9 @ 9 A=B=C=D=E=F=G=H=I=J=K=L=M=N=O=P=Q=R=S=H+@ T=U=V=W=X=Y=Z=`= -.-+-@-#-$-%-&-G H   ",
"+ @ 9#6@w -.l.@ @ *-=---;->-,-'-)-i%!-# ~-{-]-^-/-(-_-:-<-!-[-}-|-1-2-3-4->%q%5-6-7-8-9-0-a-b-c-d-e-f-g-h-i-j-i=k-k-l-m-n-E#G+  ",
"  @ 9#6@w -.@ o-p-q-r-s-t-u-v-w-x-y-H+z-A-B-C-D-E-F-G-H-I-J-K-L-M-N-O-P-Q-R-S-T-U-V-W-X-Y-Z-`- ;.;+;@;#;$;%;&;i=#-*;=;-;;;>;E#  ",
"  i.9#6@P.@ ,;';);!;~;{;];^;/;(;_;:;<;[;};|;1;2;3;4;5;6;7;8;9;0;a;b;c;d;e;f;g;h;i;j;k;@ . l;m;n;o;p;q;r;s;t;u;v;w;x;y;z;f$z &.  ",
"  @ &@*.7@@ @ A;B;C;D;E;F;G;H;I;    J;K;L;M;|;N;O;P;Q;R;S;1-T;U;V;W;X;Y;Z;`;# @ @ @ @ @  >.>@ @ +>@>#>$>%>&>*>=>->;>>>,>'>O.}+  ",
"  @ &@F#7@4&@ @ @ @ )>!>~>{>]>^>/>(>_>:><>[>}>|>1>2>3>4>5>6>7>8>9>0>a>b>@ @ @ @ _._.e.@ @ @ @ _ @ c>d>e>f>g>h>i>P&j>k>l>m>n>H   ",
"  @ 9#F#3&Q$o>_ } @ p>q>r>s>t>u>v>=*w>x>y>z>A>B>C>D>E>F>G>H>I>J>K>L>M>N>@ +.e._._.e.e.e.e._.| | _ O>P>Q>R>S>T>U>U>V>W>X>Y>z H %*",
"@ @ Z>l.h$Q$6@} _ @ `> ,.,+,@,#,$,%,&,*,=,-,;,>,,,',),!,A$~,~%r%>&{,@ @ @ ,.*+e.*+e.*+*+(.*+],^,/,(,_,:,<,[,},|,1,E#_ 2,E#E#G+g+",
"# @ 9#*.7@i$l.@ 3,4,5,6,7,8,9,0,a,b,c,d,e,f,g,h,i,j,k,l,m,>&l,n,o,p,@ 4#_.'.e._ (._ _.*+{.{.q,r,s,t,_ *+u,v,E#_ _ E#_ 3@g.E#H   ",
"  @ 5@6@=.Q$@ w,x,y,z,A,X-B,C,D,E,F,G,H,I,J,K,L,M,N,O,P,P,Q,R,S,T,U,@ @ @ : e._.K._ _ e._.V,W,E#E#C.s._ X,E#E#e._ E#E#8#m>E#E#  ",
"  @ 5@6@@ @ @ Y,Z,`, '.'+'@'#'$'%'&'*'='-';'>','''O-)'!'~'{']'^'/'('_':'@ @ _ _.+._.e.e.e.(.+.E#} _ _ _ E#E#e.(.+._.E#<'['z E#  ",
"# @ 9#@ @ }'|'1'2'3'4'5'6'7'8'9'9'9'0'a'b'c'd'e'f'g'>&3-3-O-h'i'j'k'l'm'n'@ @ e.e.e._.(._._ +.,.+._ _ _ E#+.(.+.e._._ 8#g.o'p'%*",
"  @ @ q'r's't'u'v'7-w'x'y'R*%'%'z'z'A'B'C'D'E'F'o&G'H'I'J'K'L'M'N'O'P'Q'R'S'@ e._._ _ _ _._ _._ _ e.T'U'E#_ _ _._ _ _ 3@V'B T&  ",
"# i.@ W'X'Y'Z'`' ).)+)@)#)c-%'%'%'A'$)%)&)*)=)-);)>),)')))!)~){)])^)P'/)()_):)@ : ( _ '.e.e.e._ e._ <)[)})_ _ _ _ < [ 8#|)1)2)  ",
"  @ @ 3)4)5)6)7)8)9)0)a)b)c)d)M;}>%'9'e)f)g)h)i)j)j)k)l)m)n)o)p)q)r)R's)t)u)v)@ w)x)B._ e.e.e._ _ _ y)x@&+_ _ _ z)A)B)C)D)y t   ",
"  @ &@@ E)@ F)G)H)I)J)K)L)M)8'%'9'9'N)O)P)Q)R)S)T)U)V)W)X)Y)Z)`) !.!+!@!#!$!%!@ &!*!=!_ +._._._ _ _ _ _ _ _ _ _ w).#z)<'l+-!t H+",
"  @ Z>G.j.@ @ @ @ @ ;!V->!,!'!9')!!!~!{!]!^!/!(!_!:!<!<![!}!|!1!2!3!7)4!5!6!7!@ 8!9!0!_ _.e.e.e.e.e.e.+._ _ _ _ w@a!b!c!d!e!T&g+",
"@ @ 9#6@7@5.6@e.@ @ f!g!h!i!j!k!l!m!n!o!p!q!r!s!s!@ @ @ @ t!u!v!h!w!x!y!z!A!@ e.e._ _ _ (.B!e.e.e.*+(.e.e.e.e._ _ _ _ C!D)i$t   ",
"  @ 9#F#7@D!6@e.@ E!F!h!x!G!H!I!J!a,K!L!@ @ @ @ @ @ M!'.@ N!O!L)G!P!h!Q!R!@ e._.e.*+_._.S!S!e.e.*+(.J+e.e.<+: _ _ _ _ 8#g.T!U!  ",
"  @ 9#6@=.4&l.@ V!W!X!Y!Z!`!i!i! ~.~+~@ @ _._.,.@~7.#~,.@ $~a,%~&~*~=~-~;~>~@ _._.e.*+J+,~~&J+_.(._ _ _ '~)~!~s.y.} } @.~~y H   ",
"  @ I 6@=.i$G.@ {~]~^~/~(~_~:~<~[~@ @ @ e.e.e.'.}~|~1~@ 2~3~j!4~5~6~z>7~8~9~0~@ _ e.e.e._.(.(._.e._ _ : a~b~c~_._ _._ @.~~z d~g+",
"  @ I 6@h$Q$@ e~f~g~h~%'i~j~k~l~m~@ @ e.: e.*+e._ _ _ @ n~o~j!.!p~q~r~s~t~u~v~w~@ e.e.e.e.(.e.e.e.e.e._ x~a.3+_.e.e._ @.~~z d~  ",
"@ i.Z>y~=.i$@ z~A~B~C~D~E~F~G~H~I~@ _._ _ _ _ e.e.e.e.e.@ ^=J~K~L~K~M~N~O~P~Q~R~@ e.e.e.e.e.e.e.e.e.e._ +.'._ J+_._ _ @.['O.A@. ",
". @ 5@6@7@4&@ @ S~T~U~V~W~X~Y~Z~@ @ _ _ `~ {.{_ *+e.e.e.e.@ @ @ @ @ @ @ @ @ @ @ @ e.e.e.e.<+<++{_._._.e.e.*+*+e.e._ s.<'~~O.H   ",
". @ @{y~#{i$l.@ ${%{&{*{*{={={${@ _._ ( -{;{>{_ _.e.e.e.e._._._ e.*+_._ _ _ +._ _.e.e.e._.e._.,{_.e.e.e.e.e._._._ _ s.@.g.A '{g+",
"  i.){] 7@e!l._ _ e.e.e.e.e._ _ e.e._.e.!{~{{{_ _ _._.(._.e.e._ : e.(._ ]{^{/{_.*+*+({_{:{e.e.<+e.e.e.e.e._._._ <{[{}{c!D)7 d~g+",
"  @ ){|{7@e!|+_ _ _.e.e.e.e._ _ _ e.e.e.e.: e.e.e.e.e.e.e.e.e.e.e.e.e._ 1{2{3{_.{.4{5{6{7{e.e.e.e.e._._ _ e.: _ 8{9{0{a{b{Q$&.  ",
"+ @ @{] c{d{e{f{[ _ _ e.e.<+_._ _ e.e.e.e.e.e.e.e.e.e.<+e.e.e.e.e.e._._ g{}{B#_ (.+.#~h{w@_.e.e.e._._._ _ e.e._.i{j{k{8#V'D d~  ",
"  @ l{|{c{C m{#._.s.y._ _._.e.e._ e.e._ _._._._.e.e.<++{_._.(._.e.e._ _ _ } s.C.(._ _ _ _ _ _ +.(.(._._ _ _ e._ _ _ _ @.n{O.H   ",
"  i.o{p{7 D q{W r{s{s{t{t{u{r r v{w{w{v{t{t{t{t{t{r r r x{r t{t{t{r t{v{t{v{r{t{t{t{t{t{v{v{v{v{x{t{t{y{z{t{t{v{v{t{t{A{B{O.Z g+",
"  C{D{O.O.7 7 Q$Q$Q$O.Q$Q$Q$Q$Q$Q$Q$Q$Q$Q$Q$Q$Q$Q$Q$Q$Q$Q$Q$Q$Q$Q$Q$Q$Q$Q$Q$Q$Q$Q$Q$Q$Q$Q$Q$Q$Q$Q$Q$-.Q$Q$Q$Q$Q$Q$7 7 7 7 z Z g+",
"    E{F{F{G{G{F{F{F{F{G{G{F{H{F{H{F{F{I{I{F{I{F{G{G{F{F{F{G{F{F{F{I{I{F{I{I{J{K{F{F{F{G{G{F{F{F{F{I{G{G{F{F{F{F{F{F{F{G{L{F{M{  ",
"                                    g+g+      g+g+        g+    g+g+g+    g+    g+g+  g+g+g+g+    g+g+    g+        g+          "};
