/* XPM */
static char * Bowser_64_xpm[] = {
"64 64 1810 2",
"  	c #010101",
". 	c #000101",
"+ 	c #010100",
"@ 	c #000000",
"# 	c #000100",
"$ 	c #583A24",
"% 	c #5A3A23",
"& 	c #5A3923",
"* 	c #5B3923",
"= 	c #5B3A23",
"- 	c #5B3A22",
"; 	c #5B3922",
"> 	c #5C3A23",
", 	c #5A3922",
"' 	c #462B19",
") 	c #2B190E",
"! 	c #1B1008",
"~ 	c #9C5F34",
"{ 	c #A15F31",
"] 	c #A16032",
"^ 	c #A06031",
"/ 	c #A16031",
"( 	c #A26130",
"_ 	c #A36131",
": 	c #A36031",
"< 	c #A26030",
"[ 	c #A26031",
"} 	c #A26131",
"| 	c #A36130",
"1 	c #A16030",
"2 	c #A25F31",
"3 	c #A15F30",
"4 	c #A15E31",
"5 	c #A05E32",
"6 	c #7B4825",
"7 	c #532F18",
"8 	c #382111",
"9 	c #000001",
"0 	c #9C5F35",
"a 	c #A15E32",
"b 	c #8D532C",
"c 	c #8C532C",
"d 	c #8C532B",
"e 	c #8D522B",
"f 	c #8D542B",
"g 	c #8D542C",
"h 	c #8C542B",
"i 	c #8D532B",
"j 	c #8B542B",
"k 	c #8B542C",
"l 	c #8D532A",
"m 	c #8C542A",
"n 	c #8C532A",
"o 	c #8B532B",
"p 	c #8C542C",
"q 	c #8C522B",
"r 	c #734323",
"s 	c #533019",
"t 	c #371F10",
"u 	c #9D5F35",
"v 	c #A05F31",
"w 	c #573018",
"x 	c #532E18",
"y 	c #522E18",
"z 	c #522F19",
"A 	c #522E19",
"B 	c #522F18",
"C 	c #522E16",
"D 	c #522F17",
"E 	c #522E17",
"F 	c #512E16",
"G 	c #532F1A",
"H 	c #371F11",
"I 	c #9D6034",
"J 	c #563017",
"K 	c #63341B",
"L 	c #65351B",
"M 	c #6F4123",
"N 	c #704224",
"O 	c #704223",
"P 	c #6F4223",
"Q 	c #6F4222",
"R 	c #704222",
"S 	c #704122",
"T 	c #6F4224",
"U 	c #6A3B1E",
"V 	c #66351B",
"W 	c #67351A",
"X 	c #5C311A",
"Y 	c #512F19",
"Z 	c #351F11",
"` 	c #9D5F34",
" .	c #803D1F",
"..	c #853E1E",
"+.	c #A36132",
"@.	c #955028",
"#.	c #883E1E",
"$.	c #853D1E",
"%.	c #6D361B",
"&.	c #361F11",
"*.	c #9F5F31",
"=.	c #573118",
"-.	c #532E17",
";.	c #8A4825",
">.	c #8E4825",
",.	c #A36033",
"'.	c #A36032",
").	c #B66F3B",
"!.	c #BA723C",
"~.	c #A76433",
"{.	c #A46033",
"].	c #AF6634",
"^.	c #B26834",
"/.	c #A66332",
"(.	c #A46132",
"_.	c #A46131",
":.	c #B16B38",
"<.	c #B9713B",
"[.	c #AB6735",
"}.	c #98542B",
"|.	c #8E4724",
"1.	c #874221",
"2.	c #6B361B",
"3.	c #543019",
"4.	c #382011",
"5.	c #532E16",
"6.	c #E6914D",
"7.	c #F09851",
"8.	c #B36C39",
"9.	c #CD7537",
"0.	c #B06633",
"a.	c #D68647",
"b.	c #EF9951",
"c.	c #C47A40",
"d.	c #A46031",
"e.	c #935028",
"f.	c #6E371C",
"g.	c #361E11",
"h.	c #010000",
"i.	c #573017",
"j.	c #522E15",
"k.	c #9F5F32",
"l.	c #B56F39",
"m.	c #B76F3A",
"n.	c #A56333",
"o.	c #D78848",
"p.	c #E08E4B",
"q.	c #AF6B37",
"r.	c #A36231",
"s.	c #B46935",
"t.	c #B76B35",
"u.	c #A76332",
"v.	c #5F1F11",
"w.	c #9D2D18",
"x.	c #8B2714",
"y.	c #A26231",
"z.	c #A26132",
"A.	c #CA7F43",
"B.	c #BD743D",
"C.	c #A36232",
"D.	c #935027",
"E.	c #6D371B",
"F.	c #381F10",
"G.	c #A05F32",
"H.	c #EB9751",
"I.	c #F09951",
"J.	c #AE6936",
"K.	c #A36133",
"L.	c #8E8C86",
"M.	c #E18141",
"N.	c #635351",
"O.	c #D23C20",
"P.	c #942B16",
"Q.	c #AC6B65",
"R.	c #DC3A1D",
"S.	c #E33519",
"T.	c #8F8C85",
"U.	c #532F19",
"V.	c #563018",
"W.	c #AF6534",
"X.	c #E08E4D",
"Y.	c #E4904D",
"Z.	c #AC6735",
"`.	c #9F9081",
" +	c #C9B37A",
".+	c #B16633",
"++	c #711C0C",
"@+	c #43150C",
"#+	c #BB361D",
"$+	c #E43818",
"%+	c #C12510",
"&+	c #FA401B",
"*+	c #F83D1A",
"=+	c #A82515",
"-+	c #747474",
";+	c #CFCFCF",
">+	c #CBB67A",
",+	c #9C8E80",
"'+	c #A46032",
")+	c #A45F33",
"!+	c #D5783B",
"~+	c #D87A3A",
"{+	c #A96332",
"]+	c #C7AB68",
"^+	c #CBB26F",
"/+	c #D8783A",
"(+	c #B52F16",
"_+	c #902E1D",
":+	c #ED3B19",
"<+	c #F73C18",
"[+	c #F63B17",
"}+	c #F93D18",
"|+	c #F03719",
"1+	c #9E100D",
"2+	c #5B3332",
"3+	c #9F4E4D",
"4+	c #913A3A",
"5+	c #D7D7D6",
"6+	c #D0D0D0",
"7+	c #CDB370",
"8+	c #C5AA67",
"9+	c #D6D5D4",
"0+	c #A46030",
"a+	c #6C371B",
"b+	c #371F12",
"c+	c #9F5F33",
"d+	c #CB743A",
"e+	c #CE7539",
"f+	c #A86332",
"g+	c #A8A9A8",
"h+	c #817260",
"i+	c #EAC877",
"j+	c #CAB26E",
"k+	c #8B8B8B",
"l+	c #857A7B",
"m+	c #DE2D13",
"n+	c #DF371B",
"o+	c #FA3E18",
"p+	c #FA3D18",
"q+	c #D31E0D",
"r+	c #9F0F0C",
"s+	c #B30B09",
"t+	c #C40A08",
"u+	c #877B7B",
"v+	c #FFFFFF",
"w+	c #898988",
"x+	c #CBB472",
"y+	c #EAC878",
"z+	c #7B6D59",
"A+	c #A9A9A8",
"B+	c #AA6432",
"C+	c #AE6633",
"D+	c #6C361B",
"E+	c #A1A1A0",
"F+	c #CCB475",
"G+	c #867650",
"H+	c #949392",
"I+	c #817361",
"J+	c #EAC773",
"K+	c #F3D988",
"L+	c #8C7E57",
"M+	c #402618",
"N+	c #C20C08",
"O+	c #E93416",
"P+	c #E02A12",
"Q+	c #F93D19",
"R+	c #F53A17",
"S+	c #CE1B0D",
"T+	c #BF0A08",
"U+	c #D42010",
"V+	c #D52210",
"W+	c #452419",
"X+	c #AFB1AF",
"Y+	c #8C7E58",
"Z+	c #F3D680",
"`+	c #E9C874",
" @	c #7A6C58",
".@	c #939392",
"+@	c #83744E",
"@@	c #CCB373",
"#@	c #A2A1A2",
"$@	c #C57036",
"%@	c #D8793A",
"&@	c #BB6C35",
"*@	c #934F27",
"=@	c #372011",
"-@	c #020201",
";@	c #A1A0A0",
">@	c #E8C77B",
",@	c #F6D883",
"'@	c #B19455",
")@	c #9E9995",
"!@	c #817360",
"~@	c #DCB565",
"{@	c #FADA81",
"]@	c #D8BE79",
"^@	c #51441A",
"/@	c #1F210B",
"(@	c #9E0D0A",
"_@	c #992515",
":@	c #A40F0C",
"<@	c #E52E14",
"[@	c #F83C18",
"}@	c #E52F14",
"|@	c #A20F0C",
"1@	c #952213",
"2@	c #9D0C0A",
"3@	c #231F0B",
"4@	c #57441B",
"5@	c #D9C07A",
"6@	c #F9DB84",
"7@	c #D9B05E",
"8@	c #7B6D58",
"9@	c #D7D6D5",
"0@	c #9F9A95",
"a@	c #B39657",
"b@	c #F4D681",
"c@	c #E7C578",
"d@	c #A1A1A1",
"e@	c #C06E36",
"f@	c #D07639",
"g@	c #B66A34",
"h@	c #934F28",
"i@	c #9C6034",
"j@	c #A6864E",
"k@	c #F4D47E",
"l@	c #ECCD7E",
"m@	c #AD713D",
"n@	c #623C18",
"o@	c #18491D",
"p@	c #A68245",
"q@	c #F0CF7B",
"r@	c #E1C174",
"s@	c #96461F",
"t@	c #983019",
"u@	c #742012",
"v@	c #1B5C1C",
"w@	c #1D611E",
"x@	c #8C0D07",
"y@	c #B40806",
"z@	c #B70807",
"A@	c #8C0C08",
"B@	c #1E611F",
"C@	c #1C5B1D",
"D@	c #741F13",
"E@	c #972E17",
"F@	c #98471E",
"G@	c #E2C174",
"H@	c #EFCF7C",
"I@	c #A78449",
"J@	c #1A481E",
"K@	c #5F3917",
"L@	c #AC723D",
"M@	c #ECCC7E",
"N@	c #A6864C",
"O@	c #A46232",
"P@	c #945027",
"Q@	c #362010",
"R@	c #9C6135",
"S@	c #9F6032",
"T@	c #573117",
"U@	c #532E15",
"V@	c #B06B37",
"W@	c #B26B38",
"X@	c #84693B",
"Y@	c #D2A858",
"Z@	c #B4763B",
"`@	c #7B5222",
" #	c #378F29",
".#	c #3E9D2D",
"+#	c #57622E",
"@#	c #C09755",
"##	c #B06B36",
"$#	c #531509",
"%#	c #CB2914",
"&#	c #E83718",
"*#	c #75501C",
"=#	c #37962A",
"-#	c #3A8D23",
";#	c #544F17",
">#	c #545018",
",#	c #3A8D25",
"'#	c #36932A",
")#	c #764E1D",
"!#	c #E73819",
"~#	c #C82913",
"{#	c #511508",
"]#	c #AF6A36",
"^#	c #BD9452",
"/#	c #56622E",
"(#	c #3FA22D",
"_#	c #368E28",
":#	c #7C5022",
"<#	c #B4763C",
"[#	c #D0A557",
"}#	c #826739",
"|#	c #AC6836",
"1#	c #B26C38",
"2#	c #AA6635",
"3#	c #925027",
"4#	c #381F11",
"5#	c #532F15",
"6#	c #E8944F",
"7#	c #F19951",
"8#	c #664F2D",
"9#	c #A56229",
"0#	c #7D5425",
"a#	c #3B982C",
"b#	c #49B12D",
"c#	c #3BA130",
"d#	c #207C2D",
"e#	c #7B401E",
"f#	c #7C3F1E",
"g#	c #BC2515",
"h#	c #E12C16",
"i#	c #EC3C18",
"j#	c #DD3A1A",
"k#	c #387824",
"l#	c #50B629",
"m#	c #4EB22A",
"n#	c #50B62A",
"o#	c #DC391B",
"p#	c #EE3B19",
"q#	c #E22D16",
"r#	c #BA2414",
"s#	c #7B3B1C",
"t#	c #7A3C1D",
"u#	c #1F7A2D",
"v#	c #3AA22F",
"w#	c #49B32D",
"x#	c #3C962C",
"y#	c #7E5124",
"z#	c #A5632A",
"A#	c #654E2C",
"B#	c #D58547",
"C#	c #F29C52",
"D#	c #CB8043",
"E#	c #563016",
"F#	c #192412",
"G#	c #4E4622",
"H#	c #34902D",
"I#	c #339930",
"J#	c #278D31",
"K#	c #2C823B",
"L#	c #8AA594",
"M#	c #514C45",
"N#	c #3A4B21",
"O#	c #543217",
"P#	c #784843",
"Q#	c #D32B12",
"R#	c #F13A17",
"S#	c #A03F1A",
"T#	c #479828",
"U#	c #44A628",
"V#	c #46A729",
"W#	c #429528",
"X#	c #F03A18",
"Y#	c #D42B13",
"Z#	c #764743",
"`#	c #543017",
" $	c #394920",
".$	c #534D45",
"+$	c #89A593",
"@$	c #2C813B",
"#$	c #278C2F",
"$$	c #33992F",
"%$	c #33902C",
"&$	c #4F4622",
"*$	c #182412",
"=$	c #CE8144",
"-$	c #E7934E",
";$	c #C37A40",
">$	c #945028",
",$	c #9C6035",
"'$	c #20672A",
")$	c #1B6E28",
"!$	c #1B6E27",
"~$	c #218632",
"{$	c #1F7B2D",
"]$	c #879F90",
"^$	c #EFF2F1",
"/$	c #B1B8B5",
"($	c #307621",
"_$	c #348927",
":$	c #B4BFBB",
"<$	c #796164",
"[$	c #DA3116",
"}$	c #EA3617",
"|$	c #395714",
"1$	c #4EB328",
"2$	c #4FB329",
"3$	c #365713",
"4$	c #E83416",
"5$	c #DA3214",
"6$	c #7F6264",
"7$	c #B2BDBA",
"8$	c #368928",
"9$	c #317621",
"0$	c #B1B8B4",
"a$	c #EFF3F1",
"b$	c #869D8E",
"c$	c #1E7C2C",
"d$	c #208830",
"e$	c #1A6D27",
"f$	c #1B6D29",
"g$	c #22682B",
"h$	c #A1A0A1",
"i$	c #010201",
"j$	c #9F6031",
"k$	c #49554C",
"l$	c #8FA295",
"m$	c #D9DFDC",
"n$	c #D3DAD6",
"o$	c #859B8B",
"p$	c #98AB9F",
"q$	c #EBEEEC",
"r$	c #F1F1F1",
"s$	c #85908B",
"t$	c #3C8026",
"u$	c #3D9227",
"v$	c #E2E8E3",
"w$	c #E2B9B6",
"x$	c #671D14",
"y$	c #881A12",
"z$	c #2D4414",
"A$	c #3F9E2A",
"B$	c #3D9C2B",
"C$	c #2A4513",
"D$	c #8A1912",
"E$	c #691E14",
"F$	c #E4B8B5",
"G$	c #E3E7E3",
"H$	c #3D9228",
"I$	c #3B8125",
"J$	c #89938F",
"K$	c #F0F0F0",
"L$	c #9AACA0",
"M$	c #859B8A",
"N$	c #D1DAD5",
"O$	c #DBE1DE",
"P$	c #91A497",
"Q$	c #4C5850",
"R$	c #DEDEDD",
"S$	c #392012",
"T$	c #9E6031",
"U$	c #B1C3B7",
"V$	c #FEFEFE",
"W$	c #FFFFFE",
"X$	c #EFF0F0",
"Y$	c #707070",
"Z$	c #B59B62",
"`$	c #B0985B",
" %	c #3E8C29",
".%	c #9BB09A",
"+%	c #A4907F",
"@%	c #B27365",
"#%	c #878D87",
"$%	c #0C2A0D",
"%%	c #154B1B",
"&%	c #154D1A",
"*%	c #0D2C0E",
"=%	c #878E87",
"-%	c #B27364",
";%	c #A58F7F",
">%	c #9AB099",
",%	c #3D8A2A",
"'%	c #B1985D",
")%	c #B39861",
"!%	c #FEFFFE",
"~%	c #B2C3B8",
"{%	c #959C96",
"]%	c #AAAAAA",
"^%	c #BEBEBE",
"/%	c #6D371C",
"(%	c #9B6035",
"_%	c #573119",
":%	c #532F16",
"<%	c #F2D68A",
"[%	c #AF965E",
"}%	c #8F9792",
"|%	c #F4F6F4",
"1%	c #E2E8E5",
"2%	c #F8FAF9",
"3%	c #969C95",
"4%	c #BB9B5C",
"5%	c #F9DC87",
"6%	c #F8DB86",
"7%	c #BEAC61",
"8%	c #529531",
"9%	c #3C8826",
"0%	c #46672A",
"a%	c #9F884A",
"b%	c #E5C274",
"c%	c #F4DB8D",
"d%	c #F5DB8D",
"e%	c #E4C272",
"f%	c #9E884A",
"g%	c #48672B",
"h%	c #3D8726",
"i%	c #539530",
"j%	c #BFAC61",
"k%	c #F9DB86",
"l%	c #FADB86",
"m%	c #BC9C5D",
"n%	c #929B94",
"o%	c #FEFFFF",
"p%	c #F9FAF9",
"q%	c #E3E8E5",
"r%	c #909892",
"s%	c #B09861",
"t%	c #F2D78C",
"u%	c #C1A261",
"v%	c #87837F",
"w%	c #532F17",
"x%	c #504026",
"y%	c #CBA961",
"z%	c #8F7640",
"A%	c #DAE0DC",
"B%	c #FCFEFE",
"C%	c #A6B1AB",
"D%	c #606D65",
"E%	c #7F8F88",
"F%	c #BFCCC6",
"G%	c #C6D1CC",
"H%	c #796C57",
"I%	c #E9C776",
"J%	c #F9DB83",
"K%	c #ECCA76",
"L%	c #BB9E50",
"M%	c #CBB471",
"N%	c #C09F5E",
"O%	c #D8B467",
"P%	c #C8A863",
"Q%	c #F7DC89",
"R%	c #F7DC88",
"S%	c #C9A762",
"T%	c #D9B466",
"U%	c #C1A15E",
"V%	c #B99C4F",
"W%	c #ECC977",
"X%	c #E8C575",
"Y%	c #72624C",
"Z%	c #BFCCC5",
"`%	c #809087",
" &	c #616E68",
".&	c #A6B1AC",
"+&	c #FCFEFD",
"@&	c #DBE2DD",
"#&	c #907741",
"$&	c #524127",
"%&	c #675F53",
"&&	c #69532D",
"*&	c #F3F3F3",
"=&	c #C8D3CD",
"-&	c #74847C",
";&	c #40453F",
">&	c #91630F",
",&	c #93640F",
"'&	c #784F0E",
")&	c #68522C",
"!&	c #EBC875",
"~&	c #F9DB85",
"{&	c #F1CE79",
"]&	c #DCB25D",
"^&	c #F5D783",
"/&	c #F9DA84",
"(&	c #EAC674",
"_&	c #F4D27B",
":&	c #DBB86A",
"<&	c #E3C679",
"[&	c #E4C67B",
"}&	c #DDB86A",
"|&	c #F4D37B",
"1&	c #E9C672",
"2&	c #F6D684",
"3&	c #F0CE78",
"4&	c #EAC774",
"5&	c #665028",
"6&	c #775010",
"7&	c #92650F",
"8&	c #926410",
"9&	c #434642",
"0&	c #CAD4CE",
"a&	c #F3F3F2",
"b&	c #6A532D",
"c&	c #685F53",
"d&	c #64736B",
"e&	c #C8CAC9",
"f&	c #676C69",
"g&	c #664414",
"h&	c #D2A91D",
"i&	c #EFB508",
"j&	c #E39905",
"k&	c #D69009",
"l&	c #6F5529",
"m&	c #D1A657",
"n&	c #E8C673",
"o&	c #917442",
"p&	c #E0BB6B",
"q&	c #F8D983",
"r&	c #E9C572",
"s&	c #F3D482",
"t&	c #F8DB85",
"u&	c #F4D683",
"v&	c #E8C572",
"w&	c #E0BB6A",
"x&	c #D0A759",
"y&	c #6B5225",
"z&	c #D48F0B",
"A&	c #E29905",
"B&	c #EFB407",
"C&	c #D0A71B",
"D&	c #604112",
"E&	c #686D6A",
"F&	c #C9CCCB",
"G&	c #69776F",
"H&	c #9E5F32",
"I&	c #563118",
"J&	c #533016",
"K&	c #55625B",
"L&	c #64716C",
"M&	c #454D49",
"N&	c #684A13",
"O&	c #DAA70E",
"P&	c #FCD104",
"Q&	c #EBB405",
"R&	c #DF9705",
"S&	c #976715",
"T&	c #A67D3C",
"U&	c #C59545",
"V&	c #6D512D",
"W&	c #B29153",
"X&	c #F5D680",
"Y&	c #F9DC85",
"Z&	c #F9DC88",
"`&	c #E6C26D",
" *	c #E9C571",
".*	c #E9C670",
"+*	c #F8DC88",
"@*	c #B19153",
"#*	c #6C4F2C",
"$*	c #C79647",
"%*	c #9F7738",
"&*	c #976915",
"**	c #E09605",
"=*	c #ECB304",
"-*	c #FCD102",
";*	c #DBA80C",
">*	c #674A11",
",*	c #464D4A",
"'*	c #67716D",
")*	c #58655D",
"!*	c #A26232",
"~*	c #A66331",
"{*	c #A86431",
"]*	c #A56331",
"^*	c #924F27",
"/*	c #542F18",
"(*	c #382010",
"_*	c #3A3F3D",
":*	c #6A6C6C",
"<*	c #64502E",
"[*	c #DBA911",
"}*	c #F8CB04",
"|*	c #ECB005",
"1*	c #C88915",
"2*	c #5B4625",
"3*	c #B08241",
"4*	c #AF7E3C",
"5*	c #463721",
"6*	c #BD9E61",
"7*	c #EBCD7C",
"8*	c #F2D27D",
"9*	c #F2D07A",
"0*	c #E5C473",
"a*	c #8B7141",
"b*	c #8C7243",
"c*	c #E4C273",
"d*	c #F2D17A",
"e*	c #F2D27E",
"f*	c #EACD7D",
"g*	c #BB9E60",
"h*	c #483823",
"i*	c #AE7D3C",
"j*	c #B28040",
"k*	c #594424",
"l*	c #C88A17",
"m*	c #EDB105",
"n*	c #F9CA03",
"o*	c #DDAA10",
"p*	c #685330",
"q*	c #020202",
"r*	c #3B3F3D",
"s*	c #A46231",
"t*	c #D38446",
"u*	c #F09A51",
"v*	c #C97D41",
"w*	c #6E371B",
"x*	c #A56131",
"y*	c #95651A",
"z*	c #201103",
"A*	c #BBC4C3",
"B*	c #4F5756",
"C*	c #5A3C08",
"D*	c #E1AA11",
"E*	c #E4A305",
"F*	c #DD9505",
"G*	c #AA7216",
"H*	c #4B361D",
"I*	c #A37335",
"J*	c #8E6026",
"K*	c #41362F",
"L*	c #877661",
"M*	c #8B6C36",
"N*	c #8D6E39",
"O*	c #775D30",
"P*	c #450A11",
"Q*	c #440A11",
"R*	c #755C31",
"S*	c #8D6F39",
"T*	c #8B6E37",
"U*	c #877662",
"V*	c #43372F",
"W*	c #8F6128",
"X*	c #A17234",
"Y*	c #4A361C",
"Z*	c #E1A910",
"`*	c #5C3E06",
" =	c #535959",
".=	c #BDC5C4",
"+=	c #1C1003",
"@=	c #96661B",
"#=	c #D28346",
"$=	c #F09852",
"%=	c #C97C41",
"&=	c #AF861A",
"*=	c #F7C909",
"==	c #BE8C10",
"-=	c #473008",
";=	c #1C211F",
">=	c #070808",
",=	c #583E13",
"'=	c #CC8A0D",
")=	c #DC9508",
"!=	c #A76B10",
"~=	c #2F302F",
"{=	c #604730",
"]=	c #B78137",
"^=	c #6D5338",
"/=	c #5F6161",
"(=	c #B0B1B0",
"_=	c #420404",
":=	c #880E17",
"<=	c #8E0E19",
"[=	c #8E0D18",
"}=	c #880F17",
"|=	c #440504",
"1=	c #B0B1AF",
"2=	c #606160",
"3=	c #6E5338",
"4=	c #B98137",
"5=	c #644A32",
"6=	c #2D302F",
"7=	c #A66A10",
"8=	c #DD9609",
"9=	c #CD8B0C",
"0=	c #593E12",
"a=	c #090A09",
"b=	c #1B1F1E",
"c=	c #483109",
"d=	c #C08E15",
"e=	c #F8C90B",
"f=	c #B08718",
"g=	c #A46130",
"h=	c #A56130",
"i=	c #A36030",
"j=	c #855906",
"k=	c #F2C505",
"l=	c #FBCF03",
"m=	c #F9CA04",
"n=	c #CA960F",
"o=	c #030000",
"p=	c #191919",
"q=	c #AEB2B1",
"r=	c #6A4A12",
"s=	c #AB7215",
"t=	c #A66A0E",
"u=	c #807364",
"v=	c #5F6563",
"w=	c #AB7631",
"x=	c #996A2C",
"y=	c #450B0F",
"z=	c #7A7879",
"A=	c #8B7879",
"B=	c #BB0B0D",
"C=	c #C2080B",
"D=	c #C4090B",
"E=	c #BA0C0D",
"F=	c #8C7777",
"G=	c #7B7878",
"H=	c #440C10",
"I=	c #9D6C2D",
"J=	c #A97530",
"K=	c #5F6767",
"L=	c #7E7162",
"M=	c #A2680D",
"N=	c #6A4A11",
"O=	c #3B3F3F",
"P=	c #B0B4B3",
"Q=	c #1F201F",
"R=	c #030100",
"S=	c #CA9711",
"T=	c #F8CA03",
"U=	c #FCCF02",
"V=	c #F3C504",
"W=	c #875E07",
"X=	c #A56031",
"Y=	c #8E7A63",
"Z=	c #F0BD0C",
"`=	c #FBCF02",
" -	c #FCD002",
".-	c #FDD004",
"+-	c #FCCE05",
"@-	c #C99510",
"#-	c #4D3716",
"$-	c #7A8682",
"%-	c #393E3D",
"&-	c #22190C",
"*-	c #53370C",
"=-	c #CF8C0C",
"--	c #C58811",
";-	c #543C18",
">-	c #6B4B21",
",-	c #CB9E4E",
"'-	c #806030",
")-	c #7F8180",
"!-	c #B8A48E",
"~-	c #8B6E3D",
"{-	c #8B6E3E",
"]-	c #8A6F3E",
"^-	c #8B6F3E",
"/-	c #B9A48E",
"(-	c #828280",
"_-	c #816031",
":-	c #C7994B",
"<-	c #68471E",
"[-	c #513B17",
"}-	c #C58712",
"|-	c #CE8B0B",
"1-	c #533609",
"2-	c #22180A",
"3-	c #3B3E3E",
"4-	c #7C8684",
"5-	c #4E3B1C",
"6-	c #C89611",
"7-	c #FBCE04",
"8-	c #FDD002",
"9-	c #FDD003",
"0-	c #F1BE0B",
"a-	c #907C64",
"b-	c #C18E18",
"c-	c #FDCF03",
"d-	c #F5C504",
"e-	c #F2BE05",
"f-	c #F1BB06",
"g-	c #BA7F14",
"h-	c #1B0E02",
"i-	c #050606",
"j-	c #0C0D0D",
"k-	c #6A4708",
"l-	c #E19805",
"m-	c #DF9608",
"n-	c #98671D",
"o-	c #35240E",
"p-	c #C79F55",
"q-	c #CAA456",
"r-	c #C09E58",
"s-	c #E5C678",
"t-	c #F0D17D",
"u-	c #F0CF7A",
"v-	c #F1CF7C",
"w-	c #E5C777",
"x-	c #BE9E58",
"y-	c #C8A051",
"z-	c #C59D54",
"A-	c #2E1F0C",
"B-	c #98671C",
"C-	c #DE9608",
"D-	c #6A4706",
"E-	c #0D0F0F",
"F-	c #060606",
"G-	c #190E03",
"H-	c #B97E10",
"I-	c #F2BB06",
"J-	c #F1BE05",
"K-	c #F5C503",
"L-	c #FDCF02",
"M-	c #BE8C16",
"N-	c #76500D",
"O-	c #F1C20E",
"P-	c #FCCE04",
"Q-	c #FDCF04",
"R-	c #F4BE06",
"S-	c #DD9604",
"T-	c #AB751D",
"U-	c #3D3E3B",
"V-	c #525857",
"W-	c #AF740B",
"X-	c #DE9605",
"Y-	c #C8850C",
"Z-	c #A57833",
"`-	c #AA8B4A",
" ;	c #C5A059",
".;	c #F2D17B",
"+;	c #F9DA85",
"@;	c #F8DB87",
"#;	c #F5D67E",
"$;	c #ECC874",
"%;	c #F5D580",
"&;	c #C49E56",
"*;	c #AC8C4C",
"=;	c #A37732",
"-;	c #C9860C",
";;	c #DE9505",
">;	c #AC720B",
",;	c #515656",
"';	c #3C3D3A",
");	c #A9741D",
"!;	c #DF9606",
"~;	c #DD9504",
"{;	c #FACE01",
"];	c #FBCE02",
"^;	c #F0C10C",
"/;	c #744C0B",
"(;	c #402F0E",
"_;	c #735F18",
":;	c #897A51",
"<;	c #8A7D54",
"[;	c #9B7416",
"};	c #E1B80E",
"|;	c #F0C506",
"1;	c #CD8A14",
"2;	c #554222",
"3;	c #242B23",
"4;	c #5C3A11",
"5;	c #DA9308",
"6;	c #E09807",
"7;	c #A97931",
"8;	c #D4AA54",
"9;	c #B59450",
"0;	c #73603D",
"a;	c #CFA557",
"b;	c #EDCC79",
"c;	c #D6AE5D",
"d;	c #8E7240",
"e;	c #D7AF5F",
"f;	c #F1D17C",
"g;	c #EDCD7A",
"h;	c #CEA556",
"i;	c #74603D",
"j;	c #B59350",
"k;	c #D3A954",
"l;	c #A67730",
"m;	c #DF9707",
"n;	c #DA9307",
"o;	c #5C3B0F",
"p;	c #544121",
"q;	c #CE8B13",
"r;	c #ECB404",
"s;	c #F0C505",
"t;	c #E0B70E",
"u;	c #9C7516",
"v;	c #8A7D55",
"w;	c #897B51",
"x;	c #725E17",
"y;	c #3E2C0D",
"z;	c #6D381C",
"A;	c #676767",
"B;	c #929392",
"C;	c #909593",
"D;	c #9BA6A3",
"E;	c #866E08",
"F;	c #D09A0E",
"G;	c #81560F",
"H;	c #425847",
"I;	c #455F4C",
"J;	c #875A12",
"K;	c #DC9406",
"L;	c #DF9807",
"M;	c #9D6D2A",
"N;	c #CFA651",
"O;	c #D6AE56",
"P;	c #9F8245",
"Q;	c #624E28",
"R;	c #8F7138",
"S;	c #91733A",
"T;	c #8F733E",
"U;	c #9D8045",
"V;	c #9D8145",
"W;	c #90743F",
"X;	c #8F7038",
"Y;	c #614C26",
"Z;	c #9D8044",
"`;	c #D6AD57",
" >	c #CFA451",
".>	c #996A2A",
"+>	c #DE9708",
"@>	c #DB9506",
"#>	c #875A11",
"$>	c #455E4B",
"%>	c #425948",
"&>	c #825710",
"*>	c #D19C0E",
"=>	c #866F07",
"->	c #909494",
";>	c #939394",
">>	c #6A6A6A",
",>	c #6E381C",
"'>	c #542F19",
")>	c #515151",
"!>	c #6B7170",
"~>	c #B1B3B2",
"{>	c #2A2E2C",
"]>	c #383D3B",
"^>	c #6E6F6F",
"/>	c #B0B7B4",
"(>	c #3C2A10",
"_>	c #4E5048",
":>	c #4B6753",
"<>	c #A77113",
"[>	c #E09505",
"}>	c #B87A11",
"|>	c #D0A654",
"1>	c #BB8F44",
"2>	c #B88C43",
"3>	c #CAA152",
"4>	c #BD964C",
"5>	c #C59F51",
"6>	c #C49E50",
"7>	c #D6AC56",
"8>	c #D5AC56",
"9>	c #C8A050",
"0>	c #C49D4F",
"a>	c #C59E50",
"b>	c #BD974D",
"c>	c #C9A051",
"d>	c #B78C43",
"e>	c #BE9046",
"f>	c #CFA553",
"g>	c #B77B13",
"h>	c #DD9605",
"i>	c #A57112",
"j>	c #455E4C",
"k>	c #4C6653",
"l>	c #4D5047",
"m>	c #3E2C10",
"n>	c #B0B7B5",
"o>	c #6D6E6E",
"p>	c #393D3C",
"q>	c #2A2D2C",
"r>	c #B3B4B4",
"s>	c #686E6C",
"t>	c #525252",
"u>	c #9D6035",
"v>	c #0D0E0D",
"w>	c #734E11",
"x>	c #C49D17",
"y>	c #C7A515",
"z>	c #C09C15",
"A>	c #AE7911",
"B>	c #443F3A",
"C>	c #676F6E",
"D>	c #86958F",
"E>	c #4D6855",
"F>	c #455D4B",
"G>	c #A77213",
"H>	c #B47711",
"I>	c #D9AD58",
"J>	c #E6C069",
"K>	c #DCB766",
"L>	c #C2984D",
"M>	c #BA8F45",
"N>	c #B3853E",
"O>	c #B4863E",
"P>	c #B4873E",
"Q>	c #B4883E",
"R>	c #B5873F",
"S>	c #B4863D",
"T>	c #B2853D",
"U>	c #BA8E45",
"V>	c #C3984D",
"W>	c #E5BF68",
"X>	c #D8AD58",
"Y>	c #B47714",
"Z>	c #DF9605",
"`>	c #A67112",
" ,	c #455D4C",
".,	c #4D6955",
"+,	c #83918D",
"@,	c #413E39",
"#,	c #B17B12",
"$,	c #C7A615",
"%,	c #C29D17",
"&,	c #6F4B10",
"*,	c #0D0D0E",
"=,	c #944F27",
"-,	c #472D0D",
";,	c #EDB819",
">,	c #FACF02",
",,	c #FBCE03",
"',	c #FCCE07",
"),	c #DDA61B",
"!,	c #9D7523",
"~,	c #889692",
"{,	c #879A90",
"],	c #A57012",
"^,	c #E39906",
"/,	c #B27511",
"(,	c #CA9D4D",
"_,	c #EECC77",
":,	c #FAD983",
"<,	c #E9C371",
"[,	c #E5BE6C",
"},	c #E4BE6B",
"|,	c #E4BD69",
"1,	c #E4BD6A",
"2,	c #E5BD6A",
"3,	c #E5BE6A",
"4,	c #E8C370",
"5,	c #FAD981",
"6,	c #F9DB87",
"7,	c #EDCB75",
"8,	c #B27514",
"9,	c #E19806",
"0,	c #A47112",
"a,	c #445C4B",
"b,	c #879991",
"c,	c #889691",
"d,	c #9E7522",
"e,	c #DDA819",
"f,	c #FCCE06",
"g,	c #FBCF01",
"h,	c #FCCF03",
"i,	c #EDB719",
"j,	c #4D310E",
"k,	c #B79213",
"l,	c #FCCE03",
"m,	c #F5C307",
"n,	c #8F640A",
"o,	c #5A605E",
"p,	c #83958C",
"q,	c #445E4B",
"r,	c #A67216",
"s,	c #E09706",
"t,	c #AE7212",
"u,	c #C19548",
"v,	c #C9A258",
"w,	c #F9D984",
"x,	c #F9DC86",
"y,	c #F9D983",
"z,	c #C8A057",
"A,	c #C09348",
"B,	c #AE7313",
"C,	c #E09806",
"D,	c #A57216",
"E,	c #5A615E",
"F,	c #8F640C",
"G,	c #F2C307",
"H,	c #FCCF01",
"I,	c #B7910E",
"J,	c #573218",
"K,	c #6D4A1E",
"L,	c #E6B60A",
"M,	c #FAD002",
"N,	c #F6C506",
"O,	c #775B0F",
"P,	c #6D7671",
"Q,	c #546051",
"R,	c #6B410F",
"S,	c #D48E06",
"T,	c #B27612",
"U,	c #D9B05A",
"V,	c #E7C36E",
"W,	c #D1AA5D",
"X,	c #D4AD62",
"Y,	c #E2BF71",
"Z,	c #E1BE70",
"`,	c #E1BE6F",
" '	c #E2BE6F",
".'	c #E2BF70",
"+'	c #E1BE6E",
"@'	c #E1BD6E",
"#'	c #D4AE61",
"$'	c #D1AB5E",
"%'	c #E7C16D",
"&'	c #D7AE59",
"*'	c #B27713",
"='	c #D28D06",
"-'	c #6D4210",
";'	c #556153",
">'	c #6F7974",
",'	c #755811",
"''	c #F4C505",
")'	c #E4B608",
"!'	c #6A4A1D",
"~'	c #955128",
"{'	c #6F381C",
"]'	c #815A21",
"^'	c #F1BE04",
"/'	c #F3C706",
"('	c #C09409",
"_'	c #F9CB03",
":'	c #F9CC04",
"<'	c #7D670C",
"['	c #4B473C",
"}'	c #BF8C1D",
"|'	c #BC8D14",
"1'	c #D59007",
"2'	c #D9930C",
"3'	c #AE843D",
"4'	c #D4A952",
"5'	c #F7D986",
"6'	c #EECD7B",
"7'	c #EECC7A",
"8'	c #EECD7A",
"9'	c #EECD79",
"0'	c #F7D885",
"a'	c #F6D57F",
"b'	c #D2A852",
"c'	c #AD823C",
"d'	c #D7920D",
"e'	c #BA8312",
"f'	c #C08C1C",
"g'	c #4E4A3D",
"h'	c #7D650D",
"i'	c #F8CB03",
"j'	c #FACC02",
"k'	c #BF940A",
"l'	c #F2C705",
"m'	c #FCCE02",
"n'	c #F3BE04",
"o'	c #825B21",
"p'	c #502F18",
"q'	c #351F10",
"r'	c #845B21",
"s'	c #F2BD05",
"t'	c #F5C704",
"u'	c #E4B807",
"v'	c #FBD001",
"w'	c #BA910C",
"x'	c #7A4D0E",
"y'	c #DAA109",
"z'	c #E9AB04",
"A'	c #775009",
"B'	c #C08B0D",
"C'	c #F8CA04",
"D'	c #EEB207",
"E'	c #95672A",
"F'	c #BD8F44",
"G'	c #DFB765",
"H'	c #F5D57E",
"I'	c #F8DA85",
"J'	c #F8DA84",
"K'	c #F9DA83",
"L'	c #F8D982",
"M'	c #F6D57E",
"N'	c #E0B866",
"O'	c #BD9044",
"P'	c #8F6428",
"Q'	c #DE9707",
"R'	c #EDB206",
"S'	c #FACA03",
"T'	c #C18D0B",
"U'	c #774E06",
"V'	c #EBAC05",
"W'	c #DAA108",
"X'	c #784C0F",
"Y'	c #E5B806",
"Z'	c #F5C804",
"`'	c #F4BE04",
" )	c #845D22",
".)	c #795421",
"+)	c #EBB416",
"@)	c #C89D12",
"#)	c #EEC005",
"$)	c #CD9F07",
"%)	c #F9CF01",
"&)	c #C39507",
"*)	c #5C4013",
"=)	c #8F8A79",
"-)	c #BFB8AA",
";)	c #715D19",
">)	c #F7C905",
",)	c #F9C706",
"')	c #E29A05",
"))	c #C4831B",
"!)	c #C09448",
"~)	c #B1843E",
"{)	c #BE934D",
"])	c #E1BC6D",
"^)	c #EDCC7C",
"/)	c #ECCC79",
"()	c #EDCC7A",
"_)	c #EECC7B",
":)	c #EDCC7D",
"<)	c #BD924C",
"[)	c #B2853E",
"})	c #C09449",
"|)	c #C1821A",
"1)	c #DF9A07",
"2)	c #F8C705",
"3)	c #F9CA06",
"4)	c #735E19",
"5)	c #BFB7AA",
"6)	c #8F8B7A",
"7)	c #5B3F13",
"8)	c #C29508",
"9)	c #CE9F06",
"0)	c #EEC105",
"a)	c #C69D12",
"b)	c #EBB415",
"c)	c #7C5620",
"d)	c #72381C",
"e)	c #562F18",
"f)	c #3A2111",
"g)	c #BB7E18",
"h)	c #B68E0E",
"i)	c #F5C707",
"j)	c #BA8611",
"k)	c #E2AA05",
"l)	c #D69808",
"m)	c #C6860F",
"n)	c #676057",
"o)	c #847159",
"p)	c #E7BB11",
"q)	c #F7C406",
"r)	c #D7910A",
"s)	c #B07F31",
"t)	c #D6AC55",
"u)	c #D5AB55",
"v)	c #CA9E4D",
"w)	c #CDA352",
"x)	c #DFBA6C",
"y)	c #E0BB6E",
"z)	c #E0BB6D",
"A)	c #E0BC6D",
"B)	c #E1BC6E",
"C)	c #CCA050",
"D)	c #C99C4C",
"E)	c #D4AC55",
"F)	c #B07E31",
"G)	c #D6910B",
"H)	c #F7C407",
"I)	c #E9BC11",
"J)	c #847258",
"K)	c #6A6358",
"L)	c #C78610",
"M)	c #D59809",
"N)	c #E2AB05",
"O)	c #BA8511",
"P)	c #B58D0E",
"Q)	c #B97E17",
"R)	c #E6914B",
"S)	c #C4793F",
"T)	c #965128",
"U)	c #6F371B",
"V)	c #6E5748",
"W)	c #B67C14",
"X)	c #CA8C0F",
"Y)	c #BF7F0D",
"Z)	c #99610F",
"`)	c #CE8B0A",
" !	c #C58C40",
".!	c #6D5E51",
"+!	c #C69716",
"@!	c #FACE02",
"#!	c #FBD003",
"$!	c #DA9312",
"%!	c #976929",
"&!	c #C59B4C",
"*!	c #C59C4B",
"=!	c #D3AA53",
"-!	c #D9B15A",
";!	c #D8B05A",
">!	c #D8B059",
",!	c #DAB15B",
"'!	c #D3AB54",
")!	c #976927",
"!!	c #D89213",
"~!	c #FCD003",
"{!	c #FBD002",
"]!	c #FBD102",
"^!	c #C89716",
"/!	c #706052",
"(!	c #C88D40",
"_!	c #D08B0A",
":!	c #9C630D",
"<!	c #C07F0E",
"[!	c #C7890F",
"}!	c #B17916",
"|!	c #715B4C",
"1!	c #CD8043",
"2!	c #512D18",
"3!	c #664811",
"4!	c #774D16",
"5!	c #B57712",
"6!	c #93816D",
"7!	c #54340E",
"8!	c #AD8A65",
"9!	c #F5C408",
"0!	c #DF9609",
"a!	c #BF8427",
"b!	c #BD9146",
"c!	c #BD9347",
"d!	c #B58840",
"e!	c #AF833C",
"f!	c #B0843C",
"g!	c #B0833D",
"h!	c #B0833C",
"i!	c #AF833D",
"j!	c #B58A41",
"k!	c #BE9447",
"l!	c #C08426",
"m!	c #E09709",
"n!	c #F2BF05",
"o!	c #F6C309",
"p!	c #AA8865",
"q!	c #706151",
"r!	c #55340D",
"s!	c #92806F",
"t!	c #B37511",
"u!	c #724B14",
"v!	c #5A4010",
"w!	c #B26B37",
"x!	c #A96533",
"y!	c #954F28",
"z!	c #72381B",
"A!	c #542F16",
"B!	c #B87B06",
"C!	c #F4C205",
"D!	c #FDCE02",
"E!	c #E9AF04",
"F!	c #E19706",
"G!	c #E09809",
"H!	c #B07514",
"I!	c #A57733",
"J!	c #BC9046",
"K!	c #D6AC57",
"L!	c #D7AD57",
"M!	c #CFA551",
"N!	c #BB9146",
"O!	c #A47632",
"P!	c #B17411",
"Q!	c #E19707",
"R!	c #E39806",
"S!	c #EAAF04",
"T!	c #F5C106",
"U!	c #B57A05",
"V!	c #522F16",
"W!	c #E08E4C",
"X!	c #AA6636",
"Y!	c #AA7309",
"Z!	c #EDB408",
"`!	c #F6C406",
" ~	c #FCCD04",
".~	c #EFB806",
"+~	c #FACE05",
"@~	c #F7C508",
"#~	c #E7A705",
"$~	c #E09705",
"%~	c #DF9607",
"&~	c #D7900A",
"*~	c #8B560D",
"=~	c #7B4D16",
"-~	c #936729",
";~	c #966D2F",
">~	c #976D2F",
",~	c #986E2F",
"'~	c #966C2E",
")~	c #93662A",
"!~	c #7B4D17",
"~~	c #8C550B",
"{~	c #DE9705",
"]~	c #E19705",
"^~	c #EEB807",
"/~	c #F7C506",
"(~	c #ECB409",
"_~	c #A97208",
":~	c #512E17",
"<~	c #351E10",
"[~	c #EB9650",
"}~	c #AC6736",
"|~	c #754805",
"1~	c #EAA70A",
"2~	c #EEB606",
"3~	c #F3C205",
"4~	c #EEB708",
"5~	c #E8A706",
"6~	c #E29705",
"7~	c #E29706",
"8~	c #E1990A",
"9~	c #BD7D12",
"0~	c #805311",
"a~	c #867A73",
"b~	c #56514D",
"c~	c #5C3A13",
"d~	c #5F3B13",
"e~	c #5E3A13",
"f~	c #5E3B13",
"g~	c #603B13",
"h~	c #5E3A14",
"i~	c #57514D",
"j~	c #867A72",
"k~	c #7F5211",
"l~	c #BC7D12",
"m~	c #E1980B",
"n~	c #E29707",
"o~	c #E8A806",
"p~	c #EEB608",
"q~	c #EFB706",
"r~	c #E9A709",
"s~	c #784904",
"t~	c #BE6C34",
"u~	c #CE7336",
"v~	c #B66933",
"w~	c #6F371C",
"x~	c #B46E39",
"y~	c #B66F3A",
"z~	c #A56232",
"A~	c #999490",
"B~	c #DA930F",
"C~	c #E4A006",
"D~	c #E7A406",
"E~	c #E39A06",
"F~	c #D28C0D",
"G~	c #A56C15",
"H~	c #9C630A",
"I~	c #695B52",
"J~	c #9E630A",
"K~	c #A66D15",
"L~	c #E49F06",
"M~	c #D8910D",
"N~	c #C46F35",
"O~	c #D77937",
"P~	c #BB6B34",
"Q~	c #372010",
"R~	c #8A5A0F",
"S~	c #D78F08",
"T~	c #E39706",
"U~	c #C68209",
"V~	c #DF8D4B",
"W~	c #EE974F",
"X~	c #E1823F",
"Y~	c #E29608",
"Z~	c #E29607",
"`~	c #E39807",
" {	c #D78E07",
".{	c #86570E",
"+{	c #AB6433",
"@{	c #A06032",
"#{	c #ABA6A3",
"${	c #BC8A11",
"%{	c #E5A605",
"&{	c #EEB706",
"*{	c #E5A306",
"={	c #E7A506",
"-{	c #E6A406",
";{	c #DE9406",
">{	c #A56D21",
",{	c #B7703A",
"'{	c #A6702A",
"){	c #DB9306",
"!{	c #E29606",
"~{	c #E7A507",
"{{	c #EEB705",
"]{	c #E6A604",
"^{	c #BD8A0F",
"/{	c #9F6033",
"({	c #9A9591",
"_{	c #B88F0E",
":{	c #E8BC0B",
"<{	c #EFC309",
"[{	c #FACF03",
"}{	c #F0C004",
"|{	c #FAD001",
"1{	c #EFBA04",
"2{	c #E5A208",
"3{	c #CC890B",
"4{	c #CA890C",
"5{	c #E6A308",
"6{	c #EFBA05",
"7{	c #FAD102",
"8{	c #F0C408",
"9{	c #E8BC0A",
"0{	c #B48A0D",
"a{	c #989491",
"b{	c #9E6135",
"c{	c #573217",
"d{	c #A4A4A1",
"e{	c #DABF76",
"f{	c #B49556",
"g{	c #F8DD7E",
"h{	c #EEC40E",
"i{	c #C1A464",
"j{	c #F9DF89",
"k{	c #F9D127",
"l{	c #E5A507",
"m{	c #BE7F0C",
"n{	c #BD800D",
"o{	c #E6A407",
"p{	c #F7CA04",
"q{	c #F9CF03",
"r{	c #F9D229",
"s{	c #FAE189",
"t{	c #C3A564",
"u{	c #F0C40E",
"v{	c #F9DE7E",
"w{	c #B49754",
"x{	c #DABF79",
"y{	c #A2A3A1",
"z{	c #A9A9A9",
"A{	c #362011",
"B{	c #9F6136",
"C{	c #E0E1E1",
"D{	c #938C81",
"E{	c #E9E6E2",
"F{	c #FAFAF4",
"G{	c #AC9865",
"H{	c #DAD8D3",
"I{	c #D5C289",
"J{	c #F3C010",
"K{	c #E5A81B",
"L{	c #DD961C",
"M{	c #C4861B",
"N{	c #786251",
"O{	c #7B6553",
"P{	c #C6861E",
"Q{	c #DF981C",
"R{	c #E6A81A",
"S{	c #F2C10E",
"T{	c #D5C38C",
"U{	c #DBD9D3",
"V{	c #AE9865",
"W{	c #FBFBF5",
"X{	c #968E83",
"Y{	c #E0E1E0",
"Z{	c #99542B",
"`{	c #934A26",
" ]	c #9C582D",
".]	c #A16132",
"+]	c #696969",
"@]	c #CBCBCB",
"#]	c #969894",
"$]	c #4E3414",
"%]	c #B8B8B7",
"&]	c #A8ABAA",
"*]	c #858378",
"=]	c #774C0F",
"-]	c #666666",
";]	c #914A26",
">]	c #666565",
",]	c #7D5111",
"']	c #878479",
")]	c #A9ACAC",
"!]	c #B8B8B8",
"~]	c #4B3014",
"{]	c #9A9B98",
"]]	c #A9AAAA",
"^]	c #954E28",
"/]	c #8A3E20",
"(]	c #99532B",
"_]	c #965028",
":]	c #71381C",
"<]	c #583117",
"[]	c #552F16",
"}]	c #8D4926",
"|]	c #904A25",
"1]	c #9E5B2E",
"2]	c #9F5C2F",
"3]	c #9D592E",
"4]	c #A05E2F",
"5]	c #9E6136",
"6]	c #833D20",
"7]	c #A4602F",
"8]	c #70371C",
"9]	c #6E4326",
"0]	c #704324",
"a]	c #65351C",
"b]	c #724324",
"c]	c #724424",
"d]	c #724323",
"e]	c #734324",
"f]	c #724423",
"g]	c #734424",
"h]	c #734423",
"i]	c #724223",
"j]	c #724322",
"k]	c #6C3C1E",
"l]	c #5D3219",
"m]	c #010001",
"n]	c #502F1A",
"o]	c #2C1B11",
"p]	c #2D1A0E",
"q]	c #2D1A0F",
"r]	c #2C1A0E",
"s]	c #2E1A0E",
"t]	c #2E1A0F",
"u]	c #2E190E",
"v]	c #2D190E",
"w]	c #1D1009",
"        .                                                         +           . .                   @ @ .     @ @ @     @ @ @   ",
"# @ $ % & * * = - = = = = = * ; - = ; & ; = - = - - > - ; , * ; , ; , , ; * , & * , , - = & , = ; , ; , - - ; , * & , ; ' ) !   ",
"# @ ~ { { ] ^ / ( _ : _ _ _ < < < < [ / / } | ( } _ _ } [ < 1 1 1 1 1 ^ 1 ^ / / 1 ^ 1 1 ( / [ ( < 1 < 1 < < < 2 3 4 4 5 6 7 8   ",
"9 @ 0 a b c d e b f f g f f h d i i j k d f f d d l f i d d h d m j n o d c n h p o n d d c c f n d d h d n n n q q e c r s t   ",
"  @ u v w x y y y z z z z y y A y y y y B B y C C C y y y D y E E E y y y E B B E C C C E y B z y B y C E y y E D y F E B G H   ",
"  @ I v J E K L M M N O O O P P P O O O O O P Q R R O O O O O O Q O O O O O O O Q S R O O O P T O P O O S O O O O U V W X Y Z   ",
"  @ ` v w E  ...[ _ _ _ _ < } } +._ _ _ _ _ _ _ _ _ } _ _ _ +._ _ _ _ _ _ _ _ _ _ _ _ _ _ _ _ +._ _ _ _ _ +._ _ _ @.#.$.%.s &.  ",
"  @ I *.=.-.;.>.[ _ +._ _ _ _ +.,.'.).!.~._ _ +._ ,.{._ +._ ].^./._ '.+._ (._._ _ _ _ _ +._ (._.:.<.[._ _ _ _ _ _ }.|.1.2.3.4.  ",
"@ @ I v w 5.5 _ _ _ _ _ _ +._ +.,.'.6.7.8.} _ _.'.{.{._ _ _.9.@ 0.+.@ @ _ _ +._ _ _ _ '.,._ _ _ a.b.c._ _ _ d._ _ _ _ e.f.z g.  ",
"  h.I v i.j.k._ _ _ _ _ l.m.n._ (.+.o.p.q.r.d.@ '.'.s.t.u.@ @ v.@ @ w.x.@ y.+._ @ _ _ ,.,._._ z.A.p.B._ _ _ _.+.C.C.} D.E.7 F.  ",
"  h.I v J j.G._ +.+._ _.H.I.J._ ,.K.+._ _ d.@ L.@ '.M.@ @ N.O.P.Q.R.S.@ _ '.+.@ T.@ _ +._ '.,.+.+.: d._ _ _.(.{.(._ } D.E.U.4.  ",
"+ @ I v V.C G.d.,.,.W.0.X.Y.Z._ +.+.d.d.d.@ `. +@ .+@ ++@+#+$+%+&+*+=+-+@ @ @ ;+>+,+@ _ _ d.d.{.+._ _ _ _.d.d.{.'+_ _ e.E.z &.  ",
"+ h.` v V.E k._ '.)+!+~+{+_ _ _ @ d.d.d.(.@ ]+^+@ /+@ (+_+:+<+[+}+|+1+2+3+4+5+6+7+8+9+@ _ d.d.@ +._ _ _ _.0+d.{.'+_ _ e.a+U.b+  ",
"  @ ` v V.E c+_ +.,.d+e+f+_ _ @ g+@ d._.@ h+i+j+k+@ l+m+n+o+p+}+}+q+r+s+t+u+v+w+x+y+z+@ _ @ @ A+@ _ B+C+f+_._._._._ _ D.D+z H   ",
"  @ ` v J 5.k._ _ _ _ } } _ @ E+F+G+H+@ @ I+J+K+L+@ M+N+O+P+Q+p+R+S+T+U+V+W+X+Y+Z+`+ @@ @ .@+@@@#@@ $@%@&@_ _ r._ _ _ *@a+B =@-@",
"  @ I v V.E k.} _ _ _ _ _ _ @ ;@>@,@'@)@@ !@~@{@]@^@/@(@_@:@<@[@}@t+|@1@2@3@4@5@6@7@8@9@0@a@b@c@d@@ e@f@g@_ _ _ _ _ _ h@E.3.4.  ",
"@ @ i@v J C k._ _ _ _ _ _ _ _.@ j@k@l@m@n@o@p@q@r@s@t@u@v@w@x@y@z@A@B@C@D@E@F@G@H@I@J@K@L@M@k@N@@ '+_ _ _ C.O@_ _ _ _ P@f.U.Q@. ",
". @ R@S@T@U@k._ _ '._ _ _ _ V@W@X@Y@Z@`@ #.#+#@###$#%#&#*#=#-#;#>#,#'#)#!#~#{#]#^#/#(#_#:#<#[#}#@ _ _._._ _.|#1#2#(._ 3#a+U.4#  ",
"  @ i@v T@5#k.} _ _ y.C.r._ 6#7#8#9#0#a#b#c#d#e#f#g#h#i#j#k#l#m#m#n#k#o#p#q#r#s#t#u#v#w#x#y#z#A#@ _ _ d.d._ B#C#D#y.} 3#D+U.4#  ",
"  @ I v E#j.k._ _ _ C._ _ _ p.@ F#G#H#I#J#K#L#M#N#O#P#Q#R#S#T#U#V#W#S#X#Y#Z#`# $.$+$@$#$$$%$&$*$@ _ _ d.d._ =$-$;$r.O@>$E.z Z   ",
"+ @ ,$*.i.U@k._ _ (._ _ _ +.| @ '$)$!$~${$]$^$/$($_$:$<$[$}$|$1$2$3$4$5$6$7$8$9$0$a$b$c$d$e$f$g$h$@ @ _ _ _ _ : _ _ _ e.E.z H i$",
"@ @ R@j$J C k._ _ _ _ _ _ _ @ k$l$m$n$o$p$q$r$s$t$u$v$w$x$y$z$A$B$C$D$E$F$G$H$I$J$K$q$L$M$N$O$P$Q$R$@ @ @ @ ,._ +._ _ D.a+U.S$  ",
"  @ R@T$V.-.k._ _ _ Z.@ @ @ @ U$V$W$v+W$W$X$Y$Z$`$ %.%+%@%#%$%%%&%*%=%-%;%>%,%'%)%Y$r$W$V$v+v+!%~%{%]%]%]%^%@ +.+.+._ D./%U.H   ",
"  @ (%j$_%:%k._ _ _ @ @ <%[%}%!%|%1%1%2%v+3%4%5%6%7%8%9%0%a%b%c%d%e%f%g%h%i%j%k%l%m%n%o%p%q%q%|%V$r%s%t%u%v%@ _ _ _ _ e./%z &.  ",
"# @ (%*.V.w%S@_ _ '.@ x%y%z%A%B%C%D%E%F%G%H%I%J%6@K%L%M%N%O%P%Q%R%S%T%U%M%V%W%J%6@X%Y%G%Z%`% &.&+&@&#&y%$&@ '+d.d._ _ *@/%z =@i$",
"# @ ,$k.V.7 S@_ _ _ | @ %&&&*&=&-&;&>&,&'&)&!&~&{&]&^&/&(&_&:&<&[&}&|&1&~&2&]&3&k%4&5&6&7&8&9&-&0&a&b&c&@ (.d.d.d._ _ *@E.U.4.  ",
"+ @ ~ *.=.w%k._ _ _ _ _ @ d&e&f&g&h&i&j&k&l&m&n&o&p&~&~&q&r&s&t&/&u&v&q&6@~&w&o&I%x&y&z&A&B&C&D&E&F&G&@ _ C._ _ d._._ D.E.z H   ",
"  h.0 H&I&J&k._ _ _ _ _ @ K&L&M&N&O&P&Q&R&S&T&U&V&W&X&~&Y&Z&`& *.*`&+*6@~&X&@*#*$*%*&***=*-*;*>*,*'*)*@ _ _ _ !*~*{*]*^*E./*(*  ",
"  @ ~ *.=.:%k._ _ _ _ _ @ i$_*i$:*<*[*}*|*1*2*3*4*5*6*7*8*9*0*a*b*c*d*e*f*g*h*i*j*k*l*m*n*o*p*:*q*r*i$@ d._.s*_ t*u*v**@w*7 &.  ",
"  @ i@v =.5.k._ +.'+x*'+@ y*z*  A*B*C*D*E*F*G*H*I*J*K*L*M*N*O*P*Q*R*S*T*U*V*W*X*Y*G*F*E*Z*`* =.=  +=@=@ d.d._ _ #=$=%=>$w*z H   ",
"@ @ I v =.5.k._ (.(.d.@ &=*===-=;=>=q*,='=)=!=~={=]=^=/=(=_=:=<=[=}=|=1=2=3=4=5=6=7=8=9=0=  a=b=c=d=e=f=@ d.d.: g=h=i=*@a+U.H   ",
"+ @ ,$*.=.5.k._ _ d.@ j=k=l=m=n=o=p=q=_*r=s=t=u=v=w=x=y=z=A=B=C=D=E=F=G=H=I=J=K=L=M=s=N=O=P=Q=R=S=T=U=V=W=@ X=d._ _ } h@f.G H   ",
"+ @ ,$S@w -.k._ _ @ Y=Z=`= -.-+-@-#-$-%-&-*-=---;->-,-'-)-!-~-{-]-^-/-(-_-:-<-[-}-|-1-2-3-4-5-6-7-U=8-9-0-a-@ _._ _ } e./%U.=@  ",
"  @ ,$S@w -.k._ g=@ b-U=U=c-d-e-f-g-h-i-j-k-l-m-n-o-p-q-r-s-t-u-u-v-w-x-y-z-A-B-C-l-D-E-F-G-H-I-J-K-L-U=L-M-@ d._._ _ *@f.U.H   ",
"  h.,$S@V.5.k.| @ N-O-U=.-P-Q-R-S-R&T-U-V-W-X-Y-Z-`- ;.;+;@;#;$;$;%;@;~&.;&;*;=;-;;;>;,;';);!;~;e-{;];U=];^;/;@ _._ _ D./%z &.  ",
"  @ i@*.T@:%k.i=@ (;_;:;<;[;};|;=*1;2;3;4;5;6;7;8;9;0;a;b;.;c;d;d;e;f;g;h;i;j;k;l;m;n;o;3;p;q;r;s;t;u;v;w;x;y;@ d._ _ D.z;U.b+  ",
"  @ i@j$T@J&k.@ A;B;i$C;D;q*i$E;F;G;H;I;J;K;L;M;N;O;P;Q;R;S;T;U;V;W;S;X;Y;Z;`; >.>+>@>#>$>%>&>*>=>  q*D;->  ;>>>@ } } e.,>'>H   ",
"  @ ,$j$I&w%@ )>!>~>  {>]>  ^>/>(>_>:>$><>[>}>|>1>2>3>4>5>6>y-7>8>9>0>a>b>c>d>e>f>g>h>i>j>k>l>m>n>o>i$p>q>i$r>s>t>@ } >$,>z H q*",
"@ @ u>k._%w%@ v>  w>x>y>z>A>B>C>q*D>E>F>G>**H>I>J>K>L>M>N>O>P>Q>P>R>S>T>U>V>~@W>X>Y>Z>`> ,.,+,q*C>@,#,z>$,%,&,+ *,@ _ =,f.z =@i$",
"# @ ,$*.T@:%k.@ -,;,>,`=,,',),!,-@~,{,F>],^,/,(,_,5%k%:,<,[,},|,1,2,3,4,5,l%6,7,(,8,9,0,a,b,c,-@d,e,f,];g,h,i,j,@ d._ P@f.z H   ",
"  @ R@S@=.w%k.@ k,l,U=U=U=U=U=m,n,o,p,q,r,s,t,u,v,+;w,k%x,~&~&~&~&~&J%k%~&y,+;z,A,B,C,D,j>p,E,F,G,g,U=H,U=U=l,I,@ _ _ >$,>s 4#  ",
"  @ R@S@J,:%@ K,L, -9-h,U=U=`=M,N,O,P,Q,R,S,T,U,V,W,X,Y,Z,`,`, '.'+'@'`,Y,#'$'%'&'*'='-';'>','''g,U=U=U=U=U=L-)'!'@ C.~'{'z &.  ",
"# @ ,$j$T@:%@ ]'^'8-L-U=U=/'('_':'<'['}'|'1'2'3'4'%;5'6'7'6'8'9'8'8'6'9'6'0'a'b'c'd'1'e'f'g'h'i'j'k'l'U=m'U=8-n'o'@ _ >$f.p'q'q*",
"  @ i@*.i.U@@ r's'L-t'u'v'w'x'y'z'A'B'C'];D'm;E'F'G'H'y,I'+;I'J'J'K'~&t&L'M'N'O'P'Q'R'];S'T'U'V'W'X'w'g,Y'Z'L-`' )@ _ P@w*B (*  ",
"# h.,$j$T@:%@ .)+)@)#)$)%)&)*)=)-);)>)g,U=,)')))!)~){)])^)/)()_)7'()b;:)])<)[)})|)1)2)U=U=3)4)5)6)7)8)>,9)0)a)b)c)@ [ >$d)e)f)  ",
"  @ R@S@i.5.S@@ g)h)i)j)k)l)m)n)o)p)`=8-L-U=q)r)s)t)u)v)w)x)y)z)A)B)z)C)D)E)t)F)G)H)`= -U=U=I)J)K)L)M)N)O)i)P)Q)@ R)S)T)U)y t   ",
"  @ i@j$i.U@k.@ V)W)X)Y)Z)`) !.!+!@!9-Q-h,L-#!E*$!%!&!*!=!-!;!>!-!-!,!'!*!&!)!!!E*~!{!U= -]!h,^!/!(!_!:!<![!}!|!@ C#1!~'D+2!t -@",
"  @ u>G.i.U@k._.@ 3!4!5!6!7!/!8!9!{!U=L-U=U=U=e-0!a!b!c!d!e!e!f!g!h!i!j!k!O'l!m!n!{!U=U=L-L-L-o!p!q!r!s!t!u!v!@ |#w!x!y!z!A!(*i$",
"@ @ ,$S@T@5.S@d._ @ @ @ @ @ @ B!C!`=m'D!U=U=];E!F!G!H!I!J! >`;8>K!L!M!N!O!P!Q!R!S!D!m'U=U=D!m'T!U!@ @ @ @ @ @ _ _ _ _ =,U):%t   ",
"  @ ,$j$T@V!S@d.: < W!Y.X!,.@ Y!Z!`! ~.~+~@~#~$~C,%~&~*~=~-~;~>~,~'~)~!~~~&~{~]~]~#~@~+-^~f,/~(~_~@ O@d.d.0+: _ _ _ _ >$f.:~<~  ",
"  @ ,$S@=.J&k.'+(._ [~u*}~+.@ |~1~2~3~4~5~6~7~R&8~9~0~a~b~c~d~e~f~g~h~i~j~k~l~m~n~6~6~o~p~3~q~r~s~@ _ _ t~u~v~r.y.} } @.w~y H   ",
"  @ I S@=.:%G.'+(.+.x~y~z~_ @ A~B~C~D~E~7~7~7~F~G~H~I~@ @ @ @ @ @ @ @ @ @ @ J~K~F~n~7~7~E~D~L~M~@ _ _ : N~O~P~_._ _._ @.w~z Q~i$",
"  @ I S@_%w%k.+.d.d.d.: : _._.@ R~S~R!T~n~n~n~7~7~U~@ _ d.d._ d._ _ V~W~X~@ U~F!7~Y~Z~n~`~R! {.{@ d.d._ +{0.f+_.d.d._ @.w~z Q~  ",
"@ h.u>@{=.:%k._ d.d.d.d.d.(.@ #{${%{&{*{={={-{7~]~;{>{@ d.d._ d.d._ 1#,{@ '{){!{6~D~={~{-{{{]{^{@ @ d._ +.'._ O@_._ _ @.{'U.4#. ",
". @ R@S@T@J&/{_ d.d.d.(.O@@ ({_{:{<{[{Z'}{|{{!1{2{]~3{@ d.d._ _.d.d._ _ @ 4{C,5{6{M,7{}{Z'`=8{9{0{a{@ d.d.'+'+d.d._ r.~'w~U.H   ",
". @ b{@{c{:%k.} _ _._.(.@ A+d{e{f{g{h{i{j{k{h,m=l{!;m{@ d._._._ d.'+_._ @ n{Q'o{p{q{r{s{t{u{v{w{x{y{z{@ d.d._._._ _ r.@.f.A A{i$",
"  h.B{] T@A!k._ _ d.d.d.@ A+C{D{E{F{G{H{V$I{J{K{L{M{N{@ _.d.d._ : d.(._ @ O{P{Q{R{S{T{V$U{V{W{E{X{Y{z{@ d._._._ Z{`{ ]y!U)7 Q~i$",
"  @ B{.]T@A!c+_ _ _.d.d.d.@ z{+]@]#]$]%]&]*]=]-]]%]%@ d.d.d.d.d.d.d.d._ ;]@ ]%]%>],]'])]!]~]{]@]>>]]@ _ _ d.: _ ^]/](]_]:]w%&.  ",
"+ @ b{] <][]}]|][ _ _ d.d.0+@ @ @ @ @ @ @ @ @ @ @ @ d.0+d.d.d.d.d.d._._ 1] ]@ @ @ @ @ @ @ @ @ @ @ @ _._ _ d.d._.2]3]4]>$w*D Q~  ",
"  @ 5].]<]C 6]#._.r.y._ _._.d.d._ d.d._ _._._._.d.d.0+7]_._.(._.d.d._ _ _ } r.C.(._ _ _ _ _ _ +.(.(._._ _ _ d._ _ _ _ @.8]U.H   ",
"  h.9]0]7 D a]W b]c]c]d]d]e]r r f]g]g]f]d]d]d]d]d]r r r h]r d]d]d]r d]f]d]f]b]d]d]d]d]d]f]f]f]f]h]d]d]i]j]d]d]f]f]d]d]k]l]U.Z i$",
"  m]n]U.U.7 7 w%w%w%U.w%w%w%w%w%w%w%w%w%w%w%w%w%w%w%w%w%w%w%w%w%w%w%w%w%w%w%w%w%w%w%w%w%w%w%w%w%w%w%-.w%w%w%w%w%w%7 7 7 7 z Z i$",
"    o]p]p]q]q]p]p]p]p]q]q]p]r]p]r]p]p]s]s]p]s]p]q]q]p]p]p]q]p]p]p]s]s]p]s]s]t]u]p]p]p]q]q]p]p]p]p]s]q]q]p]p]p]p]p]p]p]q]v]p]w]  ",
"                                    i$i$      i$i$        i$    i$i$i$    i$    i$i$  i$i$i$i$    i$i$    i$        i$          "};
