/* XPM */
static char * collectible_right_64_xpm[] = {
"64 64 1067 2",
"  	c #010101",
". 	c #000101",
"+ 	c #010100",
"@ 	c #000000",
"# 	c #000100",
"$ 	c #583A24",
"% 	c #5A3A23",
"& 	c #5A3923",
"* 	c #5B3923",
"= 	c #5B3A23",
"- 	c #5B3A22",
"; 	c #5B3922",
"> 	c #5C3A23",
", 	c #5A3922",
"' 	c #462B19",
") 	c #2B190E",
"! 	c #1B1008",
"~ 	c #9C5F34",
"{ 	c #A15F31",
"] 	c #A16032",
"^ 	c #A06031",
"/ 	c #A16031",
"( 	c #A26130",
"_ 	c #A36131",
": 	c #A36031",
"< 	c #A26030",
"[ 	c #A26031",
"} 	c #A26131",
"| 	c #A36130",
"1 	c #A16030",
"2 	c #A25F31",
"3 	c #A15F30",
"4 	c #A15E31",
"5 	c #A05E32",
"6 	c #7B4825",
"7 	c #532F18",
"8 	c #382111",
"9 	c #000001",
"0 	c #9C5F35",
"a 	c #A15E32",
"b 	c #8D532C",
"c 	c #8C532C",
"d 	c #8C532B",
"e 	c #8D522B",
"f 	c #8D542B",
"g 	c #8D542C",
"h 	c #8C542B",
"i 	c #8D532B",
"j 	c #8B542B",
"k 	c #8B542C",
"l 	c #8D532A",
"m 	c #8C542A",
"n 	c #8C532A",
"o 	c #8B532B",
"p 	c #8C542C",
"q 	c #8C522B",
"r 	c #734323",
"s 	c #533019",
"t 	c #371F10",
"u 	c #9D5F35",
"v 	c #A05F31",
"w 	c #573018",
"x 	c #532E18",
"y 	c #522E18",
"z 	c #522F19",
"A 	c #522E19",
"B 	c #522F18",
"C 	c #522E16",
"D 	c #522F17",
"E 	c #522E17",
"F 	c #512E16",
"G 	c #532F1A",
"H 	c #371F11",
"I 	c #9D6034",
"J 	c #563017",
"K 	c #63341B",
"L 	c #65351B",
"M 	c #6F4123",
"N 	c #704224",
"O 	c #704223",
"P 	c #6F4223",
"Q 	c #6F4222",
"R 	c #704222",
"S 	c #704122",
"T 	c #6F4224",
"U 	c #6A3B1E",
"V 	c #66351B",
"W 	c #67351A",
"X 	c #5C311A",
"Y 	c #512F19",
"Z 	c #351F11",
"` 	c #9D5F34",
" .	c #803D1F",
"..	c #853E1E",
"+.	c #A36132",
"@.	c #010201",
"#.	c #010202",
"$.	c #020203",
"%.	c #020301",
"&.	c #020403",
"*.	c #030506",
"=.	c #030602",
"-.	c #955028",
";.	c #883E1E",
">.	c #853D1E",
",.	c #6D361B",
"'.	c #361F11",
").	c #9F5F31",
"!.	c #573118",
"~.	c #532E17",
"{.	c #8A4825",
"].	c #8E4825",
"^.	c #A36033",
"/.	c #A36032",
"(.	c #B66F3B",
"_.	c #BA723C",
":.	c #A76433",
"<.	c #030505",
"[.	c #9F8B2F",
"}.	c #766927",
"|.	c #A46132",
"1.	c #A46131",
"2.	c #B16B38",
"3.	c #B9713B",
"4.	c #AB6735",
"5.	c #98542B",
"6.	c #8E4724",
"7.	c #874221",
"8.	c #6B361B",
"9.	c #543019",
"0.	c #382011",
"a.	c #532E16",
"b.	c #E6914D",
"c.	c #F09851",
"d.	c #B36C39",
"e.	c #66571C",
"f.	c #020405",
"g.	c #C5A920",
"h.	c #927F1E",
"i.	c #020406",
"j.	c #D68647",
"k.	c #EF9951",
"l.	c #C47A40",
"m.	c #A46031",
"n.	c #935028",
"o.	c #6E371C",
"p.	c #361E11",
"q.	c #010000",
"r.	c #573017",
"s.	c #522E15",
"t.	c #9F5F32",
"u.	c #B56F39",
"v.	c #B76F3A",
"w.	c #A56333",
"x.	c #D78848",
"y.	c #E08E4B",
"z.	c #AF6B37",
"A.	c #A36231",
"B.	c #89732B",
"C.	c #9C7E1A",
"D.	c #DFC017",
"E.	c #C1A419",
"F.	c #9A7E19",
"G.	c #A26132",
"H.	c #CA7F43",
"I.	c #BD743D",
"J.	c #A36232",
"K.	c #935027",
"L.	c #6D371B",
"M.	c #381F10",
"N.	c #A05F32",
"O.	c #EB9751",
"P.	c #F09951",
"Q.	c #AE6936",
"R.	c #A36133",
"S.	c #A5861C",
"T.	c #CEA602",
"U.	c #EDCB04",
"V.	c #EAC603",
"W.	c #D8B102",
"X.	c #856C19",
"Y.	c #020502",
"Z.	c #A46033",
"`.	c #532F19",
" +	c #563018",
".+	c #AF6534",
"++	c #B06633",
"@+	c #E08E4D",
"#+	c #E4904D",
"$+	c #AC6735",
"%+	c #020402",
"&+	c #020304",
"*+	c #BEA226",
"=+	c #E0BD04",
"-+	c #EAC803",
";+	c #E8C605",
">+	c #998526",
",+	c #020302",
"'+	c #B46B37",
")+	c #B66E39",
"!+	c #A96634",
"~+	c #A46032",
"{+	c #A45F33",
"]+	c #D5783B",
"^+	c #D87A3A",
"/+	c #A96332",
"(+	c #010402",
"_+	c #D0B728",
":+	c #F2D401",
"<+	c #F2D301",
"[+	c #F2D504",
"}+	c #A08F2B",
"|+	c #EA924C",
"1+	c #F09850",
"2+	c #C0773E",
"3+	c #A46030",
"4+	c #6C371B",
"5+	c #371F12",
"6+	c #9F5F33",
"7+	c #CB743A",
"8+	c #CE7539",
"9+	c #A86332",
"0+	c #010403",
"a+	c #CEB628",
"b+	c #F1D401",
"c+	c #F3D601",
"d+	c #F1D603",
"e+	c #A09027",
"f+	c #E28E4B",
"g+	c #E4924E",
"h+	c #BB733D",
"i+	c #A26231",
"j+	c #AA6432",
"k+	c #AE6633",
"l+	c #6C361B",
"m+	c #352F13",
"n+	c #010506",
"o+	c #CFB628",
"p+	c #F2D400",
"q+	c #F2D500",
"r+	c #F0D601",
"s+	c #F2D702",
"t+	c #A19127",
"u+	c #030605",
"v+	c #C57036",
"w+	c #D8793A",
"x+	c #BB6C35",
"y+	c #934F27",
"z+	c #372011",
"A+	c #020201",
"B+	c #AC6533",
"C+	c #A46232",
"D+	c #100C03",
"E+	c #030303",
"F+	c #7A6725",
"G+	c #86701C",
"H+	c #DABE1E",
"I+	c #F1D500",
"J+	c #B9A323",
"K+	c #7B681B",
"L+	c #5D501F",
"M+	c #050704",
"N+	c #C06E36",
"O+	c #D07639",
"P+	c #B66A34",
"Q+	c #934F28",
"R+	c #9C6034",
"S+	c #D17639",
"T+	c #D77A3A",
"U+	c #020303",
"V+	c #040302",
"W+	c #C29E1E",
"X+	c #DAB002",
"Y+	c #ECCB03",
"Z+	c #F2D501",
"`+	c #E2C006",
" @	c #D6AE04",
".@	c #997F1E",
"+@	c #020202",
"@@	c #945027",
"#@	c #362010",
"$@	c #9C6135",
"%@	c #9F6032",
"&@	c #573117",
"*@	c #532E15",
"=@	c #B06B37",
"-@	c #B26B38",
";@	c #D27639",
">@	c #D77939",
",@	c #AB6432",
"'@	c #010302",
")@	c #110D03",
"!@	c #030403",
"~@	c #CCAC22",
"{@	c #E1BC03",
"]@	c #EECF03",
"^@	c #F1D400",
"/@	c #E7C804",
"(@	c #DFBC03",
"_@	c #A08A21",
":@	c #040604",
"<@	c #AC6836",
"[@	c #B26C38",
"}@	c #AA6635",
"|@	c #925027",
"1@	c #381F11",
"2@	c #532F15",
"3@	c #E8944F",
"4@	c #F19951",
"5@	c #D57A3B",
"6@	c #D17638",
"7@	c #B36834",
"8@	c #AC6633",
"9@	c #A46231",
"0@	c #100E06",
"a@	c #040606",
"b@	c #E0C428",
"c@	c #F3D400",
"d@	c #F3D500",
"e@	c #F3D501",
"f@	c #F4D601",
"g@	c #F0D401",
"h@	c #B7A227",
"i@	c #040603",
"j@	c #D58547",
"k@	c #F29C52",
"l@	c #CB8043",
"m@	c #563016",
"n@	c #E8934E",
"o@	c #AF6A37",
"p@	c #A66330",
"q@	c #D27839",
"r@	c #AD6533",
"s@	c #675923",
"t@	c #6C5C1D",
"u@	c #E4C722",
"v@	c #F4D501",
"w@	c #F3D600",
"x@	c #C0A822",
"y@	c #695B1F",
"z@	c #51481E",
"A@	c #040805",
"B@	c #A36030",
"C@	c #CE8144",
"D@	c #E7934E",
"E@	c #C37A40",
"F@	c #945028",
"G@	c #9C6035",
"H@	c #CB7337",
"I@	c #AB6533",
"J@	c #030202",
"K@	c #29230F",
"L@	c #D2B01D",
"M@	c #D8B103",
"N@	c #EFCF04",
"O@	c #F3D401",
"P@	c #E6C507",
"Q@	c #D6B004",
"R@	c #A58C1F",
"S@	c #030402",
"T@	c #A15E30",
"U@	c #A05D2F",
"V@	c #A25F30",
"W@	c #9F6031",
"X@	c #675718",
"Y@	c #76641B",
"Z@	c #DAB918",
"`@	c #DDBB04",
" #	c #F0D002",
".#	c #EAC903",
"+#	c #E0BA03",
"@#	c #BA9E1D",
"##	c #6D5D1B",
"$#	c #392012",
"%#	c #9E6031",
"&#	c #010303",
"*#	c #010204",
"=#	c #51461D",
"-#	c #D1AC0B",
";#	c #DAB603",
">#	c #F2D403",
",#	c #E8C904",
"'#	c #D4B002",
")#	c #B1941C",
"!#	c #030302",
"~#	c #6D371C",
"{#	c #9B6035",
"]#	c #573119",
"^#	c #532F16",
"/#	c #020503",
"(#	c #473E1F",
"_#	c #55481D",
":#	c #54471C",
"<#	c #55471C",
"[#	c #56481E",
"}#	c #56481D",
"|#	c #55481C",
"1#	c #55481B",
"2#	c #5C4F1F",
"3#	c #6A5E2A",
"4#	c #80702B",
"5#	c #D3B109",
"6#	c #DCBC03",
"7#	c #F4D803",
"8#	c #F2D600",
"9#	c #EBCD04",
"0#	c #DBB803",
"a#	c #BDA11C",
"b#	c #665B25",
"c#	c #615622",
"d#	c #574A19",
"e#	c #584A1D",
"f#	c #574A1D",
"g#	c #574A1C",
"h#	c #56491C",
"i#	c #55481A",
"j#	c #57491D",
"k#	c #5B4E20",
"l#	c #594E21",
"m#	c #020300",
"n#	c #532F17",
"o#	c #020504",
"p#	c #AC902B",
"q#	c #CDA80C",
"r#	c #CCA80A",
"s#	c #CDA80A",
"t#	c #CDA90A",
"u#	c #CFAA0B",
"v#	c #D0AA0C",
"w#	c #D2AB0B",
"x#	c #D3AC09",
"y#	c #D1AA09",
"z#	c #D4AF0D",
"A#	c #F0D110",
"B#	c #F5D60B",
"C#	c #F3D502",
"D#	c #F0D500",
"E#	c #F1D501",
"F#	c #F2D601",
"G#	c #F2D304",
"H#	c #F1D409",
"I#	c #EACA0E",
"J#	c #D7AF07",
"K#	c #D6AE0B",
"L#	c #D3AC0B",
"M#	c #CEAA09",
"N#	c #CDA909",
"O#	c #CFAA09",
"P#	c #D3AE0A",
"Q#	c #D6B20A",
"R#	c #D4B325",
"S#	c #0D0602",
"T#	c #010304",
"U#	c #020404",
"V#	c #A58924",
"W#	c #CCA603",
"X#	c #D2AD04",
"Y#	c #D6B106",
"Z#	c #D5B005",
"`#	c #D6B005",
" $	c #D5AF04",
".$	c #D4B004",
"+$	c #D8B203",
"@$	c #DEB804",
"#$	c #E3BD05",
"$$	c #EED101",
"%$	c #EED201",
"&$	c #F2D302",
"*$	c #E1C822",
"=$	c #E0C728",
"-$	c #EED214",
";$	c #E8CD1D",
">$	c #E1C928",
",$	c #E9CE1D",
"'$	c #F4D701",
")$	c #EECE03",
"!$	c #DAB403",
"~$	c #D8B204",
"{$	c #D6B103",
"]$	c #D7B303",
"^$	c #DAB604",
"/$	c #DCB704",
"($	c #D7B304",
"_$	c #D1AD02",
":$	c #CBA820",
"<$	c #0B0301",
"[$	c #A98C24",
"}$	c #D3AC03",
"|$	c #ECCA06",
"1$	c #F3D303",
"2$	c #F3D202",
"3$	c #F2D201",
"4$	c #F2D202",
"5$	c #F2D40E",
"6$	c #60551A",
"7$	c #CFB729",
"8$	c #F2D502",
"9$	c #A28F21",
"0$	c #A79526",
"a$	c #F4D502",
"b$	c #F6D602",
"c$	c #F5D402",
"d$	c #F0D105",
"e$	c #CFAC21",
"f$	c #100701",
"g$	c #000102",
"h$	c #9E5F32",
"i$	c #563118",
"j$	c #533016",
"k$	c #A0872D",
"l$	c #C3A122",
"m$	c #E1C119",
"n$	c #EDCD04",
"o$	c #EFD002",
"p$	c #F0D30A",
"q$	c #6E6535",
"r$	c #D4BC2C",
"s$	c #A89830",
"t$	c #AD9D31",
"u$	c #F2D204",
"v$	c #E9CA0D",
"w$	c #C2A119",
"x$	c #C7A62F",
"y$	c #A56331",
"z$	c #924F27",
"A$	c #542F18",
"B$	c #382010",
"C$	c #6C5D21",
"D$	c #000105",
"E$	c #A28B23",
"F$	c #D0AE03",
"G$	c #E6C504",
"H$	c #F2D701",
"I$	c #F1D506",
"J$	c #F9F5D3",
"K$	c #FFFFFF",
"L$	c #F1DF59",
"M$	c #F6EDA8",
"N$	c #F6EB9B",
"O$	c #F3D701",
"P$	c #EFD103",
"Q$	c #D4B201",
"R$	c #D7B71F",
"S$	c #0C0A03",
"T$	c #050706",
"U$	c #D38446",
"V$	c #F09A51",
"W$	c #C97D41",
"X$	c #6E371B",
"Y$	c #1D1709",
"Z$	c #9B8527",
"`$	c #CBAA22",
" %	c #E4C419",
".%	c #F4D404",
"+%	c #F3D403",
"@%	c #F4D400",
"#%	c #F2D50A",
"$%	c #F2EECC",
"%%	c #F1DE5A",
"&%	c #F2E8A5",
"*%	c #F3D205",
"=%	c #E9CA0A",
"-%	c #CFB11F",
";%	c #CFB236",
">%	c #D28346",
",%	c #F09852",
"'%	c #C97C41",
")%	c #88742A",
"!%	c #000003",
"~%	c #A0871E",
"{%	c #D8B202",
"]%	c #E3C004",
"^%	c #F2D411",
"/%	c #CFB828",
"(%	c #F2D602",
"_%	c #A29123",
":%	c #AA992A",
"<%	c #EDCE04",
"[%	c #D3AD01",
"}%	c #CCA919",
"|%	c #030201",
"1%	c #A46130",
"2%	c #A56130",
"3%	c #000004",
"4%	c #998326",
"5%	c #CCAC21",
"6%	c #D9BA18",
"7%	c #F0D205",
"8%	c #F3D503",
"9%	c #F0D40D",
"0%	c #5C5317",
"a%	c #CEB72C",
"b%	c #A29225",
"c%	c #A8982A",
"d%	c #F4D500",
"e%	c #EACD0A",
"f%	c #D0B11D",
"g%	c #C0A32D",
"h%	c #A56031",
"i%	c #000104",
"j%	c #86741B",
"k%	c #CCAD02",
"l%	c #DCBD05",
"m%	c #F1D50C",
"n%	c #5E5518",
"o%	c #CFB82E",
"p%	c #A29227",
"q%	c #A9982A",
"r%	c #EBCE05",
"s%	c #D2B102",
"t%	c #C6A81B",
"u%	c #C37036",
"v%	c #A56131",
"w%	c #857323",
"x%	c #D3B11C",
"y%	c #E1C216",
"z%	c #F2D40C",
"A%	c #CFB72D",
"B%	c #F3D702",
"C%	c #A89729",
"D%	c #F0D302",
"E%	c #EFD205",
"F%	c #E9CC0F",
"G%	c #D0B21C",
"H%	c #B89E29",
"I%	c #D67839",
"J%	c #BA6B35",
"K%	c #EB9652",
"L%	c #EF9952",
"M%	c #F09953",
"N%	c #EF9853",
"O%	c #2B240C",
"P%	c #8E7C20",
"Q%	c #DBBC02",
"R%	c #DFC302",
"S%	c #F4D600",
"T%	c #F2D40D",
"U%	c #5E5418",
"V%	c #F3D602",
"W%	c #A39126",
"X%	c #A89628",
"Y%	c #EACD03",
"Z%	c #D3B303",
"`%	c #C0A11B",
" &	c #29210A",
".&	c #ED9651",
"+&	c #F29B53",
"@&	c #AB6734",
"#&	c #83731F",
"$&	c #D6B604",
"%&	c #DBBE04",
"&&	c #F4D602",
"*&	c #F1D40E",
"=&	c #5E5419",
"-&	c #D1B82C",
";&	c #A29124",
">&	c #A99729",
",&	c #F0D301",
"'&	c #EFD203",
")&	c #EBCE0B",
"!&	c #D7B513",
"~&	c #B59721",
"{&	c #6D381C",
"]&	c #A76332",
"^&	c #EB9650",
"/&	c #F09A52",
"(&	c #AD6835",
"_&	c #010401",
":&	c #7B6B1B",
"<&	c #CCAA03",
"[&	c #D3B203",
"}&	c #E4BD03",
"|&	c #E0BE04",
"1&	c #F1D301",
"2&	c #F1D70E",
"3&	c #5F561A",
"4&	c #D0B92A",
"5&	c #A39223",
"6&	c #A79728",
"7&	c #E7CB05",
"8&	c #CCB103",
"9&	c #B59E1B",
"0&	c #443914",
"a&	c #6E381C",
"b&	c #542F19",
"c&	c #9F6033",
"d&	c #A26032",
"e&	c #EA9650",
"f&	c #7E6C1E",
"g&	c #D1AE0B",
"h&	c #D2B107",
"i&	c #D4B102",
"j&	c #D5B403",
"k&	c #F1D502",
"l&	c #E1C825",
"m&	c #DFC62D",
"n&	c #EED114",
"o&	c #E6CC1F",
"p&	c #DDC52E",
"q&	c #E7CB1F",
"r&	c #E9CA04",
"s&	c #B79B1C",
"t&	c #9D6035",
"u&	c #A86433",
"v&	c #A96433",
"w&	c #020603",
"x&	c #322B14",
"y&	c #54471A",
"z&	c #877522",
"A&	c #DDBA03",
"B&	c #E7C904",
"C&	c #D5AF01",
"D&	c #BA9D1B",
"E&	c #C37840",
"F&	c #944F27",
"G&	c #6E601F",
"H&	c #D2AE04",
"I&	c #E9C904",
"J&	c #D2AE01",
"K&	c #B4981B",
"L&	c #C57A41",
"M&	c #010707",
"N&	c #6B5E1F",
"O&	c #CFAE03",
"P&	c #D7B803",
"Q&	c #F1D302",
"R&	c #E9C804",
"S&	c #B5981C",
"T&	c #A66332",
"U&	c #573218",
"V&	c #6C5F1D",
"W&	c #DCBE03",
"X&	c #EAC904",
"Y&	c #D5B001",
"Z&	c #BA9D1C",
"`&	c #050502",
" *	c #955128",
".*	c #6F381C",
"+*	c #83712C",
"@*	c #B4951D",
"#*	c #C5A619",
"$*	c #E3C604",
"%*	c #EACC04",
"&*	c #EFD202",
"**	c #E7CA03",
"=*	c #DEC114",
"-*	c #BA9E21",
";*	c #A48F3F",
">*	c #502F18",
",*	c #351F10",
"'*	c #806C1C",
")*	c #D8AC03",
"!*	c #DFB903",
"~*	c #EBCE04",
"{*	c #D6B201",
"]*	c #B79A1B",
"^*	c #D28245",
"/*	c #EA924E",
"(*	c #C3773E",
"_*	c #7E6B1B",
":*	c #D3AA03",
"<*	c #DCB703",
"[*	c #E7CB04",
"}*	c #D0AF01",
"|*	c #BC9F1C",
"1*	c #040504",
"2*	c #D88647",
"3*	c #F29850",
"4*	c #C87A40",
"5*	c #72381C",
"6*	c #562F18",
"7*	c #3A2111",
"8*	c #904925",
"9*	c #8F4624",
"0*	c #82701A",
"a*	c #DFBA03",
"b*	c #EFD400",
"c*	c #E8CC03",
"d*	c #D6B601",
"e*	c #B89E1E",
"f*	c #030306",
"g*	c #CD8043",
"h*	c #E6914B",
"i*	c #C4793F",
"j*	c #965128",
"k*	c #6F371B",
"l*	c #8C4322",
"m*	c #8B3F1F",
"n*	c #8C7C21",
"o*	c #E5C507",
"p*	c #EBCA04",
"q*	c #E0C105",
"r*	c #DABB04",
"s*	c #DBBD05",
"t*	c #DCBE04",
"u*	c #DBBF03",
"v*	c #E7CB03",
"w*	c #ECD102",
"x*	c #E5C804",
"y*	c #D8BC16",
"z*	c #AA8E1C",
"A*	c #D48546",
"B*	c #512D18",
"C*	c #9F5B30",
"D*	c #918121",
"E*	c #F2D402",
"F*	c #DBB905",
"G*	c #CEAD02",
"H*	c #CBAA02",
"I*	c #CDAD03",
"J*	c #D0B003",
"K*	c #E4C506",
"L*	c #F1D201",
"M*	c #F2D300",
"N*	c #F0D400",
"O*	c #ECCD04",
"P*	c #BB9D1A",
"Q*	c #B26B37",
"R*	c #A96533",
"S*	c #954F28",
"T*	c #72381B",
"U*	c #542F16",
"V*	c #928322",
"W*	c #F3D402",
"X*	c #E3C505",
"Y*	c #D8BB05",
"Z*	c #A58D21",
"`*	c #947F20",
" =	c #89751C",
".=	c #806D1B",
"+=	c #7D6A1A",
"@=	c #C0A31E",
"#=	c #E5C203",
"$=	c #EBCB03",
"%=	c #F3D300",
"&=	c #F1D300",
"*=	c #E9C903",
"==	c #D0AA02",
"-=	c #C1A01D",
";=	c #050403",
">=	c #522F16",
",=	c #E08E4C",
"'=	c #AA6636",
")=	c #020305",
"!=	c #938423",
"~=	c #EFD301",
"{=	c #EED301",
"]=	c #EFD201",
"^=	c #F1D404",
"/=	c #DBBD06",
"(=	c #D4B507",
"_=	c #61541B",
":=	c #020204",
"<=	c #020306",
"[=	c #020407",
"}=	c #A98B20",
"|=	c #D9B203",
"1=	c #E4C303",
"2=	c #ECCC03",
"3=	c #DBB402",
"4=	c #C4A41F",
"5=	c #040303",
"6=	c #512E17",
"7=	c #351E10",
"8=	c #8D782B",
"9=	c #927818",
"0=	c #BBA31F",
"a=	c #F1D402",
"b=	c #F0D203",
"c=	c #E2C503",
"d=	c #DEC303",
"e=	c #DEC20C",
"f=	c #9A8520",
"g=	c #887720",
"h=	c #3C3517",
"i=	c #746320",
"j=	c #8D7819",
"k=	c #8E7918",
"l=	c #917D2E",
"m=	c #9B8321",
"n=	c #BDA21B",
"o=	c #DFC103",
"p=	c #DEC004",
"q=	c #DFC004",
"r=	c #E4C703",
"s=	c #EFD401",
"t=	c #ECD002",
"u=	c #E0BF05",
"v=	c #D4B418",
"w=	c #9E821C",
"x=	c #8F7A39",
"y=	c #B66933",
"z=	c #6F371C",
"A=	c #B46E39",
"B=	c #020307",
"C=	c #8A761F",
"D=	c #D9B302",
"E=	c #E2C206",
"F=	c #ECCE06",
"G=	c #D6B303",
"H=	c #D0AE0E",
"I=	c #4A4016",
"J=	c #010203",
"K=	c #A78E1A",
"L=	c #CDAE02",
"M=	c #CBAD02",
"N=	c #827018",
"O=	c #907A1B",
"P=	c #CEAE03",
"Q=	c #CEAC04",
"R=	c #D3AE04",
"S=	c #DEBA04",
"T=	c #EDD301",
"U=	c #ECD101",
"V=	c #F1D403",
"W=	c #F2D206",
"X=	c #D9B002",
"Y=	c #C39F1D",
"Z=	c #BB6B34",
"`=	c #372010",
" -	c #010205",
".-	c #89741E",
"+-	c #D8B002",
"@-	c #E3C005",
"#-	c #ECD004",
"$-	c #E4C604",
"%-	c #D9BC1C",
"&-	c #927C20",
"*-	c #927B20",
"=-	c #937B1E",
"--	c #937D26",
";-	c #8F7B1E",
">-	c #927E20",
",-	c #5D5120",
"'-	c #978029",
")-	c #957E25",
"!-	c #917A20",
"~-	c #AE9423",
"{-	c #E0BF06",
"]-	c #E5C603",
"^-	c #ECCC05",
"/-	c #F6D903",
"(-	c #EBCC05",
"_-	c #D2A701",
":-	c #C5A01B",
"<-	c #040403",
"[-	c #A06032",
"}-	c #8B751F",
"|-	c #D8AE01",
"1-	c #E0BC04",
"2-	c #E8CC06",
"3-	c #D9B403",
"4-	c #C3A320",
"5-	c #020205",
"6-	c #060604",
"7-	c #6A5920",
"8-	c #CFAB05",
"9-	c #D9B404",
"0-	c #DBB606",
"a-	c #E8CA05",
"b-	c #D9B001",
"c-	c #C9A51B",
"d-	c #050603",
"e-	c #D9B202",
"f-	c #DAB804",
"g-	c #E1C304",
"h-	c #D2B517",
"i-	c #9F861A",
"j-	c #5A4E1F",
"k-	c #87721E",
"l-	c #86711C",
"m-	c #86721C",
"n-	c #8A742C",
"o-	c #A68B21",
"p-	c #9D841A",
"q-	c #988018",
"r-	c #A88D1F",
"s-	c #EBC709",
"t-	c #E6C205",
"u-	c #D8AF01",
"v-	c #C8A31B",
"w-	c #040503",
"x-	c #9E6135",
"y-	c #573217",
"z-	c #88731F",
"A-	c #DBB702",
"B-	c #D4B203",
"C-	c #B1941E",
"D-	c #8D771D",
"E-	c #D6B002",
"F-	c #D6B302",
"G-	c #D5B302",
"H-	c #AC9117",
"I-	c #57491C",
"J-	c #D4AD08",
"K-	c #D5AE01",
"L-	c #C5A21F",
"M-	c #030404",
"N-	c #362011",
"O-	c #9F6136",
"P-	c #030405",
"Q-	c #030509",
"R-	c #6A5D25",
"S-	c #A1891E",
"T-	c #A48B1D",
"U-	c #A78E1F",
"V-	c #96512A",
"W-	c #914926",
"X-	c #A88E1E",
"Y-	c #A48B1E",
"Z-	c #A58D1D",
"`-	c #867422",
" ;	c #3E3519",
".;	c #A08623",
"+;	c #A2891E",
"@;	c #A3891F",
"#;	c #977F2A",
"$;	c #99542B",
"%;	c #934A26",
"&;	c #9C582D",
"*;	c #A16132",
"=;	c #030503",
"-;	c #914A26",
";;	c #8B3F20",
">;	c #9D582D",
",;	c #954E28",
"';	c #8A3E20",
");	c #99532B",
"!;	c #965028",
"~;	c #71381C",
"{;	c #583117",
"];	c #552F16",
"^;	c #8D4926",
"/;	c #904A25",
"(;	c #9E5B2E",
"_;	c #9F5C2F",
":;	c #9D592E",
"<;	c #A05E2F",
"[;	c #9E6136",
"};	c #833D20",
"|;	c #A4602F",
"1;	c #70371C",
"2;	c #6E4326",
"3;	c #704324",
"4;	c #65351C",
"5;	c #724324",
"6;	c #724424",
"7;	c #724323",
"8;	c #734324",
"9;	c #724423",
"0;	c #734424",
"a;	c #734423",
"b;	c #724223",
"c;	c #724322",
"d;	c #6C3C1E",
"e;	c #5D3219",
"f;	c #010001",
"g;	c #502F1A",
"h;	c #2C1B11",
"i;	c #2D1A0E",
"j;	c #2D1A0F",
"k;	c #2C1A0E",
"l;	c #2E1A0E",
"m;	c #2E1A0F",
"n;	c #2E190E",
"o;	c #2D190E",
"p;	c #1D1009",
"        .                                                         +           . .                   @ @ .     @ @ @     @ @ @   ",
"# @ $ % & * * = - = = = = = * ; - = ; & ; = - = - - > - ; , * ; , ; , , ; * , & * , , - = & , = ; , ; , - - ; , * & , ; ' ) !   ",
"# @ ~ { { ] ^ / ( _ : _ _ _ < < < < [ / / } | ( } _ _ } [ < 1 1 1 1 1 ^ 1 ^ / / 1 ^ 1 1 ( / [ ( < 1 < 1 < < < 2 3 4 4 5 6 7 8   ",
"9 @ 0 a b c d e b f f g f f h d i i j k d f f d d l f i d d h d m j n o d c n h p o n d d c c f n d d h d n n n q q e c r s t   ",
"  @ u v w x y y y z z z z y y A y y y y B B y C C C y y y D y E E E y y y E B B E C C C E y B z y B y C E y y E D y F E B G H   ",
"  @ I v J E K L M M N O O O P P P O O O O O P Q R R @ @ @ @ @ @ @ @ @ @ O O O O Q S R O O O P T O P O O S O O O O U V W X Y Z   ",
"  @ ` v w E  ...[ _ _ _ _ < } } +._ _ _ _ _ _ _ _ @ @.#.#.$.@ @ %.&.*.=.@ _ _ _ _ _ _ _ _ _ _ +._ _ _ _ _ +._ _ _ -.;.>.,.s '.  ",
"  @ I ).!.~.{.].[ _ +._ _ _ _ +.^./.(._.:._ _ +._ @ @.@ @ @ @ @ @ <.[.}.@ |.1._ _ _ _ _ +._ |.1.2.3.4._ _ _ _ _ _ 5.6.7.8.9.0.  ",
"@ @ I v w a.5 _ _ _ _ _ _ +._ +.^./.b.c.d.} _ 1./.@ @ @ @ @ @ @ e.f.g.h.i.@ +._ _ _ _ /.^._ _ _ j.k.l._ _ _ m._ _ _ _ n.o.z p.  ",
"  q.I v r.s.t._ _ _ _ _ u.v.w._ |.+.x.y.z.A.m.1.@ @ @ @ @ @ @ @ B.C.D.E.F.@ @ _ _ _ _ ^.^.1._ G.H.y.I._ _ _ 1.+.J.J.} K.L.7 M.  ",
"  q.I v J s.N._ +.+._ 1.O.P.Q._ ^.R.+._ _ m.m.|.#.@ @ @ @ @ @ #.S.T.U.V.W.X.Y.@ _ _ _ +._ /.^.+.+.: m._ _ 1.|.Z.|._ } K.L.`.0.  ",
"+ @ I v  +C N.m.^.^..+++@+#+$+_ +.+.m.m.m.|.|.@ %+@ @ @ @ @ @ &+*+=+-+;+;+>+,+@ '+)+!+_ _ m.m.Z.+._ _ _ 1.m.m.Z.~+_ _ n.L.z '.  ",
"+ q.` v  +E t._ /.{+]+^+/+_ _ _ _ m.m.m.|.|.|.@ (+@ @ @ @ @ @ f._+:+<+:+[+}+,+@ |+1+2+_ _ m.m.~++._ _ _ 1.3+m.Z.~+_ _ n.4+`.5+  ",
"  @ ` v  +E 6+_ +.^.7+8+9+_ _ _ m.m.m.1.1.1.1.@ #.@ @ @ @ @ @ 0+a+b+:+c+d+e+%+@ f+g+h+} _ _ _ _ i+_ j+k+9+1.1.1.1._ _ K.l+z H   ",
"  @ ` v J a.t._ _ _ _ } } _ _ _ _ _ _ _ _ |.|.@ @ @ @ @ @ @ m+n+o+p+q+r+s+t+u+@ @ _ _ _ _ _ _ _ _ 1.v+w+x+_ _ A._ _ _ y+4+B z+A+",
"  @ I v  +E t.} _ _ _ _ _ _ _ m.B+k+C+_ +.|.@ @ @ @ @ @ D+E+F+G+H+:+q+I+s+J+K+L+M+@ _ 1._ _ 1._ m.~+N+O+P+_ _ _ _ _ _ Q+L.9.0.  ",
"@ @ R+v J C t._ _ _ _ _ _ _ 1.m.S+T+B+_ _ @ U+@ @ @ @ @ D+V+W+X+Y+b+q+p+Z+`+ @.@+@@ m.m.1.m.m.m.m.~+_ _ _ J.C+_ _ _ _ @@o.`.#@. ",
". @ $@%@&@*@t._ _ /._ _ _ _ =@-@;@>@,@_ _ @ '@@ @ @ @ @ )@!@~@{@]@q+p+p+^@/@(@_@:@@ @ m.m._ _ _ 1._ 1.1._ 1.<@[@}@|._ |@4+`.1@  ",
"  @ R+v &@2@t.} _ _ i+J.A._ 3@4@5@6@7@8@9@@ ,+@ @ @ @ @ 0@a@b@c@q+d@e@f@Z+g@Z+h@i@%.@ @ 1._ _ } _ _ _ m.m._ j@k@l@i+} |@l+`.1@  ",
"  @ I v m@s.t._ _ _ J._ _ _ y.n@o@p@q@>@r@@ ,+@ @ @ @ @ s@t@u@v@d@w@e@c+c+e@c@x@y@z@A@@ _ } _ B@1._ _ m.m._ C@D@E@A.C+F@L.z Z   ",
"+ @ G@).r.*@t._ _ |._ _ _ +.| _ _ _ H@;@I@@ #.@ @ @ J@K@L@M@N@v@d@w@w@f@f@e@O@P@Q@R@S@@ _ _ T@U@V@_ _ _ _ _ _ : _ _ _ n.L.z H @.",
"@ @ $@W@J C t._ @ @ @ @ @ @ @ @ @ @ @ @ @ @ ,+@ @ @ X@Y@Z@`@ #d@d@w@e@v@v@v@e@.#+#@###@ @ @ @ @ @ @ @ @ @ @ @ @ @ _ _ K.4+`.$#  ",
"  @ $@%# +~.t.@ ,+&.&.,+'@U+U+&+U+U+&#&+,+'@,+'@*#=#-#;#>#O@O@:+c+w@e@v@c+e@:+:+Z+,#'#)#!#&.'@,+U+U+!#!#,+,+&+S@S@@ _ K.~#`.H   ",
"  @ {#W@]#^#t.@ ,+@ @ @ /#(#_#:#<#_#_#[#}#|#1#2#3#4#5#6#7#c+q+Z+w@w@c+f@c+8#I+Z+c+9#0#a#b#c#d#e#f#g#h#i#1#j#k#l#m#@ _ n.~#z '.  ",
"# @ {#). +n#%@@ '@@ @ @ o#p#q#r#s#t#u#v#w#x#y#z#A#B#C#:+e@e@D#E#e@e@c+c+F#e@I+e@c+e@<+G#H#I#J#K#L#-#M#N#O#P#Q#R#S#@.@ y+~#z z+@.",
"# @ G@t. +7 %@@ T#@ @ @ U#V#W#X#Y#Z#`# $.$+$@$#$$$%$e@v@v@&$*$=$-$c+w@8#Z+;$>$,$d@c+8#c+'$)$!$~${${$]$^$/$($_$:$<$# @ y+L.`.0.  ",
"+ @ ~ ).!.n#t.@ &#@ @ @ f.[$}$|$1$1$2$2$&$3$4$&$d@c@e@O@d@5$6$@ 7$e@e@c+8$9$@ 0$e@d@c+c+d@e@C#e@c+a$a$b$c$d$_$e$f$g$@ K.L.z H   ",
"  q.0 h$i$j$t.@ '@@ @ @ @ k$l$m$n$o$:+p+q+c@c@d@d@d@F#e@e@p$q$@ r$d@c+'$F#s$@ t$c+c+e@d@w@w@c+c+f@f@c+O@u$v$w$x$@ @ y$z$L.A$B$  ",
"  @ ~ ).!.^#t.@ T#@ @ @ @ C$D$E$F$G$O@Z+d@e@O@v@v@d@c+c+H$I$J$K$L$c+c+8#F#M$K$N$e@d@w@d@w@O$c+e@e@e@O@P$Q$R$S$T$U$V$W$y+X$7 '.  ",
"  @ R+v !.a.t._ @ @ @ @ @ @ Y$Z$`$ %.%+%v@@%d@f@v@e@e@e@e@#%$%K$%%'$c+c+s+&%K$K$c+d@c+c+w@f@e@e@d@O@*%=%-%;%@ @ >%,%'%F@X$z H   ",
"@ @ I v !.a.t._ |.@ @ @ @ @ @ )%!%~%{%]%v@e@d@e@e@c+d@d@e@^%6$@ /%f@f@c+(%_%@ :%O$c+e@c+d@d@e@v@e@<%[%}%|%@ m.: 1%2%B@y+4+`.H   ",
"+ @ G@).!.a.t._ _ @   @ @ @ @ @ 3%4%5%6%7%8%v@d@e@e@c+v@f@9%0%@ a%c+f@c+8$b%@ c%O$w@d@c+f@d%e@O@G#e%f%g%@ @ h%m._ _ } Q+o.G H   ",
"+ @ G@%@w ~.t._ _ |.|.@ @ @ @ @ @ @ i%j%k%l%e@e@e@e@d@d@c+m%n%@ o%d@e@c+(%p%@ q%O$F#q+e@c+e@e@r%s%t%+@@ u%>@x+1._ _ } n.~#`.z+  ",
"  @ G@%@w ~.t._ 1%2%v%@ @ @ @ @ @ @ 9 w%x%y%8%C#d@d@d@e@f@z%n%@ A%d%d@c+B%p%@ C%c+c+f@c+q+D%E%F%G%H%@ @ u%I%J%m.1._ _ y+o.`.H   ",
"  q.G@%@ +a.t.| K%L%M%N%4.@ @ @ @ @ @ @ O%P%Q%R%:+e@e@f@S%T%U%@ A%v@v@f@V%W%@ X%e@e@c+e@e@Y%Z%`% &@ m._ 1.2%1.|.1._ _ K.~#z '.  ",
"  @ R+).&@^#t.B@.&+&4@P.@&@ @ @ @ @ @ @ &.#&$&%&&$&&'$v@e@*&=&@ -&'$f@d%C#;&@ >&c+c+:+,&'&)&!&~&@ @ 1._ _ C+_ +.m._ _ K.{&`.5+  ",
"  @ R+W@&@j$t._ ]&9+^&/&(&m.@ @ @ @ @ @ _&:&<&[&}&|&D%1&F#2&3&@ 4&v@d%d@&&5&@ 6&O$c+c+7&8&9&0&@ i+_ _ J._ _ _ _ _ } } n.a&b&H   ",
"  @ G@W@i$n#c&_ } d&e&k.$+_ _ @ @ @ @ @ '@f&g&h&i&j&k&c+H$d+l&m&n&e@d@f@f@o&p&q&d@c+c+r&{%s&&.@ _ _ _ _ 1._ A.i++._ } F@a&z H +@",
"@ @ t&t.]#n#%@} _ _ u&v&1.m._ _ @ @ @ @ w&x&y&z&/$A&1&d@d@e@e@d@v@e@d@c+f@f@v@d@v@O@p+B&C&D&|%@ E&_ _ |.|.1._ _ _ m._ F&o.z z+@.",
"# @ G@).&@^#t._ +./.m.m.m.1.|.1.~+@ ,+A+@.,+U#G&H&Z%1&O@c@v@f@v@f@v@v@f@v@v@f@c+c+d@O@I&J&K&|%@ L&_ _ ~+m.m.1._ _ m._ @@o.z H   ",
"  @ $@%@!.n#t._ +._ _ |.|.|.1.m.@ @ @ @ @ @ M&N&O&P&Q&c@e@d@d@d%S%v@v@v@v@c+e@c+c+c+v@R&[%S&A+@ T&J.A._ m.m.~+m._ _ _ F@a&s 1@  ",
"  @ $@%@U&^#t._ _ _ 1.1.|.|.m.@ @ @ @ @ @ @ U#V&P&W&O@d@c+c+w@v@f@f@d%f@c+F#O$e@f@f@v@X&Y&Z&`&@ } _ _ _ _ _ m.|.+.1.J. *.*z '.  ",
"# @ G@W@&@^#t._ _ _ 1.1.1.m.m.@ @ @ @ @ @ +*@*#*$*%*e@c+c+c+f@d%d%v@c+'$c+c+c+e@c@e@c@&***=*-*;*@ @ _ _ _ +.|.+.m.1._ F@o.>*,*+@",
"  @ R+).r.*@t._ _ _ m.1.1._ m.@ @ @ @ @ $.'*)*!*v@d@d@e@c+f@f@v@d%e@e@c+c+f@e@v@d@d@c@q+q+~*{*]*E+@ ^*/*(*_ _ 1._ _ _ @@X$B B$  ",
"# q.G@W@&@^#t._ _ _ m.: _ _ _ @ @ @ @ @ !#_*:*<*O@d@d@e@c+e@v@e@v@e@c+e@e@w@e@d@@%d@e@p+D#[*}*|*1*@ 2*3*4*_ _ _ _ < [ F@5*6*7*  ",
"  @ $@%@r.a.%@_ _ 1.m.m.8*9*3 @ @ @ @ @ o#0*W.a*c@c@d@c+c+c+c+Z+C#C#b+1&1&q+q+d@e@q+e@^@b*c*d*e*f*@ @ [@!+_ _ _ g*h*i*j*k*y t   ",
"  @ R+W@r.*@t._ |._ _ _ l*m*@ @ @ @ @ @ o#n*o*p*c@e@c+e@Z+e@e@<+q*r*s*t*u*v*^@:+O@e@e@:+b+w*x*y*z*@ @ @ _ _ _ _ A*k@g* *l+B*t A+",
"  @ t&N.r.*@t.1.1.A._ _ C*@ f.@ @ @ @ @ ,+D*P$<+c@e@e@e@c@O@:+E*F*G*H*I*J*K*L*M*c@@%d@e@p+N*g@O*Y&P*  @ _ _ _ _ <@Q*R*S*T*U*B$@.",
"@ @ G@%@&@a.%@m._ _ _ 1.^.@ T#@ @ @ @ @ T#V*&$c@O@O@:+O@c@W*X*Y*Z*`* =.=+=@=#=$=%=c@c@p+&=^@1&*===-=;=@ m.m.m._ _ _ _ F&k*^#t   ",
"  @ G@W@&@>=%@m.: < ,=#+'=@ @ @ @ @ @ @ )=!=1&O@:+:+~={=]=^=/=(=_=$.:=<=[=}=|=1=1&v@c@1&^@g@&=2=3=4=5=@ @ 3+: _ _ _ _ F@o.6=7=  ",
"  @ G@%@!.j$t.~+|._ ^&V$@ @ @ @ @ @ @ 8=9=0=a=g@g@b=c=d=d=e=f=g=h=Y.i=j=k=l=m=n=o=p=q=r=%$b*s=t=u=v=w=x=@ @ y=A.i+} } -.z=y H   ",
"  @ I %@!.^#N.~+|.+.A=@ f.@ @ @ @ @ B=C=D=E=D%~=%$F=s%]$G=H=I=&+J=U+K=L=M=N=f.O=P=Q=R=S=L*s=T=U=V=W=X=Y=E+@ Z=1._ 1._ -.z=z `=@.",
"  @ I %@]#n#t.+.m.m.m.@ &+@ @ @ @ @  -.-+-@-1&#-$-%-&-*-=---@ @ @ @ @ ;->-,-U+2#'-)-!-~-{-o=]-^-/-(-_-:-<-@ 9+1.m.m._ -.z=z `=  ",
"@ q.t&[-!.^#t._ m.m.m.@ &+@ @ @ @ @ B=}-|-1-D%2-3-4-U+5-!@6-@ m.m._ @ '@'@A+%.U+&+U+&+7-8-{%9-0-r%a-b-c-d-@ _ C+1._ _ -..*`.1@. ",
". @ $@%@&@j$c&_ m.m.m.@ U#@ @ @ @ @ B=}-e-f-g-h-i-@ @ @ @ @ _ 1.m.m._ @ @ @ &.j-k-l-m-n-o-p-q-r-s-t-u-v-w-@ ~+m.m._ A. *z=`.H   ",
". @ x-[-y-^#t.} _ 1.1.@ f.@ @ @ @ @ B=z-D=A-B-C-i.@ m.m.m.1.1._ m.~+1._ _ @ &+D-E-F-G-H-&+T#f.I-J-K-K-L-M-@ 1.1._ _ A.-.o.A N-@.",
"  q.O-] &@U*t._ _ m.m.@ P-@ @ @ @ @ Q-R-S-T-U-@ @ 1.1.|.1.m.m._ : m.|._ V-W-@ @ X-Y-Z-`-U+%+&. ;.;+;@;#;!@@ 1._ $;%;&;S*k*7 `=@.",
"  @ O-*;&@U*6+_ _ 1.m.@ =;!@$.,+,+%.,+U+#.A+A+@ m.m.m.m.m.m.m.m.m.m.m._ -;;;>;@ @ U+J=J=+@#.#.@.,+,+'@&#%+@ : _ ,;';);!;~;n#'.  ",
"+ @ x-] {;];^;/;[ _ _ m.@ @ @ @ @ @ @ @ @ @ @ m.m.m.m.3+m.m.m.m.m.m.1._ (;&;T@_ @ @ @ @ @ @ @ @ @ @ @ @ @ @ m.1._;:;<;F@X$D `=  ",
"  @ [;*;{;C };;.1.A.i+_ 1.1.m.m._ m.m._ 1.1.1.1.m.m.3+|;1.1.|.1.m.m._ _ _ } A.J.|._ _ _ _ _ _ +.|.|.1._ _ _ m._ _ _ _ -.1;`.H   ",
"  q.2;3;7 D 4;W 5;6;6;7;7;8;r r 9;0;0;9;7;7;7;7;7;r r r a;r 7;7;7;r 7;9;7;9;5;7;7;7;7;7;9;9;9;9;a;7;7;b;c;7;7;9;9;7;7;d;e;`.Z @.",
"  f;g;`.`.7 7 n#n#n#`.n#n#n#n#n#n#n#n#n#n#n#n#n#n#n#n#n#n#n#n#n#n#n#n#n#n#n#n#n#n#n#n#n#n#n#n#n#n#n#~.n#n#n#n#n#n#7 7 7 7 z Z @.",
"    h;i;i;j;j;i;i;i;i;j;j;i;k;i;k;i;i;l;l;i;l;i;j;j;i;i;i;j;i;i;i;l;l;i;l;l;m;n;i;i;i;j;j;i;i;i;i;l;j;j;i;i;i;i;i;i;i;j;o;i;p;  ",
"                                    @.@.      @.@.        @.    @.@.@.    @.    @.@.  @.@.@.@.    @.@.    @.        @.          "};
