/* XPM */
static char * collectible_front_64_xpm[] = {
"64 64 954 2",
"  	c #010101",
". 	c #000101",
"+ 	c #010100",
"@ 	c #000000",
"# 	c #000100",
"$ 	c #583A24",
"% 	c #5A3A23",
"& 	c #5A3923",
"* 	c #5B3923",
"= 	c #5B3A23",
"- 	c #5B3A22",
"; 	c #5B3922",
"> 	c #5C3A23",
", 	c #5A3922",
"' 	c #462B19",
") 	c #2B190E",
"! 	c #1B1008",
"~ 	c #9C5F34",
"{ 	c #A15F31",
"] 	c #A16032",
"^ 	c #A06031",
"/ 	c #A16031",
"( 	c #A26130",
"_ 	c #A36131",
": 	c #A36031",
"< 	c #A26030",
"[ 	c #A26031",
"} 	c #A26131",
"| 	c #A36130",
"1 	c #A16030",
"2 	c #A25F31",
"3 	c #A15F30",
"4 	c #A15E31",
"5 	c #A05E32",
"6 	c #7B4825",
"7 	c #532F18",
"8 	c #382111",
"9 	c #000001",
"0 	c #9C5F35",
"a 	c #A15E32",
"b 	c #8D532C",
"c 	c #8C532C",
"d 	c #8C532B",
"e 	c #8D522B",
"f 	c #8D542B",
"g 	c #8D542C",
"h 	c #8C542B",
"i 	c #8D532B",
"j 	c #8B542B",
"k 	c #8B542C",
"l 	c #8D532A",
"m 	c #8C542A",
"n 	c #8C532A",
"o 	c #8B532B",
"p 	c #8C542C",
"q 	c #8C522B",
"r 	c #734323",
"s 	c #533019",
"t 	c #371F10",
"u 	c #9D5F35",
"v 	c #A05F31",
"w 	c #573018",
"x 	c #532E18",
"y 	c #522E18",
"z 	c #522F19",
"A 	c #522E19",
"B 	c #522F18",
"C 	c #522E16",
"D 	c #522F17",
"E 	c #522E17",
"F 	c #512E16",
"G 	c #532F1A",
"H 	c #371F11",
"I 	c #9D6034",
"J 	c #563017",
"K 	c #63341B",
"L 	c #65351B",
"M 	c #6F4123",
"N 	c #704224",
"O 	c #704223",
"P 	c #6F4223",
"Q 	c #6F4222",
"R 	c #704222",
"S 	c #704122",
"T 	c #6F4224",
"U 	c #6A3B1E",
"V 	c #66351B",
"W 	c #67351A",
"X 	c #5C311A",
"Y 	c #512F19",
"Z 	c #351F11",
"` 	c #9D5F34",
" .	c #803D1F",
"..	c #853E1E",
"+.	c #A36132",
"@.	c #955028",
"#.	c #883E1E",
"$.	c #853D1E",
"%.	c #6D361B",
"&.	c #361F11",
"*.	c #9F5F31",
"=.	c #573118",
"-.	c #532E17",
";.	c #8A4825",
">.	c #8E4825",
",.	c #A36033",
"'.	c #A36032",
").	c #B66F3B",
"!.	c #BA723C",
"~.	c #A76433",
"{.	c #A46033",
"].	c #191525",
"^.	c #A46132",
"/.	c #A46131",
"(.	c #B16B38",
"_.	c #B9713B",
":.	c #AB6735",
"<.	c #98542B",
"[.	c #8E4724",
"}.	c #874221",
"|.	c #6B361B",
"1.	c #543019",
"2.	c #382011",
"3.	c #532E16",
"4.	c #E6914D",
"5.	c #F09851",
"6.	c #B36C39",
"7.	c #191624",
"8.	c #1E1722",
"9.	c #1E1720",
"0.	c #1F1822",
"a.	c #1A1625",
"b.	c #D68647",
"c.	c #EF9951",
"d.	c #C47A40",
"e.	c #A46031",
"f.	c #935028",
"g.	c #6E371C",
"h.	c #361E11",
"i.	c #010000",
"j.	c #573017",
"k.	c #522E15",
"l.	c #9F5F32",
"m.	c #B56F39",
"n.	c #B76F3A",
"o.	c #A56333",
"p.	c #D78848",
"q.	c #E08E4B",
"r.	c #AF6B37",
"s.	c #A36231",
"t.	c #B46935",
"u.	c #191523",
"v.	c #D0A61B",
"w.	c #E9C316",
"x.	c #E8C416",
"y.	c #D0A81E",
"z.	c #A26231",
"A.	c #A26132",
"B.	c #CA7F43",
"C.	c #BD743D",
"D.	c #A36232",
"E.	c #935027",
"F.	c #6D371B",
"G.	c #381F10",
"H.	c #A05F32",
"I.	c #EB9751",
"J.	c #F09951",
"K.	c #AE6936",
"L.	c #A36133",
"M.	c #E18141",
"N.	c #191625",
"O.	c #443728",
"P.	c #E0BA1B",
"Q.	c #F9E019",
"R.	c #F9DF19",
"S.	c #DFBB1C",
"T.	c #453829",
"U.	c #1A1626",
"V.	c #532F19",
"W.	c #563018",
"X.	c #AF6534",
"Y.	c #B06633",
"Z.	c #E08E4D",
"`.	c #E4904D",
" +	c #AC6735",
".+	c #AE6533",
"++	c #B16633",
"@+	c #181523",
"#+	c #A78224",
"$+	c #F8DC19",
"%+	c #FADF19",
"&+	c #F9DB19",
"*+	c #A88424",
"=+	c #AC6433",
"-+	c #B06533",
";+	c #B46B37",
">+	c #B66E39",
",+	c #A96634",
"'+	c #A46032",
")+	c #A45F33",
"!+	c #D5783B",
"~+	c #D87A3A",
"{+	c #A96332",
"]+	c #CF7539",
"^+	c #D8783A",
"/+	c #181423",
"(+	c #614E26",
"_+	c #B89525",
":+	c #F8DC1A",
"<+	c #F9DD19",
"[+	c #B99825",
"}+	c #5F4D26",
"|+	c #181425",
"1+	c #CA7237",
"2+	c #DA7A3A",
"3+	c #EA924C",
"4+	c #F09850",
"5+	c #C0773E",
"6+	c #A46030",
"7+	c #6C371B",
"8+	c #371F12",
"9+	c #9F5F33",
"0+	c #CB743A",
"a+	c #CE7539",
"b+	c #A86332",
"c+	c #C67138",
"d+	c #C79B11",
"e+	c #EFCC17",
"f+	c #EFCC16",
"g+	c #C89C10",
"h+	c #D87A39",
"i+	c #E28E4B",
"j+	c #E4924E",
"k+	c #BB733D",
"l+	c #AA6432",
"m+	c #AE6633",
"n+	c #6C361B",
"o+	c #181624",
"p+	c #D1AB14",
"q+	c #F2D217",
"r+	c #FAE019",
"s+	c #F2D117",
"t+	c #D3AD14",
"u+	c #B56934",
"v+	c #C57036",
"w+	c #D8793A",
"x+	c #BB6C35",
"y+	c #934F27",
"z+	c #372011",
"A+	c #020201",
"B+	c #AC6533",
"C+	c #A46232",
"D+	c #1A1725",
"E+	c #1C1621",
"F+	c #E1C91B",
"G+	c #FADF18",
"H+	c #E1CA1B",
"I+	c #1B1621",
"J+	c #1B1726",
"K+	c #B26834",
"L+	c #C06E36",
"M+	c #D07639",
"N+	c #B66A34",
"O+	c #934F28",
"P+	c #9C6034",
"Q+	c #D17639",
"R+	c #D77A3A",
"S+	c #534629",
"T+	c #EBC31C",
"U+	c #F6DA19",
"V+	c #F9DF18",
"W+	c #FBDF19",
"X+	c #EAC31C",
"Y+	c #544828",
"Z+	c #191524",
"`+	c #945027",
" @	c #362010",
".@	c #9C6135",
"+@	c #9F6032",
"@@	c #573117",
"#@	c #532E15",
"$@	c #B06B37",
"%@	c #B26B38",
"&@	c #D27639",
"*@	c #D77939",
"=@	c #AB6432",
"-@	c #271F25",
";@	c #635627",
">@	c #F9DF1A",
",@	c #F8DE19",
"'@	c #665A27",
")@	c #271F24",
"!@	c #AC6836",
"~@	c #B26C38",
"{@	c #AA6635",
"]@	c #925027",
"^@	c #381F11",
"/@	c #532F15",
"(@	c #E8944F",
"_@	c #F19951",
":@	c #D57A3B",
"<@	c #D17638",
"[@	c #B36834",
"}@	c #AC6633",
"|@	c #A46231",
"1@	c #191726",
"2@	c #8F7020",
"3@	c #E3B612",
"4@	c #FAE119",
"5@	c #F9E018",
"6@	c #E3B712",
"7@	c #8E7020",
"8@	c #D58547",
"9@	c #F29C52",
"0@	c #CB8043",
"a@	c #563016",
"b@	c #E8934E",
"c@	c #AF6A37",
"d@	c #A66330",
"e@	c #D27839",
"f@	c #AD6533",
"g@	c #574629",
"h@	c #A48523",
"i@	c #E7BE13",
"j@	c #FAE018",
"k@	c #F9E119",
"l@	c #FBE119",
"m@	c #E6BD13",
"n@	c #A38523",
"o@	c #56462A",
"p@	c #191725",
"q@	c #A36030",
"r@	c #CE8144",
"s@	c #E7934E",
"t@	c #C37A40",
"u@	c #945028",
"v@	c #9C6035",
"w@	c #1A1627",
"x@	c #B58D1B",
"y@	c #EAC413",
"z@	c #F8DF18",
"A@	c #F8E017",
"B@	c #F8E118",
"C@	c #B68E1B",
"D@	c #010201",
"E@	c #9F6031",
"F@	c #191626",
"G@	c #191526",
"H@	c #211A26",
"I@	c #6B5320",
"J@	c #69521F",
"K@	c #6A5320",
"L@	c #6C5420",
"M@	c #C5A01A",
"N@	c #EBC914",
"O@	c #F9E118",
"P@	c #ECC914",
"Q@	c #C6A01B",
"R@	c #6B5420",
"S@	c #69531F",
"T@	c #6B541F",
"U@	c #6A531F",
"V@	c #68521F",
"W@	c #221B25",
"X@	c #392012",
"Y@	c #1A1623",
"Z@	c #1A1522",
"`@	c #1A1523",
" #	c #1A1622",
".#	c #191622",
"+#	c #1A1624",
"@#	c #362820",
"##	c #DDAE10",
"$#	c #DBAC0D",
"%#	c #D9AB0D",
"&#	c #DCAC0D",
"*#	c #DCAD0E",
"=#	c #F0D116",
"-#	c #FBE019",
";#	c #EFD016",
">#	c #DBAC0C",
",#	c #DCAD0D",
"'#	c #DAAB0C",
")#	c #DDAD0F",
"!#	c #36291F",
"~#	c #1A1723",
"{#	c #6D371C",
"]#	c #9B6035",
"^#	c #AD8828",
"/#	c #D9AA20",
"(#	c #EFCF2D",
"_#	c #F5DD2F",
":#	c #F6DD2F",
"<#	c #F6DE2F",
"[#	c #F7DE2F",
"}#	c #F7DE2C",
"|#	c #F9DE1B",
"1#	c #FAE01C",
"2#	c #FADF1B",
"3#	c #FADE1B",
"4#	c #FBE11C",
"5#	c #FAE01A",
"6#	c #F9E01A",
"7#	c #F9DF1B",
"8#	c #FAE01B",
"9#	c #F7DE2D",
"0#	c #F6DE2E",
"a#	c #F7DE2E",
"b#	c #F7DF2E",
"c#	c #F6DF2F",
"d#	c #F5DE2E",
"e#	c #F4DD2D",
"f#	c #F5DD2E",
"g#	c #EFD12C",
"h#	c #DAAC20",
"i#	c #AB8726",
"j#	c #B0881E",
"k#	c #DDAC0D",
"l#	c #E0B60F",
"m#	c #F9DE1A",
"n#	c #F7E018",
"o#	c #F7DF18",
"p#	c #E1B80F",
"q#	c #DDAA0D",
"r#	c #B08A1D",
"s#	c #886B26",
"t#	c #AC881F",
"u#	c #CFA216",
"v#	c #E5BB12",
"w#	c #F1CF17",
"x#	c #D1BC22",
"y#	c #C6B222",
"z#	c #D0BC26",
"A#	c #D0BD26",
"B#	c #C5B221",
"C#	c #D1BC21",
"D#	c #F9DE19",
"E#	c #F1D117",
"F#	c #E4BB10",
"G#	c #D1A216",
"H#	c #AD871F",
"I#	c #896D25",
"J#	c #A5811D",
"K#	c #D3A410",
"L#	c #DFB20E",
"M#	c #F5DA17",
"N#	c #EACD1A",
"O#	c #665622",
"P#	c #6A5D34",
"Q#	c #E9CA1B",
"R#	c #E8CA1B",
"S#	c #6A5B32",
"T#	c #685724",
"U#	c #EACD19",
"V#	c #F8E117",
"W#	c #F9E117",
"X#	c #F8E119",
"Y#	c #F6DA17",
"Z#	c #DFB20F",
"`#	c #D3A510",
" $	c #A7821C",
".$	c #9E5F32",
"+$	c #563118",
"@$	c #917120",
"#$	c #DAAA0D",
"$$	c #E4BA10",
"%$	c #EFCE16",
"&$	c #C6B31F",
"*$	c #FFFFFF",
"=$	c #C1AE2E",
"-$	c #C0AD2D",
";$	c #C7B421",
">$	c #FADF1A",
",$	c #EFCF16",
"'$	c #E4BB0F",
")$	c #DAAA0C",
"!$	c #91711F",
"~$	c #A56331",
"{$	c #924F27",
"]$	c #542F18",
"^$	c #382010",
"/$	c #532F16",
"($	c #181524",
"_$	c #836824",
":$	c #C79D1B",
"<$	c #D1A315",
"[$	c #DFB310",
"}$	c #F3D617",
"|$	c #F5D918",
"1$	c #C6B21F",
"2$	c #BFAC2C",
"3$	c #C6B220",
"4$	c #F9E11A",
"5$	c #F3D618",
"6$	c #DFB40F",
"7$	c #D2A514",
"8$	c #C89D1A",
"9$	c #816724",
"0$	c #F09A51",
"a$	c #C97D41",
"b$	c #6E371B",
"c$	c #96751C",
"d$	c #DEAD0F",
"e$	c #DCAC0C",
"f$	c #E7BD11",
"g$	c #C6B21E",
"h$	c #C1AD2D",
"i$	c #DDAB0C",
"j$	c #DEAC0E",
"k$	c #95731A",
"l$	c #D28346",
"m$	c #F09852",
"n$	c #C97C41",
"o$	c #2D2424",
"p$	c #735B23",
"q$	c #DEAB0D",
"r$	c #DDAC0C",
"s$	c #DDAF0B",
"t$	c #F8E019",
"u$	c #C5B31E",
"v$	c #C0AE2D",
"w$	c #C5B31F",
"x$	c #F8E018",
"y$	c #DFB00A",
"z$	c #DCAB0D",
"A$	c #DFAB0C",
"B$	c #735B21",
"C$	c #2A2122",
"D$	c #A46130",
"E$	c #A56130",
"F$	c #685328",
"G$	c #DBAA17",
"H$	c #DDAD13",
"I$	c #DBAC0B",
"J$	c #BFAD2D",
"K$	c #C6B320",
"L$	c #FBE01B",
"M$	c #DBAB0B",
"N$	c #DEAD13",
"O$	c #DCAC16",
"P$	c #675325",
"Q$	c #A56031",
"R$	c #1C1722",
"S$	c #70571B",
"T$	c #DBAB0D",
"U$	c #DAAB0A",
"V$	c #DDB00A",
"W$	c #C1AE2D",
"X$	c #C5B320",
"Y$	c #FBE11A",
"Z$	c #DDB10A",
"`$	c #DAAB0B",
" %	c #DBAB0C",
".%	c #71581C",
"+%	c #1C1721",
"@%	c #A56131",
"#%	c #3D3024",
"$%	c #DCAC13",
"%%	c #DCAD0B",
"&%	c #E3BA0F",
"*%	c #F4D717",
"=%	c #C8B31E",
"-%	c #0F0A02",
";%	c #0C0802",
">%	c #C2AF2B",
",%	c #F8DF19",
"'%	c #0E0A02",
")%	c #0D0802",
"!%	c #C7B31E",
"~%	c #F5D818",
"{%	c #DDAD0B",
"]%	c #DDAB12",
"^%	c #6F561A",
"/%	c #3C3023",
"(%	c #181625",
"_%	c #D67839",
":%	c #BA6B35",
"<%	c #EB9652",
"[%	c #EF9952",
"}%	c #F09953",
"|%	c #EF9853",
"1%	c #1B1622",
"2%	c #D9AB15",
"3%	c #DAAA0B",
"4%	c #ECC615",
"5%	c #F5D718",
"6%	c #F2D517",
"7%	c #6E5E0D",
"8%	c #6C5D1E",
"9%	c #F2D318",
"0%	c #F3D418",
"a%	c #6C5D1A",
"b%	c #6F5E10",
"c%	c #F2D518",
"d%	c #ECC716",
"e%	c #DBAA0C",
"f%	c #D9A914",
"g%	c #ED9651",
"h%	c #F29B53",
"i%	c #AB6734",
"j%	c #675326",
"k%	c #6F5720",
"l%	c #DCAB0E",
"m%	c #DDAB0B",
"n%	c #ECC915",
"o%	c #E7CF25",
"p%	c #E0C926",
"q%	c #E6CF27",
"r%	c #E6CF25",
"s%	c #715921",
"t%	c #675225",
"u%	c #6D381C",
"v%	c #533016",
"w%	c #A76332",
"x%	c #EB9650",
"y%	c #F09A52",
"z%	c #AD6835",
"A%	c #261E23",
"B%	c #93731B",
"C%	c #D2A414",
"D%	c #EDCA15",
"E%	c #D0A213",
"F%	c #95731B",
"G%	c #282023",
"H%	c #6E381C",
"I%	c #542F19",
"J%	c #532F17",
"K%	c #9F6033",
"L%	c #A26032",
"M%	c #EA9650",
"N%	c #C89C19",
"O%	c #EDCA14",
"P%	c #F9E116",
"Q%	c #ECCA14",
"R%	c #C69C19",
"S%	c #020202",
"T%	c #9D6035",
"U%	c #573119",
"V%	c #A86433",
"W%	c #A96433",
"X%	c #C79B1A",
"Y%	c #ECCA15",
"Z%	c #EBCA13",
"`%	c #C69C1A",
" &	c #C37840",
".&	c #944F27",
"+&	c #241D26",
"@&	c #86692C",
"#&	c #D5B01D",
"$&	c #F2D317",
"%&	c #FAE116",
"&&	c #FAE115",
"*&	c #F1D215",
"=&	c #D3AF1C",
"-&	c #85692A",
";&	c #261E26",
">&	c #C57A41",
",&	c #342721",
"'&	c #DEAC0F",
")&	c #F3D818",
"!&	c #F7E119",
"~&	c #FAE118",
"{&	c #FAE017",
"]&	c #F9E016",
"^&	c #F4D617",
"/&	c #DEAC0D",
"(&	c #573218",
"_&	c #1B1727",
":&	c #332920",
"<&	c #E6C114",
"[&	c #F6DC19",
"}&	c #FAE117",
"|&	c #F6DC18",
"1&	c #E5C113",
"2&	c #362C1F",
"3&	c #1A1826",
"4&	c #955128",
"5&	c #6F381C",
"6&	c #3C3423",
"7&	c #F9E01B",
"8&	c #F4D817",
"9&	c #F5D817",
"0&	c #F5D917",
"a&	c #F9E017",
"b&	c #F8E11A",
"c&	c #3D3622",
"d&	c #502F18",
"e&	c #351F10",
"f&	c #3B3321",
"g&	c #DCAA0B",
"h&	c #DBAA0B",
"i&	c #3D3520",
"j&	c #D28245",
"k&	c #EA924E",
"l&	c #C3773E",
"m&	c #191521",
"n&	c #C69A17",
"o&	c #CCA611",
"p&	c #F4D718",
"q&	c #EAC715",
"r&	c #E0B30F",
"s&	c #DDAC0B",
"t&	c #D5A610",
"u&	c #C79C1A",
"v&	c #D3A511",
"w&	c #DEAB0B",
"x&	c #E2B610",
"y&	c #EBC714",
"z&	c #F7DD18",
"A&	c #CEA712",
"B&	c #C69A16",
"C&	c #D88647",
"D&	c #F29850",
"E&	c #C87A40",
"F&	c #72381C",
"G&	c #562F18",
"H&	c #3A2111",
"I&	c #904925",
"J&	c #8F4624",
"K&	c #1B1722",
"L&	c #D9A915",
"M&	c #F1D317",
"N&	c #EECD16",
"O&	c #DCAB0B",
"P&	c #DBAA0E",
"Q&	c #DBAA0D",
"R&	c #BF961C",
"S&	c #BC941A",
"T&	c #DCAA0E",
"U&	c #DCAB09",
"V&	c #EECF15",
"W&	c #F2D416",
"X&	c #DAAB13",
"Y&	c #1C1622",
"Z&	c #AD6836",
"`&	c #CD8043",
" *	c #E6914B",
".*	c #C4793F",
"+*	c #965128",
"@*	c #6F371B",
"#*	c #8C4322",
"$*	c #8B3F1F",
"%*	c #1A1621",
"&*	c #DAA915",
"**	c #E7C410",
"=*	c #DEB00A",
"-*	c #A4811D",
";*	c #332820",
">*	c #31261F",
",*	c #2F2522",
"'*	c #312722",
")*	c #312620",
"!*	c #33271F",
"~*	c #A9861E",
"{*	c #DCAD0A",
"]*	c #DCAF09",
"^*	c #E8C511",
"/*	c #F2D316",
"(*	c #DBAB14",
"_*	c #1B1522",
":*	c #D48546",
"<*	c #512D18",
"[*	c #9F5B30",
"}*	c #9F5B2F",
"|*	c #F9DE18",
"1*	c #EBC614",
"2*	c #E1B50D",
"3*	c #DAAA12",
"4*	c #DBAC15",
"5*	c #DAAC15",
"6*	c #A38124",
"7*	c #A38224",
"8*	c #DAAB15",
"9*	c #DBAB15",
"0*	c #D9A911",
"a*	c #DBAB0A",
"b*	c #E2B60E",
"c*	c #DAAA13",
"d*	c #B26B37",
"e*	c #A96533",
"f*	c #954F28",
"g*	c #72381B",
"h*	c #542F16",
"i*	c #181424",
"j*	c #191425",
"k*	c #1C1623",
"l*	c #DBAA15",
"m*	c #FADE19",
"n*	c #EBC712",
"o*	c #806526",
"p*	c #191423",
"q*	c #1B1523",
"r*	c #806527",
"s*	c #DAA80A",
"t*	c #F2D216",
"u*	c #DDAC13",
"v*	c #522F16",
"w*	c #E08E4C",
"x*	c #DAAA14",
"y*	c #E5B80F",
"z*	c #E3BA0E",
"A*	c #E2B90E",
"B*	c #E0B30C",
"C*	c #CDA11A",
"D*	c #72591E",
"E*	c #6F561E",
"F*	c #453727",
"G*	c #463828",
"H*	c #73591E",
"I*	c #CDA019",
"J*	c #E3B90E",
"K*	c #E3B90D",
"L*	c #E4B90D",
"M*	c #DBAB13",
"N*	c #512E17",
"O*	c #351E10",
"P*	c #4D3C24",
"Q*	c #8F6F18",
"R*	c #DCAC0A",
"S*	c #C89F1F",
"T*	c #D68648",
"U*	c #E38F4C",
"V*	c #D77D3D",
"W*	c #D27737",
"X*	c #1A1726",
"Y*	c #C69D1E",
"Z*	c #DBAA09",
"`*	c #DCAB0A",
" =	c #DEAE0A",
".=	c #DAAA0F",
"+=	c #8E6F18",
"@=	c #4B3A23",
"#=	c #BE6C34",
"$=	c #CE7336",
"%=	c #B66933",
"&=	c #6F371C",
"*=	c #B46E39",
"==	c #B66F3A",
"-=	c #775C22",
";=	c #DCAA0C",
">=	c #DCAA0A",
",=	c #D3A418",
"'=	c #695424",
")=	c #695426",
"!=	c #665225",
"~=	c #5E4C29",
"{=	c #A66433",
"]=	c #DF8D4B",
"^=	c #EF9850",
"/=	c #E1833F",
"(=	c #DB7938",
"_=	c #B66934",
":=	c #5F4D29",
"<=	c #6A5426",
"[=	c #D1A417",
"}=	c #755B20",
"|=	c #C46F35",
"1=	c #D77937",
"2=	c #BB6B34",
"3=	c #372010",
"4=	c #755A21",
"5=	c #DBA90D",
"6=	c #D1A31B",
"7=	c #EE974F",
"8=	c #E1823F",
"9=	c #B66834",
"0=	c #1A1524",
"a=	c #CEA01A",
"b=	c #DCAB0C",
"c=	c #71581F",
"d=	c #AB6433",
"e=	c #A06032",
"f=	c #B7703A",
"g=	c #B36935",
"h=	c #B26632",
"i=	c #A76231",
"j=	c #57462B",
"k=	c #564629",
"l=	c #544428",
"m=	c #312728",
"n=	c #DA8949",
"o=	c #E38F4B",
"p=	c #B16C38",
"q=	c #9E6135",
"r=	c #573217",
"s=	c #E9924C",
"t=	c #F49A50",
"u=	c #B56F3A",
"v=	c #362011",
"w=	c #9F6136",
"x=	c #B8703A",
"y=	c #BB723B",
"z=	c #96512A",
"A=	c #914926",
"B=	c #9E5A2E",
"C=	c #CE8043",
"D=	c #E08C49",
"E=	c #BB723C",
"F=	c #99542B",
"G=	c #934A26",
"H=	c #9C582D",
"I=	c #A16132",
"J=	c #914A26",
"K=	c #8B3F20",
"L=	c #9D582D",
"M=	c #A46133",
"N=	c #DB8947",
"O=	c #F2974E",
"P=	c #C4773F",
"Q=	c #954E28",
"R=	c #8A3E20",
"S=	c #99532B",
"T=	c #965028",
"U=	c #71381C",
"V=	c #583117",
"W=	c #552F16",
"X=	c #8D4926",
"Y=	c #904A25",
"Z=	c #9E5B2E",
"`=	c #A15E30",
" -	c #B56E39",
".-	c #BD743C",
"+-	c #9F5C2F",
"@-	c #9D592E",
"#-	c #A05E2F",
"$-	c #9E6136",
"%-	c #833D20",
"&-	c #A4602F",
"*-	c #70371C",
"=-	c #6E4326",
"--	c #704324",
";-	c #65351C",
">-	c #724324",
",-	c #724424",
"'-	c #724323",
")-	c #734324",
"!-	c #724423",
"~-	c #734424",
"{-	c #734423",
"]-	c #724223",
"^-	c #724322",
"/-	c #6C3C1E",
"(-	c #5D3219",
"_-	c #010001",
":-	c #502F1A",
"<-	c #2C1B11",
"[-	c #2D1A0E",
"}-	c #2D1A0F",
"|-	c #2C1A0E",
"1-	c #2E1A0E",
"2-	c #2E1A0F",
"3-	c #2E190E",
"4-	c #2D190E",
"5-	c #1D1009",
"        .                                                         +           . .                   @ @ .     @ @ @     @ @ @   ",
"# @ $ % & * * = - = = = = = * ; - = ; & ; = - = - - > - ; , * ; , ; , , ; * , & * , , - = & , = ; , ; , - - ; , * & , ; ' ) !   ",
"# @ ~ { { ] ^ / ( _ : _ _ _ < < < < [ / / } | ( } _ _ } [ < 1 1 1 1 1 ^ 1 ^ / / 1 ^ 1 1 ( / [ ( < 1 < 1 < < < 2 3 4 4 5 6 7 8   ",
"9 @ 0 a b c d e b f f g f f h d i i j k d f f d d l f i d d h d m j n o d c n h p o n d d c c f n d d h d n n n q q e c r s t   ",
"  @ u v w x y y y z z z z y y A y y y y B B y C C C y y y D y E E E y y y E B B E C C C E y B z y B y C E y y E D y F E B G H   ",
"  @ I v J E K L M M N O O O P P P O O O O O P Q R R O O O O O O Q O O O O O O O Q S R O O O P T O P O O S O O O O U V W X Y Z   ",
"  @ ` v w E  ...[ _ _ _ _ < } } +._ _ _ _ _ _ _ _ _ } _ _ _ @ @ @ @ _ _ _ _ _ _ _ _ _ _ _ _ _ +._ _ _ _ _ +._ _ _ @.#.$.%.s &.  ",
"  @ I *.=.-.;.>.[ _ +._ _ _ _ +.,.'.).!.~._ _ +._ ,.{._ @ @ @ ].].@ @ @ _ ^./._ _ _ _ _ +._ ^./.(._.:._ _ _ _ _ _ <.[.}.|.1.2.  ",
"@ @ I v w 3.5 _ _ _ _ _ _ +._ +.,.'.4.5.6.} _ /.'.{.{._ @ 7.8.9.9.0.a.@ _ _ +._ _ _ _ '.,._ _ _ b.c.d._ _ _ e._ _ _ _ f.g.z h.  ",
"  i.I v j.k.l._ _ _ _ _ m.n.o._ ^.+.p.q.r.s.e./.'.'.t.@ @ u.v.w.x.y.u.@ @ z.+._ _ _ _ ,.,./._ A.B.q.C._ _ _ /.+.D.D.} E.F.7 G.  ",
"  i.I v J k.H._ +.+._ /.I.J.K._ ,.L.+._ _ e.e.^.,.'.M.@ N.O.P.Q.R.S.T.U.@ '.+._ _ _ _ +._ '.,.+.+.: e._ _ /.^.{.^._ } E.F.V.2.  ",
"+ @ I v W.C H.e.,.,.X.Y.Z.`. +_ +.+.e.e.e.^.^.e..+++@ @ @+#+$+R.%+&+*+].@ @ =+-+;+>+,+_ _ e.e.{.+._ _ _ /.e.e.{.'+_ _ f.F.z &.  ",
"+ i.` v W.E l._ '.)+!+~+{+_ _ _ _ e.e.e.^.^.^.'+]+^+@ /+(+_+:+%+%+<+[+}+|+@ 1+2+3+4+5+_ _ e.e.'++._ _ _ /.6+e.{.'+_ _ f.7+V.8+  ",
"  @ ` v W.E 9+_ +.,.0+a+b+_ _ _ e.e.e././././.,.c+@ @ N.d+e+R.R.Q.R.f+g+].@ @ h+i+j+k+} _ _ _ _ z._ l+m+b+/./././._ _ E.n+z H   ",
"  @ ` v J 3.l._ _ _ _ } } _ _ _ _ _ _ _ _ ^.^.+.: @ o+7.p+q+R.R.r+R.s+t+N.7.@ ~+u+_ _ _ _ _ _ _ _ /.v+w+x+_ _ s._ _ _ y+7+B z+A+",
"  @ I v W.E l.} _ _ _ _ _ _ _ e.B+m+C+_ +.^.^.+.: @ D+E+F+G+%+r+R.%+%+H+I+J+@ @ K+_ _ /._ _ /._ e.'+L+M+N+_ _ _ _ _ _ O+F.1.2.  ",
"@ @ P+v J C l._ _ _ _ _ _ _ /.e.Q+R+B+_ _ ^./.@ @ ].S+T+U+V+r+r+W+%+R.U+X+Y+Z+@ @ _ e.e./.e.e.e.e.'+_ _ _ D.C+_ _ _ _ `+g.V. @. ",
". @ .@+@@@#@l._ _ '._ _ _ _ $@%@&@*@=@_ _ +.+.@ N.-@;@>@r+r+r+r+r+r+r+%+,@'@)@@+@ /.e.e.e._ _ _ /._ /./._ /.!@~@{@^._ ]@7+V.^@  ",
"  @ P+v @@/@l.} _ _ z.D.s._ (@_@:@<@[@}@|@_ @ @ 1@2@3@V+r+r+r+r+4@r+r+5@V+6@7@].@ @ '.'./._ _ } _ _ _ e.e._ 8@9@0@z.} ]@n+V.^@  ",
"  @ I v a@k.l._ _ _ D._ _ _ q.b@c@d@e@*@f@_ @ @ g@h@i@r+%+r+r+r+j@k@r+j@l@m@n@o@p@@ '.'._ } _ q@/._ _ e.e._ r@s@t@s.C+u@F.z Z   ",
"+ @ v@*.j.@ @ @ @ @ @ @ @ @ @ @ @ @ @ @ @ @ @ w@x@y@z@r+r+r+r+r+A@B@Q.r+r+%+y@C@N.a.@ @ @ @ @ @ @ @ @ @ @ @ @ @ @ @ @ f.F.z H D@",
"@ @ .@E@@ @ F@G@G@G@].G@N.G@].G@G@H@I@J@K@L@K@L@M@N@V+V+%+r+Q.5@O@5@B@5@r+W+P@Q@R@S@T@U@V@K@W@].].G@].].N.N.G@G@G@F@@ E.7+V.X@  ",
"  @ .@@ ].N.Y@Z@`@ #.#u.`@`@`@Y@+#@###$#%#&#*#&#=#V+V+V+r+r+r+B@4@O@B@r+r+-#Q.;#>#,#,#'#$#)#!#~#Y@u.u..#Y@+#+#~# #+#@ @ {#V.H   ",
"  @ ]#@ N.N.^#/#(#_#:#<#[#<#<#<#[#}#|#1#2#3#2#4#R.V+V+r+r+r+r+r+k@k@k@r+r+r+r+5#1#6#>@7#8#>@9#0#0#a#b#c#d#e#f#g#h#i#F@@ {#z &.  ",
"# @ ]#@ F@F@j#k#l#m#%+R.%+R.%+R.R.R.R.R.R.R.Q.r+%+R.%+r+r+r+r+r+r+r+r+r+5@5@r+-#r+V+j@j@r+r+V+V+R.V+V+R.V+n#o#p#q#r#N.@ {#z z+D@",
"# @ v@@ @ w@s#t#u#v#w#R.R.R.%+%+R.R.R.%+r+r+r+-#W+r+x#y#z#%+r+r+%+%+%+A#B#C#-#r+r+r+5@5@r+r+Q.r+r+r+%+%+D#E#F#G#H#I#@ @ F.V.2.  ",
"+ @ ~ *.@ @ ].N.J#K#L#M#R.R.%+%+R.R.R.5#r+r+r+k@r+N#O#@ P#Q#%+%+%+V+R#S#@ T#U#r+A@V#W#r+5@r+k@B@X#Q.r+%+Y#Z#`# $N.@ @ E.F.z H   ",
"  i.0 .$+$@ @ F@U.@$#$$$%$R.R.R.R.R.R.r+r+r+r+r+5#&$@ *$@ =$R.R.Q.R.-$@ *$@ ;$r+V#V#V#O@r+r+B@V#Q.>$R.,$'$)$!$D+@ @ ~${$F.]$^$  ",
"  @ ~ *.=./$@ @ ($_$:$<$[$}$|$R.%+5#r+r+r+r+O@B@r+1$@ *$@ -$R.R.R.R.2$@ *$@ 3$r+V#B@k@Q.r+r+V#k@4$|$5$6$7$8$9$@ @ 0$a$y+b$7 &.  ",
"  @ P+v =.3.l.@ @ w@a.c$d$e$f$%+r+r+r+r+r+B@B@V#Q.g$@ *$@ h$R.R.R.R.-$@ *$@ 3$r+V#V#B@5@O@k@B@Q.Q.f$i$j$k$7.U.@ l$m$n$u@b$z H   ",
"@ @ I v =.3.l._ ^.@ @ o$p$q$r$s$R.%+r+X#t$B@A@A@B@u$@ @ @ v$R.R.%+R.-$@ @ @ w$X#X#V#V#V#B@x$5@%+y$z$A$B$C$@ @ @ D$E$q@y+7+V.H   ",
"+ @ v@*.=.3.l._ _ @ @ N.F$G$H$I$2#D#5@V#B@B@V#V#X#w$  @   v$R.R.R.R.J$  @   K$4@X#V#V#V#V#5@%+L$M$N$O$P$7.@ Q$e._ _ } O+g.G H   ",
"+ @ v@+@w -.l._ _ ^.@ @ a.R$S$T$U$V$l@B@O@5@V#k@r+1$      -$V+R.R.R.W$      X$5@B@V#V#V#k@Y$Z$`$ %.%+%p@@ @ x+/._ _ } f.{#V.z+  ",
"  @ v@+@w -.l._ D$E$@%@ @ N.#%S$$%%%&%*%r+j@W#r+r+=%-%  ;%>%,%R.R.R.>%'%  )%!%r+4@V#V#r+~%'${%]%^%/%(%@ @ _%:%e./._ _ y+g.V.H   ",
"  i.v@+@W.3.l.| <%[%}%|%@ @ G@1%2%3%3%4%5%r+j@G+r+6%7%@ 8%9%R.R.%+%+0%a%  b%c%r+V#5@%+5%d%e%e%f%1%N.@ _ /.E$/.^./._ _ E.{#z &.  ",
"  @ P+*.@@/$l.q@g%h%_@J.i%@ @ a.j%k%l%m%n%r+-#r+j@V+o%p%q%V+R.r+%+r+%+q%p%r%r+Q.V#V#5@n%r$l%s%t%7.@ @ _ _ C+_ +.e._ _ E.u%V.8+  ",
"  @ P+E@@@v%l._ w%b+x%y%z%e.@ @ @ A%B%C%D%r+r+j@r+%+r+X#z@B@Q.r+r+O@Q.%+j@O@B@V#V#V#O@n%E%F%G%7.@ @ _ D._ _ _ _ _ } } f.H%I%H   ",
"  @ v@E@+$J%K%_ } L%M%c. +_ _ _ @ F@N.N%O%Q.-#V#Q.r+r+Q.k@Q.r+r+k@B@B@V#P%V#V#V#V#V#B@Q%R%7.p@@ @ _ _ _ /._ s.z.+._ } u@H%z H S%",
"@ @ T%l.U%J%+@} _ _ V%W%/.e._ _ @ ].F@X%Y%x$r+r+r+r+r+r+r+r+r+5#r+V#V#V#V#V#V#P%V#V#V#Z%`%N.].@  &_ _ ^.^./._ _ _ e._ .&g.z z+D@",
"# @ v@*.@@/$l._ +.'.e.e.e./.^./.@ +&@&#&$&Q.%+W+%+r+r+W+r+r+r+r+j@V#V#V#%&&&V#V#V#W#V#*&=&-&;&@ >&_ _ '+e.e./._ _ e._ `+g.z H   ",
"  @ .@+@=.J%l._ +._ _ ^.^.^./.e.@ ,&'&)&!&Q.r+r+5#r+r+r+r+r+r+r+O@V#V#~&{&W#W#W#V#V#V#]&^&/&!#@ @ D.s._ e.e.'+e._ _ _ u@H%s ^@  ",
"  @ .@+@(&/$l._ _ _ /./.^.^.@ @ _&:&<&[&r+r+k@k@4@r+r+r+r+r+r+j@4@O@V#4@W#W#%&{&}&V#V#V#|&1&2&3&@ @ _ _ _ _ e.^.+./.D.4&5&z &.  ",
"# @ v@E@@@/$l._ _ _ /././.e.@ ].N.6&7&r+r+r+4@X#k@-#r+r+D#8&9&8&8&0&0&n#V#W#W#a&V#V#V#V#V#b&c&($].@ _ _ _ +.^.+.e./._ u@g.d&e&S%",
"  @ P+*.j.#@l._ _ _ e././._ @ w@N.f&1#%+r+r+r+r+r+r+R.R.5%g&h&r$i$g&g&8&B@V#V#V#V#V#V#V#V#4$i&].U.@ j&k&l&_ _ /._ _ _ `+b$B ^$  ",
"# i.v@E@@@/$l._ _ _ e.: _ _ @ m&n&o&%+r+r+r+r+-#Q.$+p&q&r&s&t&`%u&v&w&x&y&5%z&V#V#V#V#V#V#x$A&B&Z@@ C&D&E&_ _ _ _ < [ u@F&G&H&  ",
"  @ .@+@j.3.+@_ _ /.e.e.I&J&@ K&L&M&r+r+r+r+r+r+x$N&O&r$P&Q&R&Z+7.S&P&T&i$U&V&x$5@V#V#P%V#5@W&X&Y&@ Z&~@,+_ _ _ `& *.*+*@*y t   ",
"  @ P+E@j.#@l._ ^._ _ _ #*$*@ %*&*$&Q.R.R.-#**V$=*%%M$-*;*>*,*7.o+'*)*!*~*M${*y$]*^*O@V#a&~&/*(*_*@ _ _ _ _ _ _ :*9@`&4&n+<*t A+",
"  @ T%H.j.#@l././.s._ _ [*}*@ 1%f%$&%+%+|*1*2*h&3*4*5*6*@ @ @ @ @ @ @ @ 7*8*9*0*a*b*1*%+j@r+$&c*1%@ @ +._ _ _ _ !@d*e*f*g*h*^$D@",
"@ @ v@+@@@3.+@e._ _ _ /.@ i*j*k*l*q+m*%+n*3%h&i$o*I+_*p*@ e.e.e.e./.C+@ u.q*_*r* %h&s*n*Y$R.t*u*Y&].i*@ e.e.e._ _ _ _ .&@*/$t   ",
"  @ v@E@@@v*+@e.: < w*`.@ G@].1%x*y*z*A*B*C*D*E*F*@ @ @ @ e.e._ _ e.^.@ @ @ @ G*E*H*I*B*J*K*L*M*_*j*@ @ e.6+: _ _ _ _ u@g.N*O*  ",
"  @ v@+@=.v%l.'+^._ x%0$@ F@P*Q*0*s&R*U$M$S*N.1@N.@ @ ,._ /._ _ _ _ T*U*V*W*@ @ X*o+Y*M$Z*`* =.=+=@=@ @ #=$=%=s.z.} } @.&=y H   ",
"  @ I +@=./$H.'+^.+.*===@ p@-=;=>=,='=)=!=~=@ @ @ @ {=_ /./._ /._ _ ]=^=/=(=_=@ @ @ :=t%<='=[=`*O&}=N.@ |=1=2=/._ /._ @.&=z 3=D@",
"  @ I +@U%J%l.+.e.e.e.: @ F@4=5=r$6=Z+G@@ @ @ e._ _ _ _ e.e._ e._ _ ]=7=8=(=9=_ _ @ @ @ X*0=a=i$b=c=G@@ d=Y.b+/.e.e._ @.&=z 3=  ",
"@ i.T%e==./$l._ e.e.e.e.@ @ @ @ @ @ @ @ @ @ _ e.e.e.e.e.e.e._ e.e._ ~@f=g=h=i=_ e.e.e.@ @ G@j=k=l=m=U.@ +.'._ C+/._ _ @.5&V.^@. ",
". @ .@+@@@v%K%_ e.e.e.^.@ @ @ @ @ @ @ _ n=o=p=_ '+e.e.e.e.e._ /.e.e._ _ _ e._ _ /.e.e.e.e.@ @ @ @ @ @ @ e.'+'+e.e._ s.4&&=V.H   ",
". @ q=e=r=/$l.} _ /./.^.^._ /./.e./._ ( s=t=u=_ /.e.e.e.e././._ e.'+/._ _ _ +._ /.e.e.e./.e./.D$/.e.e.e.e.e././._ _ s.@.g.A v=D@",
"  i.w=] @@h*l._ _ e.e.e.e.e._ _ e.e./.e.x=y=V%_ _ /./.^./.e.e._ : e.^._ z=A=B=/.'+'+C=D=E=e.e.6+e.e.e.e.e././._ F=G=H=f*@*7 3=D@",
"  @ w=I=@@h*9+_ _ /.e.e.e.e._ _ _ e.e.e.e.: e.e.e.e.e.e.e.e.e.e.e.e.e._ J=K=L=/.{.M=N=O=P=e.e.e.e.e./._ _ e.: _ Q=R=S=T=U=J%&.  ",
"+ @ q=] V=W=X=Y=[ _ _ e.e.6+/._ _ e.e.e.e.e.e.e.e.e.e.6+e.e.e.e.e.e./._ Z=H=`=_ ^.+. -.-!@/.e.e.e././._ _ e.e./.+-@-#-u@b$D 3=  ",
"  @ $-I=V=C %-#./.s.z._ /./.e.e._ e.e._ /./././.e.e.6+&-/./.^./.e.e._ _ _ } s.D.^._ _ _ _ _ _ +.^.^./._ _ _ e._ _ _ _ @.*-V.H   ",
"  i.=---7 D ;-W >-,-,-'-'-)-r r !-~-~-!-'-'-'-'-'-r r r {-r '-'-'-r '-!-'-!->-'-'-'-'-'-!-!-!-!-{-'-'-]-^-'-'-!-!-'-'-/-(-V.Z D@",
"  _-:-V.V.7 7 J%J%J%V.J%J%J%J%J%J%J%J%J%J%J%J%J%J%J%J%J%J%J%J%J%J%J%J%J%J%J%J%J%J%J%J%J%J%J%J%J%J%J%-.J%J%J%J%J%J%7 7 7 7 z Z D@",
"    <-[-[-}-}-[-[-[-[-}-}-[-|-[-|-[-[-1-1-[-1-[-}-}-[-[-[-}-[-[-[-1-1-[-1-1-2-3-[-[-[-}-}-[-[-[-[-1-}-}-[-[-[-[-[-[-[-}-4-[-5-  ",
"                                    D@D@      D@D@        D@    D@D@D@    D@    D@D@  D@D@D@D@    D@D@    D@        D@          "};
