/* XPM */
static char * collectible_semi_right_64_xpm[] = {
"64 64 932 2",
"  	c #010101",
". 	c #000101",
"+ 	c #010100",
"@ 	c #000000",
"# 	c #000100",
"$ 	c #583A24",
"% 	c #5A3A23",
"& 	c #5A3923",
"* 	c #5B3923",
"= 	c #5B3A23",
"- 	c #5B3A22",
"; 	c #5B3922",
"> 	c #5C3A23",
", 	c #5A3922",
"' 	c #462B19",
") 	c #2B190E",
"! 	c #1B1008",
"~ 	c #9C5F34",
"{ 	c #A15F31",
"] 	c #A16032",
"^ 	c #A06031",
"/ 	c #A16031",
"( 	c #A26130",
"_ 	c #A36131",
": 	c #A36031",
"< 	c #A26030",
"[ 	c #A26031",
"} 	c #A26131",
"| 	c #A36130",
"1 	c #A16030",
"2 	c #A25F31",
"3 	c #A15F30",
"4 	c #A15E31",
"5 	c #A05E32",
"6 	c #7B4825",
"7 	c #532F18",
"8 	c #382111",
"9 	c #000001",
"0 	c #9C5F35",
"a 	c #A15E32",
"b 	c #8D532C",
"c 	c #8C532C",
"d 	c #8C532B",
"e 	c #8D522B",
"f 	c #8D542B",
"g 	c #8D542C",
"h 	c #8C542B",
"i 	c #8D532B",
"j 	c #8B542B",
"k 	c #8B542C",
"l 	c #8D532A",
"m 	c #8C542A",
"n 	c #8C532A",
"o 	c #8B532B",
"p 	c #8C542C",
"q 	c #8C522B",
"r 	c #734323",
"s 	c #533019",
"t 	c #371F10",
"u 	c #9D5F35",
"v 	c #A05F31",
"w 	c #573018",
"x 	c #532E18",
"y 	c #522E18",
"z 	c #522F19",
"A 	c #522E19",
"B 	c #522F18",
"C 	c #522E16",
"D 	c #522F17",
"E 	c #522E17",
"F 	c #512E16",
"G 	c #532F1A",
"H 	c #371F11",
"I 	c #9D6034",
"J 	c #563017",
"K 	c #63341B",
"L 	c #65351B",
"M 	c #6F4123",
"N 	c #704224",
"O 	c #704223",
"P 	c #6F4223",
"Q 	c #6F4222",
"R 	c #704222",
"S 	c #704122",
"T 	c #6F4224",
"U 	c #6A3B1E",
"V 	c #66351B",
"W 	c #67351A",
"X 	c #5C311A",
"Y 	c #512F19",
"Z 	c #351F11",
"` 	c #9D5F34",
" .	c #803D1F",
"..	c #853E1E",
"+.	c #A36132",
"@.	c #010401",
"#.	c #020301",
"$.	c #010301",
"%.	c #020302",
"&.	c #020402",
"*.	c #955028",
"=.	c #883E1E",
"-.	c #853D1E",
";.	c #6D361B",
">.	c #361F11",
",.	c #9F5F31",
"'.	c #573118",
").	c #532E17",
"!.	c #8A4825",
"~.	c #8E4825",
"{.	c #A36033",
"].	c #A36032",
"^.	c #B66F3B",
"/.	c #BA723C",
"(.	c #A76433",
"_.	c #A46033",
":.	c #978529",
"<.	c #A46132",
"[.	c #A46131",
"}.	c #B16B38",
"|.	c #B9713B",
"1.	c #AB6735",
"2.	c #98542B",
"3.	c #8E4724",
"4.	c #874221",
"5.	c #6B361B",
"6.	c #543019",
"7.	c #382011",
"8.	c #532E16",
"9.	c #E6914D",
"0.	c #F09851",
"a.	c #B36C39",
"b.	c #B39B1F",
"c.	c #B49C1D",
"d.	c #D68647",
"e.	c #EF9951",
"f.	c #C47A40",
"g.	c #A46031",
"h.	c #935028",
"i.	c #6E371C",
"j.	c #361E11",
"k.	c #010000",
"l.	c #573017",
"m.	c #522E15",
"n.	c #9F5F32",
"o.	c #B56F39",
"p.	c #B76F3A",
"q.	c #A56333",
"r.	c #D78848",
"s.	c #E08E4B",
"t.	c #AF6B37",
"u.	c #A36231",
"v.	c #B39D1E",
"w.	c #D7BA1A",
"x.	c #A0851C",
"y.	c #A26132",
"z.	c #CA7F43",
"A.	c #BD743D",
"B.	c #A36232",
"C.	c #935027",
"D.	c #6D371B",
"E.	c #381F10",
"F.	c #A05F32",
"G.	c #EB9751",
"H.	c #F09951",
"I.	c #AE6936",
"J.	c #A36133",
"K.	c #0F100F",
"L.	c #020503",
"M.	c #BBA522",
"N.	c #EDCB04",
"O.	c #D8B204",
"P.	c #63551A",
"Q.	c #532F19",
"R.	c #563018",
"S.	c #AF6534",
"T.	c #B06633",
"U.	c #E08E4D",
"V.	c #E4904D",
"W.	c #AC6735",
"X.	c #AE6533",
"Y.	c #B16633",
"Z.	c #0F1110",
"`.	c #010202",
" +	c #B7A01F",
".+	c #EDCC03",
"++	c #E2BF06",
"@+	c #6B5E1D",
"#+	c #020304",
"$+	c #A46032",
"%+	c #A45F33",
"&+	c #D5783B",
"*+	c #D87A3A",
"=+	c #A96332",
"-+	c #CF7539",
";+	c #D8783A",
">+	c #0E0F0E",
",+	c #020303",
"'+	c #B69E1F",
")+	c #F3D201",
"!+	c #F2D303",
"~+	c #746920",
"{+	c #A46030",
"]+	c #6C371B",
"^+	c #371F12",
"/+	c #9F5F33",
"(+	c #CB743A",
"_+	c #CE7539",
":+	c #A86332",
"<+	c #C67138",
"[+	c #CE7438",
"}+	c #0F0F0E",
"|+	c #010201",
"1+	c #B7A120",
"2+	c #F5D501",
"3+	c #F3D503",
"4+	c #73681F",
"5+	c #A26231",
"6+	c #AA6432",
"7+	c #AE6633",
"8+	c #6C361B",
"9+	c #B8A321",
"0+	c #F4D501",
"a+	c #F2D502",
"b+	c #74681F",
"c+	c #010204",
"d+	c #C57036",
"e+	c #D8793A",
"f+	c #BB6C35",
"g+	c #934F27",
"h+	c #372011",
"i+	c #020201",
"j+	c #AC6533",
"k+	c #A46232",
"l+	c #CEB21C",
"m+	c #F3D301",
"n+	c #F2D302",
"o+	c #AF961D",
"p+	c #907918",
"q+	c #C06E36",
"r+	c #D07639",
"s+	c #B66A34",
"t+	c #934F28",
"u+	c #9C6034",
"v+	c #D17639",
"w+	c #D77A3A",
"x+	c #D9B402",
"y+	c #E8C605",
"z+	c #F4D401",
"A+	c #F6D701",
"B+	c #DCB803",
"C+	c #CFAA03",
"D+	c #7B671B",
"E+	c #945027",
"F+	c #362010",
"G+	c #9C6135",
"H+	c #9F6032",
"I+	c #573117",
"J+	c #532E15",
"K+	c #B06B37",
"L+	c #B26B38",
"M+	c #D27639",
"N+	c #D77939",
"O+	c #AB6432",
"P+	c #BEA21C",
"Q+	c #E8C503",
"R+	c #EFCF03",
"S+	c #F5D601",
"T+	c #F4D701",
"U+	c #E4C203",
"V+	c #DCB904",
"W+	c #84711D",
"X+	c #AC6836",
"Y+	c #B26C38",
"Z+	c #AA6635",
"`+	c #925027",
" @	c #381F11",
".@	c #532F15",
"+@	c #E8944F",
"@@	c #F19951",
"#@	c #D57A3B",
"$@	c #D17638",
"%@	c #B36834",
"&@	c #AC6633",
"*@	c #A46231",
"=@	c #010302",
"-@	c #C9B11F",
";@	c #F4D601",
">@	c #F3D501",
",@	c #948322",
"'@	c #D58547",
")@	c #F29C52",
"!@	c #CB8043",
"~@	c #563016",
"{@	c #E8934E",
"]@	c #AF6A37",
"^@	c #A66330",
"/@	c #D27839",
"(@	c #AD6533",
"_@	c #7D6A22",
":@	c #D9BE1F",
"<@	c #F5D602",
"[@	c #938222",
"}@	c #A36030",
"|@	c #CE8144",
"1@	c #E7934E",
"2@	c #C37A40",
"3@	c #945028",
"4@	c #9C6035",
"5@	c #CB7337",
"6@	c #AB6533",
"7@	c #806B1C",
"8@	c #D6AE04",
"9@	c #EECD05",
"0@	c #938223",
"a@	c #A15E30",
"b@	c #A05D2F",
"c@	c #A25F30",
"d@	c #9F6031",
"e@	c #020403",
"f@	c #826F1D",
"g@	c #DAB404",
"h@	c #EDCC04",
"i@	c #F4D500",
"j@	c #A99320",
"k@	c #6B5A18",
"l@	c #392012",
"m@	c #9E6031",
"n@	c #AC6835",
"o@	c #998821",
"p@	c #E4C104",
"q@	c #D4AE03",
"r@	c #967B1E",
"s@	c #6D371C",
"t@	c #9B6035",
"u@	c #573119",
"v@	c #532F16",
"w@	c #EC9550",
"x@	c #070803",
"y@	c #5A4E23",
"z@	c #5A4D1C",
"A@	c #594D1C",
"B@	c #584C1C",
"C@	c #594C1B",
"D@	c #645721",
"E@	c #6C6024",
"F@	c #AC9825",
"G@	c #F6D702",
"H@	c #E4C303",
"I@	c #D8B502",
"J@	c #A78E1D",
"K@	c #62541F",
"L@	c #61521F",
"M@	c #5B4D1C",
"N@	c #594B1B",
"O@	c #574A19",
"P@	c #594B1E",
"Q@	c #080906",
"R@	c #030804",
"S@	c #532F17",
"T@	c #E7924F",
"U@	c #EC944F",
"V@	c #AB6634",
"W@	c #CFAD22",
"X@	c #D1AD08",
"Y@	c #CFAB06",
"Z@	c #CEAA07",
"`@	c #CFA907",
" #	c #D0AB07",
".#	c #E3C10B",
"+#	c #F3D407",
"@#	c #F4D604",
"##	c #F3D600",
"$#	c #F2D401",
"%#	c #F3D302",
"&#	c #E9C806",
"*#	c #D9B607",
"=#	c #D2B006",
"-#	c #CFAD06",
";#	c #CFAC06",
">#	c #D1AC06",
",#	c #D0AD1D",
"'#	c #191607",
")#	c #CEAC1E",
"!#	c #CEAA02",
"~#	c #D4AF03",
"{#	c #D9B304",
"]#	c #DAB403",
"^#	c #D7B203",
"/#	c #E6C403",
"(#	c #F3D500",
"_#	c #F3D401",
":#	c #E5CA1F",
"<#	c #E1C829",
"[#	c #EBCE19",
"}#	c #E5CA1E",
"|#	c #E4CA26",
"1#	c #EFD317",
"2#	c #E6C603",
"3#	c #D8B602",
"4#	c #D9B802",
"5#	c #DAB703",
"6#	c #CDAE1C",
"7#	c #151204",
"8#	c #CCAD1D",
"9#	c #D3B101",
"0#	c #F2D204",
"a#	c #F4D602",
"b#	c #F3D502",
"c#	c #837525",
"d#	c #010109",
"e#	c #B7A021",
"f#	c #F2D403",
"g#	c #746921",
"h#	c #010209",
"i#	c #BFA923",
"j#	c #F5D502",
"k#	c #F3D402",
"l#	c #E7CA24",
"m#	c #181506",
"n#	c #030504",
"o#	c #9E5F32",
"p#	c #563118",
"q#	c #533016",
"r#	c #C3A72C",
"s#	c #C5A81E",
"t#	c #ECD00C",
"u#	c #F3D601",
"v#	c #8D8240",
"w#	c #404140",
"x#	c #B9A42F",
"y#	c #F5D701",
"z#	c #F1D503",
"A#	c #7E7539",
"B#	c #3F3F3C",
"C#	c #C2AB2B",
"D#	c #F2D501",
"E#	c #EFD104",
"F#	c #E9CE28",
"G#	c #A26232",
"H#	c #A66331",
"I#	c #A86431",
"J#	c #A56331",
"K#	c #924F27",
"L#	c #542F18",
"M#	c #382010",
"N#	c #060503",
"O#	c #DDC524",
"P#	c #F6D801",
"Q#	c #F4D702",
"R#	c #F8F2C7",
"S#	c #FDFEF9",
"T#	c #F6E894",
"U#	c #F2D504",
"V#	c #F9F4C6",
"W#	c #FDFDF7",
"X#	c #F6E683",
"Y#	c #F5D801",
"Z#	c #F1D204",
"`#	c #D1AD02",
" $	c #D38446",
".$	c #F09A51",
"+$	c #C97D41",
"@$	c #6E371B",
"#$	c #A56131",
"$$	c #0A0803",
"%$	c #010303",
"&$	c #DEC52B",
"*$	c #F4D404",
"=$	c #F4D502",
"-$	c #F5D703",
";$	c #F1EBBF",
">$	c #F2F3F0",
",$	c #F1E28F",
"'$	c #F2D604",
")$	c #F0EABE",
"!$	c #F2F2EE",
"~$	c #F2E17E",
"{$	c #F5D802",
"]$	c #F0D104",
"^$	c #ECCE0F",
"/$	c #CDAD21",
"($	c #D28346",
"_$	c #F09852",
":$	c #C97C41",
"<$	c #0D0804",
"[$	c #020203",
"}$	c #C3A31F",
"|$	c #DAB201",
"1$	c #EBCA02",
"2$	c #827624",
"3$	c #B8A21F",
"4$	c #736920",
"5$	c #BFAA23",
"6$	c #D5B001",
"7$	c #BD9F1C",
"8$	c #050605",
"9$	c #A46130",
"0$	c #A56130",
"a$	c #080503",
"b$	c #C0A42E",
"c$	c #D5B420",
"d$	c #EACC0D",
"e$	c #817524",
"f$	c #010207",
"g$	c #F2D703",
"h$	c #746B23",
"i$	c #BDA822",
"j$	c #EACB0D",
"k$	c #D0AF1F",
"l$	c #BBA02D",
"m$	c #010405",
"n$	c #A66131",
"o$	c #A56031",
"p$	c #000102",
"q$	c #C6AF1B",
"r$	c #827623",
"s$	c #010306",
"t$	c #F0D403",
"u$	c #726924",
"v$	c #010205",
"w$	c #C0AB26",
"x$	c #C6B01D",
"y$	c #C37036",
"z$	c #A56030",
"A$	c #C6AF1F",
"B$	c #F4D503",
"C$	c #F3D602",
"D$	c #837721",
"E$	c #010305",
"F$	c #B7A11E",
"G$	c #736923",
"H$	c #BFAB25",
"I$	c #C5AF22",
"J$	c #D67839",
"K$	c #BA6B35",
"L$	c #EB9652",
"M$	c #EF9952",
"N$	c #F09953",
"O$	c #EF9853",
"P$	c #AC901A",
"Q$	c #D2AF03",
"R$	c #E5C502",
"S$	c #827521",
"T$	c #B6A11E",
"U$	c #F3D404",
"V$	c #726923",
"W$	c #BEA823",
"X$	c #E4C502",
"Y$	c #D7B301",
"Z$	c #B69A1E",
"`$	c #030304",
" %	c #ED9651",
".%	c #F29B53",
"+%	c #AB6734",
"@%	c #000003",
"#%	c #A78D22",
"$%	c #D4B216",
"%%	c #EACB0E",
"&%	c #F2D602",
"*%	c #F0D201",
"=%	c #817522",
"-%	c #020208",
";%	c #B8A31F",
">%	c #F1D403",
",%	c #726922",
"'%	c #010203",
")%	c #E9CA0D",
"!%	c #D6B215",
"~%	c #A99026",
"{%	c #6D381C",
"]%	c #A76332",
"^%	c #EB9650",
"/%	c #F09A52",
"(%	c #AD6835",
"_%	c #010402",
":%	c #453B15",
"<%	c #A28D1F",
"[%	c #DCBB02",
"}%	c #E5C404",
"|%	c #F5D702",
"1%	c #837625",
"2%	c #010107",
"3%	c #B5A11F",
"4%	c #F2D500",
"5%	c #746B22",
"6%	c #BBA622",
"7%	c #F2D301",
"8%	c #B7A220",
"9%	c #453B14",
"0%	c #6E381C",
"a%	c #542F19",
"b%	c #9F6033",
"c%	c #A26032",
"d%	c #EA9650",
"e%	c #95801E",
"f%	c #DDB902",
"g%	c #E6C503",
"h%	c #E0C61D",
"i%	c #D9C123",
"j%	c #E6CB16",
"k%	c #F2D400",
"l%	c #E2C821",
"m%	c #DCC425",
"n%	c #EBCE17",
"o%	c #F1D201",
"p%	c #A9971F",
"q%	c #020202",
"r%	c #9D6035",
"s%	c #A86433",
"t%	c #A96433",
"u%	c #010404",
"v%	c #97821E",
"w%	c #DAB902",
"x%	c #E2C103",
"y%	c #AB9920",
"z%	c #C37840",
"A%	c #944F27",
"B%	c #A45F30",
"C%	c #98831D",
"D%	c #D9B901",
"E%	c #E2C203",
"F%	c #AA9721",
"G%	c #C57A41",
"H%	c #DF8444",
"I%	c #F4D400",
"J%	c #A99620",
"K%	c #A66332",
"L%	c #573218",
"M%	c #E38745",
"N%	c #978220",
"O%	c #DAB802",
"P%	c #E2C303",
"Q%	c #A9971E",
"R%	c #955128",
"S%	c #6F381C",
"T%	c #994F29",
"U%	c #B7971F",
"V%	c #D1B31A",
"W%	c #EBCB02",
"X%	c #EFD103",
"Y%	c #D6BB17",
"Z%	c #B79C1D",
"`%	c #A39153",
" &	c #502F18",
".&	c #351F10",
"+&	c #A15D30",
"@&	c #D8AF01",
"#&	c #F3D701",
"$&	c #EACB02",
"%&	c #DBB701",
"&&	c #B0941F",
"*&	c #D28245",
"=&	c #EA924E",
"-&	c #C3773E",
";&	c #020204",
">&	c #D5AD01",
",&	c #E5C403",
"'&	c #E7C902",
")&	c #DAB601",
"!&	c #B39720",
"~&	c #D88647",
"{&	c #F29850",
"]&	c #C87A40",
"^&	c #72381C",
"/&	c #562F18",
"(&	c #3A2111",
"_&	c #904925",
":&	c #8F4624",
"<&	c #010502",
"[&	c #D8B001",
"}&	c #E8C902",
"|&	c #DDBA01",
"1&	c #B69A20",
"2&	c #AD6836",
"3&	c #A96634",
"4&	c #CD8043",
"5&	c #E6914B",
"6&	c #C4793F",
"7&	c #965128",
"8&	c #6F371B",
"9&	c #8C4322",
"0&	c #8B3F1F",
"a&	c #A56132",
"b&	c #E7C703",
"c&	c #EECF03",
"d&	c #F1D303",
"e&	c #E0C103",
"f&	c #E0C003",
"g&	c #E1C003",
"h&	c #E2C003",
"i&	c #F2D203",
"j&	c #EFD102",
"k&	c #EBCC02",
"l&	c #BEA620",
"m&	c #D48546",
"n&	c #512D18",
"o&	c #9F5B30",
"p&	c #9F5B2F",
"q&	c #C5AD1E",
"r&	c #EED204",
"s&	c #D5B002",
"t&	c #D5AF03",
"u&	c #D5AE02",
"v&	c #EDCE03",
"w&	c #C5AE21",
"x&	c #030402",
"y&	c #B26B37",
"z&	c #A96533",
"A&	c #954F28",
"B&	c #72381B",
"C&	c #542F16",
"D&	c #C7AF1F",
"E&	c #EDCF02",
"F&	c #E1C203",
"G&	c #D3B819",
"H&	c #91791F",
"I&	c #927A20",
"J&	c #907920",
"K&	c #8B741D",
"L&	c #CFB117",
"M&	c #E3C204",
"N&	c #EFD003",
"O&	c #C5AD23",
"P&	c #522F16",
"Q&	c #E08E4C",
"R&	c #AA6636",
"S&	c #E9CD03",
"T&	c #D5B201",
"U&	c #BEA01E",
"V&	c #020305",
"W&	c #020406",
"X&	c #030505",
"Y&	c #BD9E22",
"Z&	c #D5AF01",
"`&	c #EAC903",
" *	c #C4AD20",
".*	c #512E17",
"+*	c #351E10",
"@*	c #AC6736",
"#*	c #A69322",
"$*	c #DDC41B",
"%*	c #F4D801",
"&*	c #EACE03",
"**	c #E2C403",
"=*	c #CDB417",
"-*	c #9D8520",
";*	c #8D792A",
">*	c #826D1E",
",*	c #836E1C",
"'*	c #846E1E",
")*	c #8A7321",
"!*	c #9B8431",
"~*	c #9E8721",
"{*	c #CAAC18",
"]*	c #EBCD03",
"^*	c #D8BE1C",
"/*	c #908047",
"(*	c #BE6C34",
"_*	c #CE7336",
":*	c #B66933",
"<*	c #6F371C",
"[*	c #B46E39",
"}*	c #B66F3A",
"|*	c #A56232",
"1*	c #010407",
"2*	c #D9C024",
"3*	c #F2D701",
"4*	c #E6C703",
"5*	c #D6B203",
"6*	c #A58C1C",
"7*	c #4A401B",
"8*	c #C7A30E",
"9*	c #CCA501",
"0*	c #CDA501",
"a*	c #C9A305",
"b*	c #5D4F1C",
"c*	c #A5891F",
"d*	c #D3AE02",
"e*	c #ECCC06",
"f*	c #D4AE02",
"g*	c #BC9C20",
"h*	c #131411",
"i*	c #C46F35",
"j*	c #D77937",
"k*	c #BB6B34",
"l*	c #372010",
"m*	c #0B0905",
"n*	c #DBC226",
"o*	c #F4D301",
"p*	c #E9CB02",
"q*	c #E4C703",
"r*	c #C6AA19",
"s*	c #A1861D",
"t*	c #796723",
"u*	c #493F1A",
"v*	c #CAA301",
"w*	c #CBA401",
"x*	c #C8A305",
"y*	c #5D4F1A",
"z*	c #7A6723",
"A*	c #A1861C",
"B*	c #C7AC19",
"C*	c #E5C503",
"D*	c #DFBC06",
"E*	c #D3AC02",
"F*	c #C39F1F",
"G*	c #040301",
"H*	c #151613",
"I*	c #AB6433",
"J*	c #A06032",
"K*	c #010406",
"L*	c #DBC225",
"M*	c #E1C304",
"N*	c #D4B402",
"O*	c #937E1F",
"P*	c #4C401A",
"Q*	c #CAA40F",
"R*	c #C7A306",
"S*	c #5C501B",
"T*	c #020404",
"U*	c #020407",
"V*	c #8D771C",
"W*	c #D0AB03",
"X*	c #D7AF01",
"Y*	c #C2A01E",
"Z*	c #030301",
"`*	c #141512",
" =	c #010307",
".=	c #DAC226",
"+=	c #C3AA1D",
"@=	c #A58D1B",
"#=	c #4B401B",
"$=	c #C9A410",
"%=	c #CAA401",
"&=	c #C7A304",
"*=	c #8B7621",
"==	c #7D6A1E",
"-=	c #4A3F1C",
";=	c #020307",
">=	c #6D5D21",
",=	c #A78B1D",
"'=	c #B59617",
")=	c #D1AC03",
"!=	c #C09F1E",
"~=	c #030401",
"{=	c #151614",
"]=	c #9E6135",
"^=	c #573217",
"/=	c #D9C126",
"(=	c #847624",
"_=	c #020405",
":=	c #4C421D",
"<=	c #C6A40F",
"[=	c #C8A302",
"}=	c #C9A302",
"|=	c #CAA402",
"1=	c #C9A403",
"2=	c #C8A204",
"3=	c #7B6518",
"4=	c #020506",
"5=	c #705E19",
"6=	c #D5AE03",
"7=	c #C2A11F",
"8=	c #040402",
"9=	c #171715",
"0=	c #362011",
"a=	c #9F6136",
"b=	c #070604",
"c=	c #010304",
"d=	c #B29E2D",
"e=	c #C4AC1F",
"f=	c #A78C21",
"g=	c #A28718",
"h=	c #A18518",
"i=	c #A18619",
"j=	c #A2861A",
"k=	c #A3881D",
"l=	c #63541D",
"m=	c #594C1D",
"n=	c #A88D20",
"o=	c #998228",
"p=	c #030302",
"q=	c #171815",
"r=	c #99542B",
"s=	c #934A26",
"t=	c #9C582D",
"u=	c #A16132",
"v=	c #000200",
"w=	c #010200",
"x=	c #954E28",
"y=	c #8A3E20",
"z=	c #99532B",
"A=	c #965028",
"B=	c #71381C",
"C=	c #583117",
"D=	c #552F16",
"E=	c #8D4926",
"F=	c #904A25",
"G=	c #9E5B2E",
"H=	c #9F5C2F",
"I=	c #9D592E",
"J=	c #A05E2F",
"K=	c #9E6136",
"L=	c #833D20",
"M=	c #A4602F",
"N=	c #70371C",
"O=	c #6E4326",
"P=	c #704324",
"Q=	c #65351C",
"R=	c #724324",
"S=	c #724424",
"T=	c #724323",
"U=	c #734324",
"V=	c #724423",
"W=	c #734424",
"X=	c #734423",
"Y=	c #724223",
"Z=	c #724322",
"`=	c #6C3C1E",
" -	c #5D3219",
".-	c #010001",
"+-	c #502F1A",
"@-	c #2C1B11",
"#-	c #2D1A0E",
"$-	c #2D1A0F",
"%-	c #2C1A0E",
"&-	c #2E1A0E",
"*-	c #2E1A0F",
"=-	c #2E190E",
"--	c #2D190E",
";-	c #1D1009",
"        .                                                         +           . .                   @ @ .     @ @ @     @ @ @   ",
"# @ $ % & * * = - = = = = = * ; - = ; & ; = - = - - > - ; , * ; , ; , , ; * , & * , , - = & , = ; , ; , - - ; , * & , ; ' ) !   ",
"# @ ~ { { ] ^ / ( _ : _ _ _ < < < < [ / / } | ( } _ _ } [ < 1 1 1 1 1 ^ 1 ^ / / 1 ^ 1 1 ( / [ ( < 1 < 1 < < < 2 3 4 4 5 6 7 8   ",
"9 @ 0 a b c d e b f f g f f h d i i j k d f f d d l f i d d h d m j n o d c n h p o n d d c c f n d d h d n n n q q e c r s t   ",
"  @ u v w x y y y z z z z y y A y y y y B B y C C C y y y D y E E E y y y E B B E C C C E y B z y B y C E y y E D y F E B G H   ",
"  @ I v J E K L M M N O O O P P P O O O O O P Q R R O O O O @ @ @ @ @ @ @ @ @ O Q S R O O O P T O P O O S O O O O U V W X Y Z   ",
"  @ ` v w E  ...[ _ _ _ _ < } } +._ _ _ _ _ _ _ _ _ } _ @ @.#.#.$.#.#.%.%.%.&.@ _ _ _ _ _ _ _ +._ _ _ _ _ +._ _ _ *.=.-.;.s >.  ",
"  @ I ,.'.).!.~.[ _ +._ _ _ _ +.{.].^./.(._ _ +._ {._._ @ @ @ @ @ @ @ @ @ @ :.@ @ @ _ _ +._ <.[.}.|.1._ _ _ _ _ _ 2.3.4.5.6.7.  ",
"@ @ I v w 8.5 _ _ _ _ _ _ +._ +.{.].9.0.a.} _ [.]._._.@ @ @ @ @ @ @ @ @ @ @ b.c.%.@ _ ].{._ _ _ d.e.f._ _ _ g._ _ _ _ h.i.z j.  ",
"  k.I v l.m.n._ _ _ _ _ o.p.q._ <.+.r.s.t.u.g.[.].].@ @ @ @ @ @ @ @ @ @ @ @ v.w.x.@ @ {.{.[._ y.z.s.A._ _ _ [.+.B.B.} C.D.7 E.  ",
"  k.I v J m.F._ +.+._ [.G.H.I._ {.J.+._ _ g.g.<.{.].K.@.@.L.@ @ @ @ @ @ @ @ M.N.O.P.@ @ _ ].{.+.+.: g._ _ [.<._.<._ } C.D.Q.7.  ",
"+ @ I v R.C F.g.{.{.S.T.U.V.W._ +.+.g.g.g.<.<.g.X.Y.Z.`.@ @ @ @ @ @ @ @ @ @  +.+++@+#+@ _ g.g._.+._ _ _ [.g.g._.$+_ _ h.D.z >.  ",
"+ k.` v R.E n._ ].%+&+*+=+_ _ _ _ g.g.g.<.<.<.$+-+;+>+,+@ @ @ @ @ @ @ @ @ @ '+)+!+~+,+@ _ g.g.$++._ _ _ [.{+g._.$+_ _ h.]+Q.^+  ",
"  @ ` v R.E /+_ +.{.(+_+:+_ _ _ g.g.g.[.[.[.[.{.<+[+}+|+@ @ @ @ @ @ @ @ @ @ 1+2+3+4+,+@ _ _ _ _ 5+_ 6+7+:+[.[.[.[._ _ C.8+z H   ",
"  @ ` v J 8.n._ _ _ _ } } _ _ _ _ _ _ _ _ <.<.+.: @ K.@ @ @ @ @ @ @ @ @ @ @ 9+0+a+b+c+@ _ _ _ _ _ [.d+e+f+_ _ u._ _ _ g+]+B h+i+",
"  @ I v R.E n.} _ _ _ _ _ _ _ g.j+7+k+_ +.<.<.+.@ @ @ @ @ @ @ @ @ @ @ @ @ @ l+m+n+o+p+@ @ _ [._ g.$+q+r+s+_ _ _ _ _ _ t+D.6.7.  ",
"@ @ u+v J C n._ _ _ _ _ _ _ [.g.v+w+j+_ _ <.[.@ @ @ @ @ @ @ @ @ @ @ @ @ @ x+y+z+A+B+C+D+@ @ g.g.g.$+_ _ _ B.k+_ _ _ _ E+i.Q.F+. ",
". @ G+H+I+J+n._ _ ]._ _ _ _ K+L+M+N+O+_ _ +.+.@ @ @ @ @ @ @ @ @ @ @ @ `.P+Q+R+S+T+U+V+W+,+@ _ _ [._ [.[._ [.X+Y+Z+<._ `+]+Q. @  ",
"  @ u+v I+.@n.} _ _ 5+B.u._ +@@@#@$@%@&@*@_ [.@ @ @ @ @ @ @ @ @ @ @ @ =@-@S+;@;@;@>@0+,@%.@ _ } _ _ _ g.g._ '@)@!@5+} `+8+Q. @  ",
"  @ I v ~@m.n._ _ _ B._ _ _ s.{@]@^@/@N+(@_ _ @ @ @ @ @ @ @ @ @ @ @ @ _@:@2+S+0+0+0+<@[@%.@ _ }@[._ _ g.g._ |@1@2@u.k+3@D.z Z   ",
"+ @ 4@,.l.J+n._ _ <._ _ _ +.| _ _ _ 5@M+6@_ _ @ @ @ @ @ @ @ @ @ @ =@7@8@9@S+2+0+0+0+0+0@,+@ a@b@c@_ _ _ _ _ _ : _ _ _ h.D.z H |+",
"@ @ G+d@J C n._ _ _ _ _ _ _ @ @ @ @ @ @ @ @ @ @ @ @ @ @ @ @ @ @ @ e@f@g@h@2+2+2+i@0+0+j@k@@ @ @ @ @ @ @ @ @ {._ +._ _ C.]+Q.l@  ",
"  @ G+m@R.).n._ _ _ W.n@u.@ `.=@=@`.=@=@`.=@`.`.$.$.|+`.`.|+|+`.`.#+o@<@0+i@;@S+S+;@S+p@q@r@`.=@,+@ @ #.`.@ @ +.+.+._ C.s@Q.H   ",
"  @ t@d@u@v@n._ _ _ w@@@W.@ @ @ @ @ @ @ @ @ @ @ @ x@y@z@A@B@B@C@D@E@F@G@;@;@T+;@S+;@0+H@I@J@K@L@M@N@O@P@Q@R@@ @ _ _ _ h.s@z >.  ",
"# @ t@,.R.S@H+_ _ ].T@U@V@@ @ @ @ @ @ @ @ @ @ @ @ @ W@X@Y@Z@`@ #.#+#@#;@##;@S+S+;@i@0+$#%#&#*#=#-#;#>#,#'#=@@ @ g._ _ g+s@z h+|+",
"# @ 4@n.R.7 H+_ _ _ | | _ @ @ @ @ @ @ @ @ @ @ @ @ @ )#!#~#{#]#^#/#(#(#_#:#<#[#_#>@}#|#1#>@2#I@3#4#5#I@6#7#=@@ @ g._ _ g+D.Q.7.  ",
"+ @ ~ ,.'.S@n._ _ _ _ _ _ @ @ @ @ @ @ @ @ @ @ @ @ @ 8#9#0#a#0+0+;@;@;@b#c#d#e#0+f#g#h#i#>@0+j#0+;@a#k#l#m#n#@ @ g.[._ C.D.z H   ",
"  k.0 o#p#q#n._ _ _ _ _ _ @ @ @ @ @ @ @ @ @ @ @ @ @ r#s#t#u#T+T+S+;@;@b#v#w#x#y#z#A#B#C#;@;@y#;@;@D#E#F#@ @ @ G#H#I#J#K#D.L#M#  ",
"  @ ~ ,.'.v@n._ _ _ _ _ [.[.@ @ @ @ @ @ @ @ @ @ @ @ N#9 O#P#T+y#;@0+;@Q#R#S#T#;@U#V#W#X#Y#T+T+;@T+Z#`#@ @ @ *@_  $.$+$g+@$7 >.  ",
"  @ u+v '.8.n._ +.$+#$$+$+g.g.@ @ @ @ @ @ @ @ @ @ @ $$%$&$*$=$0+;@;@;@-$;$>$,$S+'$)$!$~${$T+;@_#]$^$/$@ @ g._ _ ($_$:$3@@$z H   ",
"@ @ I v '.8.n._ <.<.g.[._ g._.@ @ @ @ @ @ @ @ @ @ @ <$[$}$|$1$0+;@S+S+b#2$9 3$S+U#4$@ 5$0+;@A+.+6$7$@ 8$@ g.g.: 9$0$}@g+]+Q.H   ",
"+ @ 4@,.'.8.n._ _ g.g._ _ <.g.@ @ @ @ @ @ @ @ @ @ @ a$9 b$c$d$;@;@;@;@b#e$f$3$;@g$h$c+i$0+0+S+j$k$l$9 m$@ n$o$g._ _ } t+i.G H   ",
"+ @ 4@H+w ).n._ _ <.<.+._ _ g.g.@ @ p$@ @ @ @ @ @ @ @ @ @ p$q$y#;@0+0+>@r$s$9+>@t$u$v$w$Y#u#$#x$9 @ @ @ y$N+f+[._ _ } h.s@Q.h+  ",
"  @ 4@H+w ).n._ 9$0$#$z$_ _ _ _ _ @ @ @ @ @ @ @ @ @ @ @ @ e@A$B$=$i@;@C$D$E$F$_#!+G$v$H$T+a+t$I$%$@ @ _ y$J$K$g.[._ _ g+i.Q.H   ",
"  k.4@H+R.8.n.| L$M$N$O$1.+._ +.$+$+@ @ @ @ @ @ @ @ @ @ @ ,+P$Q$R$u#S+>@S$v$T$_#U$V$v$W$$#X$Y$Z$`$@ @ _ [.0$[.<.[._ _ C.s@z >.  ",
"  @ u+,.I+v@n.}@ %.%@@H.+%: g.g.g.$+g.@ =@@ @ @ @ @ @ @ @ @%#%$%%%&%_#*%=%-%;%0+>%,%'%W$y#)%!%~%@ @ @ _ _ k+_ +.g._ _ C.{%Q.^+  ",
"  @ u+d@I+q#n._ ]%:+^%/%(%g.g.g.g.g.g.@ _%@ @ @ @ @ @ @ @ @ @ :%<%[%}%|%1%2%3%4%'$5%v$6%7%8%9%@ @ @ _ B._ _ _ _ _ } } h.0%a%H   ",
"  @ 4@d@p#S@b%_ } c%d%e.W._ _ _ _ _ _ @ =@@ @ @ @ @ @ @ @ @ @ %$e%f%g%T+h%i%j%k%>@l%m%n%o%p%`.@ @ _ _ _ [._ u.5++._ } 3@0%z H q%",
"@ @ r%n.u@S@H+} _ _ s%t%[.g._ _ _ _ g.@ =@@ @ @ @ @ @ @ @ @ @ u%v%w%x%;@;@0+;@;@i@0+i@i@(#y%'%@ z%_ _ <.<.[._ _ _ g._ A%i.z h+|+",
"# @ 4@,.I+v@n._ +.].g.g.g.[.<.[.$+$+B%@ %.@ @ @ @ @ @ @ @ @ %$m$C%D%E%;@2+2+S+S+;@;@i@>@_#F%@ @ G%_ _ $+g.g.[._ _ g._ E+i.z H   ",
"  @ G+H+'.S@n._ +._ _ <.<.<.[.g.$+$+H%@ =@@ @ @ @ @ @ @ @ @ @ m$v%D%E%S+;@;@;@;@;@;@;@0+I%J%@ @ K%B.u._ g.g.$+g._ _ _ 3@0%s  @  ",
"  @ G+H+L%v@n._ _ _ [.[.<.<.g.g.g.$+M%@ @ @ @ @ @ @ @ @ @ @ @ E$N%O%P%S+T+u#T+y#T+y#;@i@0+Q%@ @ @ _ _ _ _ _ g.<.+.[.B.R%S%z >.  ",
"# @ 4@d@I+v@n._ _ _ [.[.[.g.g.[.[.+.T%@ @ @ @ @ @ @ @ @ @ @ @ U%V%W%X%S+y#y#y#S+S+S+;@i@(#Y%Z%`%@ @ _ _ _ +.<.+.g.[._ 3@i. &.&q%",
"  @ u+,.l.J+n._ _ _ g.[.[._ g.[.+.+.+&@ @ @ @ @ @ @ @ @ @ @ @ @&g%S+0+0+S+S+2+2+S+;@;@;@#&$&%&&&`.@ *&=&-&_ _ [._ _ _ E+@$B M#  ",
"# k.4@d@I+v@n._ _ _ g.: _ _ _ <.]._ @ @ $.@ @ @ @ @ @ @ @ ;&@ >&,&;@S+;@S+2+2+;@S+S+S+;@T+'&)&!&`$@ ~&{&]&_ _ _ _ < [ 3@^&/&(&  ",
"  @ G+H+l.8.H+_ _ [.g.g._&:&3 _ <.@ @ @ <&@ @ @ @ @ @ @ @ @ @ [&,&;@2+0+S+;@;@;@;@S+;@0+(#}&|&1&#+@ 2&Y+3&_ _ _ 4&5&6&7&8&y t   ",
"  @ u+d@l.J+n._ <._ _ _ 9&0&a@[.a&@ @ @ @ @ @ @ @ @ @ @ @ @ @ b&c&;@S+;@d&e&f&g&h&i&0+0+;@j&k&l&%.@ _ _ _ _ _ _ m&)@4&R%8+n&t i+",
"  @ r%F.l.J+n.[.[.u._ _ o&p&: [.@ @ @ @ @ @ @ @ @ @ @ @ @ @ q&0+0+;@0+;@r&s&t&8@u&v&;@S+;@;@0+w&x&@ g.+._ _ _ _ X+y&z&A&B&C&M#|+",
"@ @ 4@H+I+8.H+g._ _ _ [.{.+.[.[.@ @ @ @ @ @ @ @ @ @ @ @ @ @ D&2+S+;@E&F&G&H&I&J&K&L&M&N&;@0+2+O&x&@ <.g.g.g.g._ _ _ _ A%8&v@t   ",
"  @ 4@d@I+P&H+g.: < Q&V.R&{.[.g.@ @ @ @ @ @ @ @ @ @ @ @ @ @ w&(#;@#&S&T&U&'%V&W&X&Y&Z&`&0+0+S+ *&.@ k+g.g.{+: _ _ _ _ 3@i..*+*  ",
"  @ 4@H+'.q#n.$+<._ ^%.$@*+.[.@ @ @ @ @ @ @ @ @ @ @ @ @ @ #*$*%*&***=*-*;*>*,*'*)*!*~*{*,&]*_#^*v%/*@ @ (*_*:*u.5+} } *.<*y H   ",
"  @ I H+'.v@F.$+<.+.[*}*|*_ g.@ @ @ @ @ @ @ @ @ @ @ @ 1*2*)+;@3*4*5*6*=@7*8*9*0*a*b*f$c*d*E%y#e*f*g*|+h*i*j*k*[._ [._ *.<*z l*|+",
"  @ I H+u@S@n.+.g.g.g.: : [.[.@ @ @ @ @ @ @ @ @ @ @ m*1*n*o*p*q*r*s*t*_%u*8*v*w*x*y*%.z*A*B*C*D*E*F*G*H*I*T.:+[.g.g._ *.<*z l*  ",
"@ k.r%J*'.v@n._ g.g.g.g.g.<.k+@ @ @ @ @ @ @ @ @ @ @ @ K*L*S+M*N*O*#+%.%.P*Q*v*v*R*S*&.T*U*V*W*X*@&Y*Z*`*+.]._ k+[._ _ *.S%Q. @. ",
". @ G+H+I+q#b%_ g.g.g.<.k++.].@ @ @ @ @ @ @ @ @ @ @ @  =.==$+=@=@ @ @ '%#=$=%=v*&=*===-=;=>=,='=)=!=~={=g.$+$+g.g._ u.R%<*Q.H   ",
". @ ]=J*^=v@n.} _ [.[.<.<._ [.@ @ @ @ @ @ @ @ @ @ @ m*s$/=X%(=U*@ $+@ _=:=<=[=}=|=1=2=3=U*W&4=5=6=7=8=9=g.g.[.[._ _ u.*.i.A 0=|+",
"  k.a=] I+C&n._ _ g.g.g.g.g._ @ @ @ @ @ @ @ @ @ @ @ b=c=d=e=@ @ @ g.<.@ @ f=g=h=i=j=k=l=$.|+e@m=n=o=p=q=g.[.[._ r=s=t=A&8&7 l*|+",
"  @ a=u=I+C&/+_ _ [.g.g.g.g._ @ u%@ |+@ @ $.$.$.$.$.`._%#.%.@ g.g.g.g._ @ v=$.|+#.#.$.w=|+$.#.$.$.i+#.9=_ g.: _ x=y=z=A=B=S@>.  ",
"+ @ ]=] C=D=E=F=[ _ _ g.g.{+[._ @ @ @ @ @ @ @ @ @ @ @ @ @ @ g.g.g.g.[._ G=@ @ @ @ @ @ @ @ @ @ @ @ @ @ _ _ g.g.[.H=I=J=3@@$D l*  ",
"  @ K=u=C=C L==.[.u.5+_ [.[.g.g._ g.g._ [.[.[.[.g.g.{+M=[.[.<.[.g.g._ _ _ } u.B.<._ _ _ _ _ _ +.<.<.[._ _ _ g._ _ _ _ *.N=Q.H   ",
"  k.O=P=7 D Q=W R=S=S=T=T=U=r r V=W=W=V=T=T=T=T=T=r r r X=r T=T=T=r T=V=T=V=R=T=T=T=T=T=V=V=V=V=X=T=T=Y=Z=T=T=V=V=T=T=`= -Q.Z |+",
"  .-+-Q.Q.7 7 S@S@S@Q.S@S@S@S@S@S@S@S@S@S@S@S@S@S@S@S@S@S@S@S@S@S@S@S@S@S@S@S@S@S@S@S@S@S@S@S@S@S@S@).S@S@S@S@S@S@7 7 7 7 z Z |+",
"    @-#-#-$-$-#-#-#-#-$-$-#-%-#-%-#-#-&-&-#-&-#-$-$-#-#-#-$-#-#-#-&-&-#-&-&-*-=-#-#-#-$-$-#-#-#-#-&-$-$-#-#-#-#-#-#-#-$---#-;-  ",
"                                    |+|+      |+|+        |+    |+|+|+    |+    |+|+  |+|+|+|+    |+|+    |+        |+          "};
