/* XPM */
static char * collectible_semi_left_64_xpm[] = {
"64 64 928 2",
"  	c #010101",
". 	c #000101",
"+ 	c #010100",
"@ 	c #000000",
"# 	c #000100",
"$ 	c #583A24",
"% 	c #5A3A23",
"& 	c #5A3923",
"* 	c #5B3923",
"= 	c #5B3A23",
"- 	c #5B3A22",
"; 	c #5B3922",
"> 	c #5C3A23",
", 	c #5A3922",
"' 	c #462B19",
") 	c #2B190E",
"! 	c #1B1008",
"~ 	c #9C5F34",
"{ 	c #A15F31",
"] 	c #A16032",
"^ 	c #A06031",
"/ 	c #A16031",
"( 	c #A26130",
"_ 	c #A36131",
": 	c #A36031",
"< 	c #A26030",
"[ 	c #A26031",
"} 	c #A26131",
"| 	c #A36130",
"1 	c #A16030",
"2 	c #A25F31",
"3 	c #A15F30",
"4 	c #A15E31",
"5 	c #A05E32",
"6 	c #7B4825",
"7 	c #532F18",
"8 	c #382111",
"9 	c #000001",
"0 	c #9C5F35",
"a 	c #A15E32",
"b 	c #8D532C",
"c 	c #8C532C",
"d 	c #8C532B",
"e 	c #8D522B",
"f 	c #8D542B",
"g 	c #8D542C",
"h 	c #8C542B",
"i 	c #8D532B",
"j 	c #8B542B",
"k 	c #8B542C",
"l 	c #8D532A",
"m 	c #8C542A",
"n 	c #8C532A",
"o 	c #8B532B",
"p 	c #8C542C",
"q 	c #8C522B",
"r 	c #734323",
"s 	c #533019",
"t 	c #371F10",
"u 	c #9D5F35",
"v 	c #A05F31",
"w 	c #573018",
"x 	c #532E18",
"y 	c #522E18",
"z 	c #522F19",
"A 	c #522E19",
"B 	c #522F18",
"C 	c #522E16",
"D 	c #522F17",
"E 	c #522E17",
"F 	c #512E16",
"G 	c #532F1A",
"H 	c #371F11",
"I 	c #9D6034",
"J 	c #563017",
"K 	c #63341B",
"L 	c #65351B",
"M 	c #6F4123",
"N 	c #704224",
"O 	c #704223",
"P 	c #6F4223",
"Q 	c #6F4222",
"R 	c #704222",
"S 	c #704122",
"T 	c #6F4224",
"U 	c #6A3B1E",
"V 	c #66351B",
"W 	c #67351A",
"X 	c #5C311A",
"Y 	c #512F19",
"Z 	c #351F11",
"` 	c #9D5F34",
" .	c #803D1F",
"..	c #853E1E",
"+.	c #A36132",
"@.	c #020402",
"#.	c #020302",
"$.	c #020301",
"%.	c #010301",
"&.	c #010401",
"*.	c #955028",
"=.	c #883E1E",
"-.	c #853D1E",
";.	c #6D361B",
">.	c #361F11",
",.	c #9F5F31",
"'.	c #573118",
").	c #532E17",
"!.	c #8A4825",
"~.	c #8E4825",
"{.	c #A36033",
"].	c #A36032",
"^.	c #B66F3B",
"/.	c #BA723C",
"(.	c #A76433",
"_.	c #978529",
":.	c #A46132",
"<.	c #A46131",
"[.	c #B16B38",
"}.	c #B9713B",
"|.	c #AB6735",
"1.	c #98542B",
"2.	c #8E4724",
"3.	c #874221",
"4.	c #6B361B",
"5.	c #543019",
"6.	c #382011",
"7.	c #532E16",
"8.	c #E6914D",
"9.	c #F09851",
"0.	c #B36C39",
"a.	c #B49C1D",
"b.	c #B39B1F",
"c.	c #D68647",
"d.	c #EF9951",
"e.	c #C47A40",
"f.	c #A46031",
"g.	c #935028",
"h.	c #6E371C",
"i.	c #361E11",
"j.	c #010000",
"k.	c #573017",
"l.	c #522E15",
"m.	c #9F5F32",
"n.	c #B56F39",
"o.	c #B76F3A",
"p.	c #A56333",
"q.	c #D78848",
"r.	c #E08E4B",
"s.	c #AF6B37",
"t.	c #A0851C",
"u.	c #D7BA1A",
"v.	c #B39D1E",
"w.	c #A26132",
"x.	c #CA7F43",
"y.	c #BD743D",
"z.	c #A36232",
"A.	c #935027",
"B.	c #6D371B",
"C.	c #381F10",
"D.	c #A05F32",
"E.	c #EB9751",
"F.	c #F09951",
"G.	c #AE6936",
"H.	c #A36133",
"I.	c #63551A",
"J.	c #D8B204",
"K.	c #EDCB04",
"L.	c #BBA522",
"M.	c #020503",
"N.	c #0F100F",
"O.	c #A46033",
"P.	c #532F19",
"Q.	c #563018",
"R.	c #AF6534",
"S.	c #B06633",
"T.	c #E08E4D",
"U.	c #E4904D",
"V.	c #AC6735",
"W.	c #020304",
"X.	c #6B5E1D",
"Y.	c #E2BF06",
"Z.	c #EDCC03",
"`.	c #B7A01F",
" +	c #010202",
".+	c #0F1110",
"++	c #AC6433",
"@+	c #B06533",
"#+	c #B46B37",
"$+	c #B66E39",
"%+	c #A96634",
"&+	c #A46032",
"*+	c #A45F33",
"=+	c #D5783B",
"-+	c #D87A3A",
";+	c #A96332",
">+	c #020303",
",+	c #746920",
"'+	c #F2D303",
")+	c #F3D201",
"!+	c #B69E1F",
"~+	c #0E0F0E",
"{+	c #CA7237",
"]+	c #DA7A3A",
"^+	c #EA924C",
"/+	c #F09850",
"(+	c #C0773E",
"_+	c #A46030",
":+	c #6C371B",
"<+	c #371F12",
"[+	c #9F5F33",
"}+	c #CB743A",
"|+	c #CE7539",
"1+	c #A86332",
"2+	c #73681F",
"3+	c #F3D503",
"4+	c #F5D501",
"5+	c #B7A120",
"6+	c #010201",
"7+	c #0F0F0E",
"8+	c #CD7438",
"9+	c #D87A39",
"0+	c #E28E4B",
"a+	c #E4924E",
"b+	c #BB733D",
"c+	c #A26231",
"d+	c #AA6432",
"e+	c #AE6633",
"f+	c #6C361B",
"g+	c #010204",
"h+	c #74681F",
"i+	c #F2D502",
"j+	c #F4D501",
"k+	c #B8A321",
"l+	c #B56934",
"m+	c #C57036",
"n+	c #D8793A",
"o+	c #BB6C35",
"p+	c #A36231",
"q+	c #934F27",
"r+	c #372011",
"s+	c #020201",
"t+	c #AC6533",
"u+	c #A46232",
"v+	c #907918",
"w+	c #AF961D",
"x+	c #F2D302",
"y+	c #F3D301",
"z+	c #CEB21C",
"A+	c #B26834",
"B+	c #C06E36",
"C+	c #D07639",
"D+	c #B66A34",
"E+	c #934F28",
"F+	c #9C6034",
"G+	c #D17639",
"H+	c #D77A3A",
"I+	c #7B671B",
"J+	c #CFAA03",
"K+	c #DCB803",
"L+	c #F6D701",
"M+	c #F4D401",
"N+	c #E8C605",
"O+	c #D9B402",
"P+	c #945027",
"Q+	c #362010",
"R+	c #9C6135",
"S+	c #9F6032",
"T+	c #573117",
"U+	c #532E15",
"V+	c #B06B37",
"W+	c #B26B38",
"X+	c #D27639",
"Y+	c #D77939",
"Z+	c #84711D",
"`+	c #DCB904",
" @	c #E4C203",
".@	c #F4D701",
"+@	c #F5D601",
"@@	c #EFCF03",
"#@	c #E8C503",
"$@	c #BEA21C",
"%@	c #AC6836",
"&@	c #B26C38",
"*@	c #AA6635",
"=@	c #925027",
"-@	c #381F11",
";@	c #532F15",
">@	c #E8944F",
",@	c #F19951",
"'@	c #D57A3B",
")@	c #D17638",
"!@	c #948322",
"~@	c #F3D501",
"{@	c #F4D601",
"]@	c #C9B11F",
"^@	c #010302",
"/@	c #D58547",
"(@	c #F29C52",
"_@	c #CB8043",
":@	c #563016",
"<@	c #E8934E",
"[@	c #AF6A37",
"}@	c #A66330",
"|@	c #938222",
"1@	c #F5D602",
"2@	c #D9BE1F",
"3@	c #7D6A22",
"4@	c #A36030",
"5@	c #CE8144",
"6@	c #E7934E",
"7@	c #C37A40",
"8@	c #945028",
"9@	c #9C6035",
"0@	c #938223",
"a@	c #EECD05",
"b@	c #D6AE04",
"c@	c #806B1C",
"d@	c #A15E30",
"e@	c #A05D2F",
"f@	c #A25F30",
"g@	c #9F6031",
"h@	c #6B5A18",
"i@	c #A99320",
"j@	c #F4D500",
"k@	c #EDCC04",
"l@	c #DAB404",
"m@	c #826F1D",
"n@	c #020403",
"o@	c #392012",
"p@	c #9E6031",
"q@	c #967B1E",
"r@	c #D4AE03",
"s@	c #E4C104",
"t@	c #998821",
"u@	c #6D371C",
"v@	c #9B6035",
"w@	c #573119",
"x@	c #532F16",
"y@	c #030804",
"z@	c #080906",
"A@	c #594B1E",
"B@	c #574A19",
"C@	c #594B1B",
"D@	c #5B4D1C",
"E@	c #61521F",
"F@	c #62541F",
"G@	c #A78E1D",
"H@	c #D8B502",
"I@	c #E4C303",
"J@	c #F6D702",
"K@	c #AC9825",
"L@	c #6C6024",
"M@	c #645721",
"N@	c #594C1B",
"O@	c #584C1C",
"P@	c #594D1C",
"Q@	c #5A4D1C",
"R@	c #5A4E23",
"S@	c #070803",
"T@	c #532F17",
"U@	c #191607",
"V@	c #D0AD1D",
"W@	c #D1AC06",
"X@	c #CFAC06",
"Y@	c #CFAD06",
"Z@	c #D2B006",
"`@	c #D9B607",
" #	c #E9C806",
".#	c #F3D302",
"+#	c #F2D401",
"@#	c #F3D600",
"##	c #F4D604",
"$#	c #F3D407",
"%#	c #E3C10B",
"&#	c #D0AB07",
"*#	c #CFA907",
"=#	c #CEAA07",
"-#	c #CFAB06",
";#	c #D1AD08",
">#	c #CFAD22",
",#	c #151204",
"'#	c #CDAE1C",
")#	c #DAB703",
"!#	c #D9B802",
"~#	c #D8B602",
"{#	c #E6C603",
"]#	c #EFD317",
"^#	c #E4CA26",
"/#	c #E5CA1E",
"(#	c #F3D401",
"_#	c #EBCE19",
":#	c #E1C829",
"<#	c #E5CA1F",
"[#	c #F3D500",
"}#	c #E6C403",
"|#	c #D7B203",
"1#	c #DAB403",
"2#	c #D9B304",
"3#	c #D4AF03",
"4#	c #CEAA02",
"5#	c #CEAC1E",
"6#	c #030504",
"7#	c #181506",
"8#	c #E7CA24",
"9#	c #F3D402",
"0#	c #F4D602",
"a#	c #F5D502",
"b#	c #BFA923",
"c#	c #010209",
"d#	c #746921",
"e#	c #F2D403",
"f#	c #B7A021",
"g#	c #010109",
"h#	c #837525",
"i#	c #F3D502",
"j#	c #F2D204",
"k#	c #D3B101",
"l#	c #CCAD1D",
"m#	c #9E5F32",
"n#	c #563118",
"o#	c #533016",
"p#	c #E9CE28",
"q#	c #EFD104",
"r#	c #F2D501",
"s#	c #F5D701",
"t#	c #C2AB2B",
"u#	c #3F3F3C",
"v#	c #7E7539",
"w#	c #F1D503",
"x#	c #B9A42F",
"y#	c #404140",
"z#	c #8D8240",
"A#	c #F3D601",
"B#	c #ECD00C",
"C#	c #C5A81E",
"D#	c #C3A72C",
"E#	c #A26232",
"F#	c #A66331",
"G#	c #A86431",
"H#	c #A56331",
"I#	c #924F27",
"J#	c #542F18",
"K#	c #382010",
"L#	c #D1AD02",
"M#	c #F1D204",
"N#	c #F5D801",
"O#	c #F6E683",
"P#	c #FDFDF7",
"Q#	c #F9F4C6",
"R#	c #F2D504",
"S#	c #F6E894",
"T#	c #FDFEF9",
"U#	c #F8F2C7",
"V#	c #F4D702",
"W#	c #F6D801",
"X#	c #DDC524",
"Y#	c #060503",
"Z#	c #A46231",
"`#	c #D38446",
" $	c #F09A51",
".$	c #C97D41",
"+$	c #6E371B",
"@$	c #A56131",
"#$	c #CDAD21",
"$$	c #ECCE0F",
"%$	c #F0D104",
"&$	c #F5D802",
"*$	c #F2E17E",
"=$	c #F2F2EE",
"-$	c #F0EABE",
";$	c #F2D604",
">$	c #F1E28F",
",$	c #F2F3F0",
"'$	c #F1EBBF",
")$	c #F5D703",
"!$	c #F4D502",
"~$	c #F4D404",
"{$	c #DEC52B",
"]$	c #010303",
"^$	c #0A0803",
"/$	c #D28346",
"($	c #F09852",
"_$	c #C97C41",
":$	c #050605",
"<$	c #BD9F1C",
"[$	c #D5B001",
"}$	c #BFAA23",
"|$	c #736920",
"1$	c #B8A21F",
"2$	c #827624",
"3$	c #EBCA02",
"4$	c #DAB201",
"5$	c #C3A31F",
"6$	c #020203",
"7$	c #0D0804",
"8$	c #A46130",
"9$	c #A56130",
"0$	c #010405",
"a$	c #BBA02D",
"b$	c #D0AF1F",
"c$	c #EACB0D",
"d$	c #BDA822",
"e$	c #746B23",
"f$	c #F2D703",
"g$	c #010207",
"h$	c #817524",
"i$	c #EACC0D",
"j$	c #D5B420",
"k$	c #C0A42E",
"l$	c #080503",
"m$	c #A66131",
"n$	c #A56031",
"o$	c #C6B01D",
"p$	c #C0AB26",
"q$	c #010205",
"r$	c #726924",
"s$	c #F0D403",
"t$	c #010306",
"u$	c #827623",
"v$	c #C6AF1B",
"w$	c #000102",
"x$	c #C37036",
"y$	c #A56030",
"z$	c #C5AF22",
"A$	c #BFAB25",
"B$	c #736923",
"C$	c #B7A11E",
"D$	c #010305",
"E$	c #837721",
"F$	c #F3D602",
"G$	c #F4D503",
"H$	c #C6AF1F",
"I$	c #D67839",
"J$	c #BA6B35",
"K$	c #EB9652",
"L$	c #EF9952",
"M$	c #F09953",
"N$	c #EF9853",
"O$	c #030304",
"P$	c #B69A1E",
"Q$	c #D7B301",
"R$	c #E4C502",
"S$	c #BEA823",
"T$	c #726923",
"U$	c #F3D404",
"V$	c #B6A11E",
"W$	c #827521",
"X$	c #E5C502",
"Y$	c #D2AF03",
"Z$	c #AC901A",
"`$	c #ED9651",
" %	c #F29B53",
".%	c #AB6734",
"+%	c #A99026",
"@%	c #D6B215",
"#%	c #E9CA0D",
"$%	c #010203",
"%%	c #726922",
"&%	c #F1D403",
"*%	c #B8A31F",
"=%	c #020208",
"-%	c #817522",
";%	c #F0D201",
">%	c #F2D602",
",%	c #EACB0E",
"'%	c #D4B216",
")%	c #A78D22",
"!%	c #000003",
"~%	c #6D381C",
"{%	c #A76332",
"]%	c #EB9650",
"^%	c #F09A52",
"/%	c #AD6835",
"(%	c #453B14",
"_%	c #B7A220",
":%	c #F2D301",
"<%	c #BBA622",
"[%	c #746B22",
"}%	c #F2D500",
"|%	c #B5A11F",
"1%	c #010107",
"2%	c #837625",
"3%	c #F5D702",
"4%	c #E5C404",
"5%	c #DCBB02",
"6%	c #A28D1F",
"7%	c #453B15",
"8%	c #010402",
"9%	c #6E381C",
"0%	c #542F19",
"a%	c #9F6033",
"b%	c #A26032",
"c%	c #EA9650",
"d%	c #A9971F",
"e%	c #F1D201",
"f%	c #EBCE17",
"g%	c #DCC425",
"h%	c #E2C821",
"i%	c #F2D400",
"j%	c #E6CB16",
"k%	c #D9C123",
"l%	c #E0C61D",
"m%	c #E6C503",
"n%	c #DDB902",
"o%	c #95801E",
"p%	c #020202",
"q%	c #9D6035",
"r%	c #A86433",
"s%	c #A96433",
"t%	c #AB9920",
"u%	c #E2C103",
"v%	c #DAB902",
"w%	c #97821E",
"x%	c #010404",
"y%	c #D58647",
"z%	c #EE9851",
"A%	c #C37840",
"B%	c #944F27",
"C%	c #AA9721",
"D%	c #E2C203",
"E%	c #D9B901",
"F%	c #98831D",
"G%	c #D98848",
"H%	c #F19A52",
"I%	c #C57A41",
"J%	c #A99620",
"K%	c #F4D400",
"L%	c #A36034",
"M%	c #A86434",
"N%	c #AB6634",
"O%	c #A66332",
"P%	c #573218",
"Q%	c #A9971E",
"R%	c #E2C303",
"S%	c #DAB802",
"T%	c #978220",
"U%	c #955128",
"V%	c #6F381C",
"W%	c #A39153",
"X%	c #B79C1D",
"Y%	c #D6BB17",
"Z%	c #EFD103",
"`%	c #EBCB02",
" &	c #D1B31A",
".&	c #B7971F",
"+&	c #502F18",
"@&	c #351F10",
"#&	c #B0941F",
"$&	c #DBB701",
"%&	c #EACB02",
"&&	c #F3D701",
"*&	c #D8AF01",
"=&	c #D28245",
"-&	c #EA924E",
";&	c #C3773E",
">&	c #B39720",
",&	c #DAB601",
"'&	c #E7C902",
")&	c #E5C403",
"!&	c #D5AD01",
"~&	c #020204",
"{&	c #D88647",
"]&	c #F29850",
"^&	c #C87A40",
"/&	c #72381C",
"(&	c #562F18",
"_&	c #3A2111",
":&	c #904925",
"<&	c #8F4624",
"[&	c #B69A20",
"}&	c #DDBA01",
"|&	c #E8C902",
"1&	c #D8B001",
"2&	c #010502",
"3&	c #AD6836",
"4&	c #CD8043",
"5&	c #E6914B",
"6&	c #C4793F",
"7&	c #965128",
"8&	c #6F371B",
"9&	c #8C4322",
"0&	c #8B3F1F",
"a&	c #BEA620",
"b&	c #EBCC02",
"c&	c #EFD102",
"d&	c #F2D203",
"e&	c #E2C003",
"f&	c #E1C003",
"g&	c #E0C003",
"h&	c #E0C103",
"i&	c #F1D303",
"j&	c #EECF03",
"k&	c #E7C703",
"l&	c #D48546",
"m&	c #512D18",
"n&	c #9F5B30",
"o&	c #9F5B2F",
"p&	c #030402",
"q&	c #C5AE21",
"r&	c #EDCE03",
"s&	c #D5AE02",
"t&	c #D5AF03",
"u&	c #D5B002",
"v&	c #EED204",
"w&	c #C5AD1E",
"x&	c #B26B37",
"y&	c #A96533",
"z&	c #954F28",
"A&	c #72381B",
"B&	c #542F16",
"C&	c #C5AD23",
"D&	c #EFD003",
"E&	c #E3C204",
"F&	c #CFB117",
"G&	c #8B741D",
"H&	c #907920",
"I&	c #927A20",
"J&	c #91791F",
"K&	c #D3B819",
"L&	c #E1C203",
"M&	c #EDCF02",
"N&	c #C7AF1F",
"O&	c #522F16",
"P&	c #E08E4C",
"Q&	c #AA6636",
"R&	c #C4AD20",
"S&	c #EAC903",
"T&	c #D5AF01",
"U&	c #BD9E22",
"V&	c #030505",
"W&	c #020406",
"X&	c #020305",
"Y&	c #BEA01E",
"Z&	c #D5B201",
"`&	c #E9CD03",
" *	c #512E17",
".*	c #351E10",
"+*	c #908047",
"@*	c #D8BE1C",
"#*	c #EBCD03",
"$*	c #CAAC18",
"%*	c #9E8721",
"&*	c #9B8431",
"**	c #8A7321",
"=*	c #846E1E",
"-*	c #836E1C",
";*	c #826D1E",
">*	c #8D792A",
",*	c #9D8520",
"'*	c #CDB417",
")*	c #E2C403",
"!*	c #EACE03",
"~*	c #F4D801",
"{*	c #DDC41B",
"]*	c #A69322",
"^*	c #BE6C34",
"/*	c #CE7336",
"(*	c #B66933",
"_*	c #6F371C",
":*	c #B46E39",
"<*	c #B66F3A",
"[*	c #131411",
"}*	c #BC9C20",
"|*	c #D4AE02",
"1*	c #ECCC06",
"2*	c #D3AE02",
"3*	c #A5891F",
"4*	c #5D4F1C",
"5*	c #C9A305",
"6*	c #CDA501",
"7*	c #CCA501",
"8*	c #C7A30E",
"9*	c #4A401B",
"0*	c #A58C1C",
"a*	c #D6B203",
"b*	c #E6C703",
"c*	c #F2D701",
"d*	c #D9C024",
"e*	c #010407",
"f*	c #C46F35",
"g*	c #D77937",
"h*	c #BB6B34",
"i*	c #372010",
"j*	c #151613",
"k*	c #040301",
"l*	c #C39F1F",
"m*	c #D3AC02",
"n*	c #DFBC06",
"o*	c #E5C503",
"p*	c #C7AC19",
"q*	c #A1861C",
"r*	c #7A6723",
"s*	c #5D4F1A",
"t*	c #C8A305",
"u*	c #CBA401",
"v*	c #CAA301",
"w*	c #493F1A",
"x*	c #796723",
"y*	c #A1861D",
"z*	c #C6AA19",
"A*	c #E4C703",
"B*	c #E9CB02",
"C*	c #F4D301",
"D*	c #DBC226",
"E*	c #0B0905",
"F*	c #AB6433",
"G*	c #A06032",
"H*	c #141512",
"I*	c #030301",
"J*	c #C2A01E",
"K*	c #D7AF01",
"L*	c #D0AB03",
"M*	c #8D771C",
"N*	c #020407",
"O*	c #020404",
"P*	c #5C501B",
"Q*	c #C7A306",
"R*	c #CAA40F",
"S*	c #4C401A",
"T*	c #937E1F",
"U*	c #D4B402",
"V*	c #E1C304",
"W*	c #DBC225",
"X*	c #010406",
"Y*	c #151614",
"Z*	c #030401",
"`*	c #C09F1E",
" =	c #D1AC03",
".=	c #B59617",
"+=	c #A78B1D",
"@=	c #6D5D21",
"#=	c #020307",
"$=	c #4A3F1C",
"%=	c #7D6A1E",
"&=	c #8B7621",
"*=	c #C7A304",
"==	c #CAA401",
"-=	c #C9A410",
";=	c #4B401B",
">=	c #A58D1B",
",=	c #C3AA1D",
"'=	c #DAC226",
")=	c #010307",
"!=	c #9E6135",
"~=	c #573217",
"{=	c #171715",
"]=	c #040402",
"^=	c #C2A11F",
"/=	c #D5AE03",
"(=	c #705E19",
"_=	c #020506",
":=	c #7B6518",
"<=	c #C8A204",
"[=	c #C9A403",
"}=	c #CAA402",
"|=	c #C9A302",
"1=	c #C8A302",
"2=	c #C6A40F",
"3=	c #4C421D",
"4=	c #020405",
"5=	c #847624",
"6=	c #D9C126",
"7=	c #362011",
"8=	c #9F6136",
"9=	c #171815",
"0=	c #030302",
"a=	c #998228",
"b=	c #A88D20",
"c=	c #594C1D",
"d=	c #63541D",
"e=	c #A3881D",
"f=	c #A2861A",
"g=	c #A18619",
"h=	c #A18518",
"i=	c #A28718",
"j=	c #A78C21",
"k=	c #C4AC1F",
"l=	c #B29E2D",
"m=	c #010304",
"n=	c #070604",
"o=	c #99542B",
"p=	c #934A26",
"q=	c #9C582D",
"r=	c #A16132",
"s=	c #010200",
"t=	c #000200",
"u=	c #954E28",
"v=	c #8A3E20",
"w=	c #99532B",
"x=	c #965028",
"y=	c #71381C",
"z=	c #583117",
"A=	c #552F16",
"B=	c #8D4926",
"C=	c #904A25",
"D=	c #9F5C2F",
"E=	c #9D592E",
"F=	c #A05E2F",
"G=	c #9E6136",
"H=	c #833D20",
"I=	c #A4602F",
"J=	c #70371C",
"K=	c #6E4326",
"L=	c #704324",
"M=	c #65351C",
"N=	c #724324",
"O=	c #724424",
"P=	c #724323",
"Q=	c #734324",
"R=	c #724423",
"S=	c #734424",
"T=	c #734423",
"U=	c #724223",
"V=	c #724322",
"W=	c #6C3C1E",
"X=	c #5D3219",
"Y=	c #010001",
"Z=	c #502F1A",
"`=	c #2C1B11",
" -	c #2D1A0E",
".-	c #2D1A0F",
"+-	c #2C1A0E",
"@-	c #2E1A0E",
"#-	c #2E1A0F",
"$-	c #2E190E",
"%-	c #2D190E",
"&-	c #1D1009",
"        .                                                         +           . .                   @ @ .     @ @ @     @ @ @   ",
"# @ $ % & * * = - = = = = = * ; - = ; & ; = - = - - > - ; , * ; , ; , , ; * , & * , , - = & , = ; , ; , - - ; , * & , ; ' ) !   ",
"# @ ~ { { ] ^ / ( _ : _ _ _ < < < < [ / / } | ( } _ _ } [ < 1 1 1 1 1 ^ 1 ^ / / 1 ^ 1 1 ( / [ ( < 1 < 1 < < < 2 3 4 4 5 6 7 8   ",
"9 @ 0 a b c d e b f f g f f h d i i j k d f f d d l f i d d h d m j n o d c n h p o n d d c c f n d d h d n n n q q e c r s t   ",
"  @ u v w x y y y z z z z y y A y y y y B B y C C C y y y D y E E E y y y E B B E C C C E y B z y B y C E y y E D y F E B G H   ",
"  @ I v J E K L M M N O O O P P P O O O O O P Q R @ @ @ @ @ @ @ @ @ O O O O O O Q S R O O O P T O P O O S O O O O U V W X Y Z   ",
"  @ ` v w E  ...[ _ _ _ _ < } } +._ _ _ _ _ _ _ @ @.#.#.#.$.$.%.$.$.&.@ _ _ _ _ _ _ _ _ _ _ _ +._ _ _ _ _ +._ _ _ *.=.-.;.s >.  ",
"  @ I ,.'.).!.~.[ _ +._ _ _ _ +.{.].^./.(._ @ @ @ _.@ @ @ @ @ @ @ @ @ @ _ :.<._ _ _ _ _ +._ :.<.[.}.|._ _ _ _ _ _ 1.2.3.4.5.6.  ",
"@ @ I v w 7.5 _ _ _ _ _ _ +._ +.{.].8.9.0.} @ #.a.b.@ @ @ @ @ @ @ @ @ @ @ _ +._ _ _ _ ].{._ _ _ c.d.e._ _ _ f._ _ _ _ g.h.z i.  ",
"  j.I v k.l.m._ _ _ _ _ n.o.p._ :.+.q.r.s.@ @ t.u.v.@ @ @ @ @ @ @ @ @ @ @ @ +._ _ _ _ {.{.<._ w.x.r.y._ _ _ <.+.z.z.} A.B.7 C.  ",
"  j.I v J l.D._ +.+._ <.E.F.G._ {.H.+._ @ @ I.J.K.L.@ @ @ @ @ @ @ @ M.&.&.N.+._ _ _ _ +._ ].{.+.+.: f._ _ <.:.O.:._ } A.B.P.6.  ",
"+ @ I v Q.C D.f.{.{.R.S.T.U.V._ +.+.f.f.@ W.X.Y.Z.`.@ @ @ @ @ @ @ @ @ @  +.+++@+#+$+%+_ _ f.f.O.+._ _ _ <.f.f.O.&+_ _ g.B.z >.  ",
"+ j.` v Q.E m._ ].*+=+-+;+_ _ _ _ f.f.f.@ >+,+'+)+!+@ @ @ @ @ @ @ @ @ @ >+~+{+]+^+/+(+_ _ f.f.&++._ _ _ <._+f.O.&+_ _ g.:+P.<+  ",
"  @ ` v Q.E [+_ +.{.}+|+1+_ _ _ f.f.f.<.@ >+2+3+4+5+@ @ @ @ @ @ @ @ @ @ 6+7+8+9+0+a+b+} _ _ _ _ c+_ d+e+1+<.<.<.<._ _ A.f+z H   ",
"  @ ` v J 7.m._ _ _ _ } } _ _ _ _ _ _ _ @ g+h+i+j+k+@ @ @ @ @ @ @ @ @ @ @ N.@ -+l+_ _ _ _ _ _ _ _ <.m+n+o+_ _ p+_ _ _ q+:+B r+s+",
"  @ I v Q.E m.} _ _ _ _ _ _ _ f.t+e+u+@ @ v+w+x+y+z+@ @ @ @ @ @ @ @ @ @ @ @ @ @ A+_ _ <._ _ <._ f.&+B+C+D+_ _ _ _ _ _ E+B.5.6.  ",
"@ @ F+v J C m._ _ _ _ _ _ _ <.f.G+H+@ @ I+J+K+L+M+N+O+@ @ @ @ @ @ @ @ @ @ @ @ @ @ _ f.f.<.f.f.f.f.&+_ _ _ z.u+_ _ _ _ P+h.P.Q+. ",
". @ R+S+T+U+m._ _ ]._ _ _ _ V+W+X+Y+@ >+Z+`+ @.@+@@@#@$@ +@ @ @ @ @ @ @ @ @ @ @ @ <.f.f.f._ _ _ <._ <.<._ <.%@&@*@:._ =@:+P.-@  ",
"  @ F+v T+;@m.} _ _ c+z.p+_ >@,@'@)@@ #.!@j+~@{@{@{@+@]@^@@ @ @ @ @ @ @ @ @ @ @ @ f.].].<._ _ } _ _ _ f.f._ /@(@_@c+} =@f+P.-@  ",
"  @ I v :@l.m._ _ _ z._ _ _ r.<@[@}@@ #.|@1@j+j+j++@4+2@3@@ @ @ @ @ @ @ @ @ @ @ @ f.].]._ } _ 4@<._ _ f.f._ 5@6@7@p+u+8@B.z Z   ",
"+ @ 9@,.k.U+m._ _ :._ _ _ +.| _ _ _ @ >+0@j+j+j+j+4++@a@b@c@^@@ @ @ @ @ @ @ @ @ @ {.+._ _ _ d@e@f@_ _ _ _ _ _ : _ _ _ g.B.z H 6+",
"@ @ R+g@J C m._ _ _ @ @ @ @ @ @ @ @ @ h@i@j+j+j@4+4+4+k@l@m@n@@ @ @ @ @ @ @ @ @ @ @ @ @ @ @ @ @ @ @ _ <.<._ {._ +._ _ A.:+P.o@  ",
"  @ R+p@Q.).m._ _ @ @  +$.@ @ >+^@ +q@r@s@+@{@+@+@{@j@j+1@t@W. + +6+6+ + +6+%.%. + +^@ +^@^@ +^@^@ +@ f.f.&+{.+.+.+._ A.u@P.H   ",
"  @ v@g@w@x@m._ @ @ y@z@A@B@C@D@E@F@G@H@I@j+{@+@{@.@{@{@J@K@L@M@N@O@O@P@Q@R@S@@ @ @ @ @ @ @ @ @ @ @ @ f.f.<.<._ _ _ _ g.u@z >.  ",
"# @ v@,.Q.T@S+_ @ @ ^@U@V@W@X@Y@Z@`@ #.#+#j+j@{@+@+@{@@#{@##$#%#&#*#=#-#;#>#@ @ @ @ @ @ @ @ @ @ @ @ @ <.&+&+&+f.f._ _ q+u@z r+6+",
"# @ 9@m.Q.7 S+_ @ @ ^@,#'#H@)#!#~#H@{#~@]#^#/#~@(#_#:#<#(#[#[#}#|#1#2#3#4#5#@ @ @ @ @ @ @ @ @ @ @ @ @ _ +.:.f.f.f._ _ q+B.P.6.  ",
"+ @ ~ ,.'.T@m._ @ @ 6#7#8#9#0#{@j+a#j+~@b#c#d#e#j+f#g#h#i#{@{@{@j+j+0#j#k#l#@ @ @ @ @ @ @ @ @ @ @ @ @ _ _ z._ _ f.<._ A.B.z H   ",
"  j.0 m#n#o#m._ _ @ @ @ p#q#r#{@{@s#{@{@t#u#v#w#s#x#y#z#i#{@{@+@.@.@A#B#C#D#@ @ @ @ @ @ @ @ @ @ @ @ @ _ _ _ _ E#F#G#H#I#B.J#K#  ",
"  @ ~ ,.'.x@m._ _ _ @ @ @ L#M#.@{@.@.@N#O#P#Q#R#{@S#T#U#V#{@j+{@s#.@W#X#9 Y#@ @ @ @ @ @ @ @ @ @ @ @ f.<.f.<.Z#_ `# $.$q++$7 >.  ",
"  @ F+v '.7.m._ +.&+@$@ @ #$$$%$(#{@.@&$*$=$-$;$+@>$,$'$)${@{@{@j+!$~${$]$^$@ @ @ @ @ @ @ @ @ @ @ _ f.f.f.f._ _ /$($_$8@+$z H   ",
"@ @ I v '.7.m._ :.:.f.@ :$@ <$[$Z.L+{@j+}$@ |$R#+@1$9 2$i#+@+@{@j+3$4$5$6$7$@ @ @ @ @ @ @ @ @ @ @ _ _ ( _ f.f.: 8$9$4@q+:+P.H   ",
"+ @ 9@,.'.7.m._ _ f.f.@ 0$9 a$b$c$+@j+j+d$g+e$f${@1$g$h$i#{@{@{@{@i$j$k$9 l$@ @ @ @ @ @ @ @ @ @ @ _ _ _ <.m$n$f._ _ } E+h.G H   ",
"+ @ 9@S+w ).m._ _ :.:.+.@ @ @ 9 o$+#A#N#p$q$r$s$~@k+t$u$~@j+j+{@s#v$w$@ @ @ @ @ @ @ @ @ @ w$@ @ _ _ _ _ x$Y+o+<._ _ } g.u@P.r+  ",
"  @ 9@S+w ).m._ 8$9$@$y$_ @ @ ]$z$s$i+.@A$q$B$'+(#C$D$E$F${@j@!$G$H$n@@ @ @ @ @ @ @ @ @ @ @ @ f.f.f._ _ x$I$J$f.<._ _ q+h.P.H   ",
"  j.9@S+Q.7.m.| K$L$M$N$|.@ @ O$P$Q$R$+#S$q$T$U$(#V$q$W$~@+@A#X$Y$Z$>+@ @ @ @ @ @ @ @ @ @ @ f.f.f.f.f._ <.9$<.:.<._ _ A.u@z >.  ",
"  @ F+,.T+x@m.4@`$ %,@F..%@ @ @ +%@%#%s#S$$%%%&%j+*%=%-%;%(#>%,%'%)%!%@ @ @ @ @ @ @ @ ^@@ f.f.: <.<.<._ _ u+_ +.f._ _ A.~%P.<+  ",
"  @ F+g@T+o#m._ {%1+]%^%/%f.@ @ @ (%_%:%<%q$[%;$}%|%1%2%3%4%5%6%7%@ @ @ @ @ @ @ @ @ @ 8%@ f._ _ c+_ _ z._ _ _ _ _ } } g.9%0%H   ",
"  @ 9@g@n#T@a%_ } b%c%d.V._ _ @ @  +d%e%f%g%h%~@i%j%k%l%.@m%n%o%]$@ @ @ @ @ @ @ @ @ @ ^@@ <.| | _ _ _ _ <._ p+c++._ } 8@9%z H p%",
"@ @ q%m.w@T@S+} _ _ r%s%<.f._ _ @ $%t%[#j@j@j+j@{@{@j+{@{@u%v%w%x%@ @ @ @ @ @ @ @ @ @ ^@@ &+y%z%A%_ _ :.:.<._ _ _ f._ B%h.z r+6+",
"# @ 9@,.T+x@m._ +.].f.f.f.<.:.<.@ @ C%(#~@j@{@{@+@+@4+4+{@D%E%F%0$]$@ @ @ @ @ @ @ @ @ #.@ O.G%H%I%_ _ &+f.f.<._ _ f._ P+h.z H   ",
"  @ R+S+'.T@m._ +._ _ :.:.:.<.f.@ @ J%K%j+{@{@{@{@{@{@{@+@D%E%w%0$@ @ @ @ @ @ @ @ @ @ ^@@ L%M%N%O%z.p+_ f.f.&+f._ _ _ 8@9%s -@  ",
"  @ R+S+P%x@m._ _ _ <.<.:.:.f.@ @ @ Q%j+j@{@s#.@s#.@A#.@+@R%S%T%D$@ @ @ @ @ @ @ @ @ @ @ @ :.+.w.} _ _ _ _ _ f.:.+.<.z.U%V%z >.  ",
"# @ 9@g@T+x@m._ _ _ <.<.<.f.@ @ W%X%Y%[#j@{@+@+@+@s#s#s#+@Z%`% &.&@ @ @ @ @ @ @ @ @ @ @ @ _ +.{.+._ _ _ _ +.:.+.f.<._ 8@h.+&@&p%",
"  @ F+,.k.U+m._ _ _ f.<.<._ @  +#&$&%&&&{@{@{@+@4+4++@+@j+j++@m%*&@ @ @ @ @ @ @ @ @ @ @ @ _ <._ _ f.=&-&;&_ _ <._ _ _ P++$B K#  ",
"# j.9@g@T+x@m._ _ _ f.: _ _ @ O$>&,&'&.@{@+@+@+@{@4+4++@{@+@{@)&!&@ ~&@ @ @ @ @ @ @ @ %.@ @ f._ f._ {&]&^&_ _ _ _ < [ 8@/&(&_&  ",
"  @ R+S+k.7.S+_ _ <.f.f.:&<&@ W.[&}&|&[#j+{@+@{@{@{@{@+@j+4+{@)&1&@ @ @ @ @ @ @ @ @ @ 2&@ @ @ _ _ _ 3&&@%+_ _ _ 4&5&6&7&8&y t   ",
"  @ F+g@k.U+m._ :._ _ _ 9&0&@ #.a&b&c&{@j+j+d&e&f&g&h&i&{@+@{@j&k&@ @ @ @ @ @ @ @ @ @ @ @ @ @ _ _ _ _ _ _ _ _ _ l&(@4&U%f+m&t s+",
"  @ q%D.k.U+m.<.<.p+_ _ n&o&@ p&q&j+{@{@+@{@r&s&b@t&u&v&{@j+{@j+j+w&@ @ @ @ @ @ @ @ @ @ @ @ @ @ f.f.f.+._ _ _ _ %@x&y&z&A&B&K#6+",
"@ @ 9@S+T+7.S+f._ _ _ <.{.+.@ p&C&4+j+{@D&E&F&G&H&I&J&K&L&M&{@+@4+N&@ @ @ @ @ @ @ @ @ @ @ @ @ @ f.&+:.f.f.f.f._ _ _ _ B%8&x@t   ",
"  @ 9@g@T+O&S+f.: < P&U.Q&{.@ @.R&+@j+j+S&T&U&V&W&X&$%Y&Z&`&&&{@[#q&@ @ @ @ @ @ @ @ @ @ @ @ @ @ &+:.u+f.f._+: _ _ _ _ 8@h. *.*  ",
"  @ 9@S+'.o#m.&+:._ ]% $@ @ +*w%@*(##*)&$*%*&***=*-*;*>*,*'*)*!*~*{*]*@ @ @ @ @ @ @ @ @ @ @ @ @ @ _ _ _ ^*/*(*p+c+} } *._*y H   ",
"  @ I S+'.x@D.&+:.+.:*<*[*6+}*|*1*s#D%2*3*g$4*5*6*7*8*9*^@0*a*b*c*{@)+d*e*@ @ @ @ @ @ @ @ @ @ @ @ _ _ : f*g*h*<._ <._ *._*z i*6+",
"  @ I S+w@T@m.+.f.f.f.: j*k*l*m*n*o*p*q*r*#.s*t*u*v*8*w*8%x*y*z*A*B*C*D*e*E*@ @ @ @ @ @ @ @ @ @ @ f.f._ F*S.1+<.f.f._ *._*z i*  ",
"@ j.q%G*'.x@m._ f.f.f.f.H*I*J**&K*L*M*N*O*@.P*Q*v*v*R*S*#.#.W.T*U*V*+@W*X*@ @ @ @ @ @ @ @ @ @ @ @ f.f._ +.]._ u+<._ _ *.V%P.-@. ",
". @ R+S+T+o#a%_ f.f.f.:.Y*Z*`* =.=+=@=#=$=%=&=*=v*==-=;=$%@ @ @ >=,=!$'=)=@ @ @ @ @ @ @ @ @ @ @ @ <.<.f.f.&+&+f.f._ p+U%_*P.H   ",
". @ !=G*~=x@m.} _ <.<.:.{=]=^=/=(=_=W&N*:=<=[=}=|=1=2=3=4=@ <.@ N*5=Z%6=t$E*@ @ @ @ @ @ @ @ @ @ @ f.f.f.f.f.<.<._ _ p+*.h.A 7=6+",
"  j.8=] T+B&m._ _ f.f.f.9=0=a=b=c=n@6+%.d=e=f=g=h=i=j=@ @ f.f.@ @ @ k=l=m=n=@ @ @ @ @ @ @ @ @ @ @ f.f.f.f.<.<._ o=p=q=z&8&7 i*6+",
"  @ 8=r=T+B&[+_ _ <.f.f.{=$.s+%.%.$.%.6+s=%.$.$.6+%.t=@ f.f.f.f.f.@ #.$.8% +%.%.%.%.%.@ @ 6+@ x%@ f.<._ _ f.: _ u=v=w=x=y=T@>.  ",
"+ @ !=] z=A=B=C=[ _ _ f.f.@ @ @ @ @ @ @ @ @ @ @ @ @ @ _+f.f.f.f.f.f.@ @ @ @ @ @ @ @ @ @ @ @ @ @ f.<.<._ _ f.f.<.D=E=F=8@+$D i*  ",
"  @ G=r=z=C H==.<.p+c+_ <.<.f.f._ f.f._ <.<.<.<.f.f._+I=<.<.:.<.f.f._ _ _ } p+z.:._ _ _ _ _ _ +.:.:.<._ _ _ f._ _ _ _ *.J=P.H   ",
"  j.K=L=7 D M=W N=O=O=P=P=Q=r r R=S=S=R=P=P=P=P=P=r r r T=r P=P=P=r P=R=P=R=N=P=P=P=P=P=R=R=R=R=T=P=P=U=V=P=P=R=R=P=P=W=X=P.Z 6+",
"  Y=Z=P.P.7 7 T@T@T@P.T@T@T@T@T@T@T@T@T@T@T@T@T@T@T@T@T@T@T@T@T@T@T@T@T@T@T@T@T@T@T@T@T@T@T@T@T@T@T@).T@T@T@T@T@T@7 7 7 7 z Z 6+",
"    `= - -.-.- - - - -.-.- -+- -+- - -@-@- -@- -.-.- - - -.- - - -@-@- -@-@-#-$- - - -.-.- - - - -@-.-.- - - - - - - -.-%- -&-  ",
"                                    6+6+      6+6+        6+    6+6+6+    6+    6+6+  6+6+6+6+    6+6+    6+        6+          "};
