/* XPM */
static char * collectible_profile_64_xpm[] = {
"64 64 677 2",
"  	c #010101",
". 	c #000101",
"+ 	c #010100",
"@ 	c #000000",
"# 	c #000100",
"$ 	c #583A24",
"% 	c #5A3A23",
"& 	c #5A3923",
"* 	c #5B3923",
"= 	c #5B3A23",
"- 	c #5B3A22",
"; 	c #5B3922",
"> 	c #5C3A23",
", 	c #5A3922",
"' 	c #462B19",
") 	c #2B190E",
"! 	c #1B1008",
"~ 	c #9C5F34",
"{ 	c #A15F31",
"] 	c #A16032",
"^ 	c #A06031",
"/ 	c #A16031",
"( 	c #A26130",
"_ 	c #A36131",
": 	c #A36031",
"< 	c #A26030",
"[ 	c #A26031",
"} 	c #A26131",
"| 	c #A36130",
"1 	c #A16030",
"2 	c #A25F31",
"3 	c #A15F30",
"4 	c #A15E31",
"5 	c #A05E32",
"6 	c #7B4825",
"7 	c #532F18",
"8 	c #382111",
"9 	c #000001",
"0 	c #9C5F35",
"a 	c #A15E32",
"b 	c #8D532C",
"c 	c #8C532C",
"d 	c #8C532B",
"e 	c #8D522B",
"f 	c #8D542B",
"g 	c #8D542C",
"h 	c #8C542B",
"i 	c #8D532B",
"j 	c #8B542B",
"k 	c #8B542C",
"l 	c #8D532A",
"m 	c #8C542A",
"n 	c #8C532A",
"o 	c #8B532B",
"p 	c #8C542C",
"q 	c #8C522B",
"r 	c #734323",
"s 	c #533019",
"t 	c #371F10",
"u 	c #9D5F35",
"v 	c #A05F31",
"w 	c #573018",
"x 	c #532E18",
"y 	c #522E18",
"z 	c #522F19",
"A 	c #522E19",
"B 	c #522F18",
"C 	c #522E16",
"D 	c #522F17",
"E 	c #522E17",
"F 	c #512E16",
"G 	c #532F1A",
"H 	c #371F11",
"I 	c #9D6034",
"J 	c #563017",
"K 	c #63341B",
"L 	c #65351B",
"M 	c #6F4123",
"N 	c #704224",
"O 	c #704223",
"P 	c #6F4223",
"Q 	c #6F4222",
"R 	c #704222",
"S 	c #704122",
"T 	c #6F4224",
"U 	c #6A3B1E",
"V 	c #66351B",
"W 	c #67351A",
"X 	c #5C311A",
"Y 	c #512F19",
"Z 	c #351F11",
"` 	c #9D5F34",
" .	c #803D1F",
"..	c #853E1E",
"+.	c #A36132",
"@.	c #955028",
"#.	c #883E1E",
"$.	c #853D1E",
"%.	c #6D361B",
"&.	c #361F11",
"*.	c #9F5F31",
"=.	c #573118",
"-.	c #532E17",
";.	c #8A4825",
">.	c #8E4825",
",.	c #A36033",
"'.	c #A36032",
").	c #B66F3B",
"!.	c #BA723C",
"~.	c #A76433",
"{.	c #A46033",
"].	c #3F3424",
"^.	c #826A2A",
"/.	c #7D6629",
"(.	c #3E3325",
"_.	c #A46132",
":.	c #A46131",
"<.	c #B16B38",
"[.	c #B9713B",
"}.	c #AB6735",
"|.	c #98542B",
"1.	c #8E4724",
"2.	c #874221",
"3.	c #6B361B",
"4.	c #543019",
"5.	c #382011",
"6.	c #532E16",
"7.	c #E6914D",
"8.	c #F09851",
"9.	c #B36C39",
"0.	c #1A1825",
"a.	c #6F5A1F",
"b.	c #D9AF09",
"c.	c #DAB008",
"d.	c #6F591F",
"e.	c #1B1825",
"f.	c #D68647",
"g.	c #EF9951",
"h.	c #C47A40",
"i.	c #A46031",
"j.	c #935028",
"k.	c #6E371C",
"l.	c #361E11",
"m.	c #010000",
"n.	c #573017",
"o.	c #522E15",
"p.	c #9F5F32",
"q.	c #B56F39",
"r.	c #B76F3A",
"s.	c #A56333",
"t.	c #D78848",
"u.	c #E08E4B",
"v.	c #AF6B37",
"w.	c #A36231",
"x.	c #B46935",
"y.	c #B76B35",
"z.	c #796D20",
"A.	c #F9DE13",
"B.	c #F9DE12",
"C.	c #786C1F",
"D.	c #A26231",
"E.	c #A26132",
"F.	c #CA7F43",
"G.	c #BD743D",
"H.	c #A36232",
"I.	c #935027",
"J.	c #6D371B",
"K.	c #381F10",
"L.	c #A05F32",
"M.	c #EB9751",
"N.	c #F09951",
"O.	c #AE6936",
"P.	c #A36133",
"Q.	c #E18141",
"R.	c #EE8743",
"S.	c #1B1826",
"T.	c #F9DF14",
"U.	c #F9DE11",
"V.	c #796C1E",
"W.	c #532F19",
"X.	c #563018",
"Y.	c #AF6534",
"Z.	c #B06633",
"`.	c #E08E4D",
" +	c #E4904D",
".+	c #AC6735",
"++	c #AE6533",
"@+	c #B16633",
"#+	c #D77B3E",
"$+	c #DF7F3F",
"%+	c #796D21",
"&+	c #F8DD11",
"*+	c #F9DD10",
"=+	c #7A6D1F",
"-+	c #AC6433",
";+	c #B06533",
">+	c #B46B37",
",+	c #B66E39",
"'+	c #A96634",
")+	c #A46032",
"!+	c #A45F33",
"~+	c #D5783B",
"{+	c #D87A3A",
"]+	c #A96332",
"^+	c #CF7539",
"/+	c #D8783A",
"(+	c #F8DD12",
"_+	c #CA7237",
":+	c #DA7A3A",
"<+	c #EA924C",
"[+	c #F09850",
"}+	c #C0773E",
"|+	c #A46030",
"1+	c #6C371B",
"2+	c #371F12",
"3+	c #9F5F33",
"4+	c #CB743A",
"5+	c #CE7539",
"6+	c #A86332",
"7+	c #C67138",
"8+	c #CE7438",
"9+	c #AD6432",
"0+	c #786D20",
"a+	c #F8DD13",
"b+	c #F9DD11",
"c+	c #796D1E",
"d+	c #AC6432",
"e+	c #AF6733",
"f+	c #CD7438",
"g+	c #D87A39",
"h+	c #E28E4B",
"i+	c #E4924E",
"j+	c #BB733D",
"k+	c #AA6432",
"l+	c #AE6633",
"m+	c #6C361B",
"n+	c #F8DE13",
"o+	c #1A1826",
"p+	c #CB7437",
"q+	c #D97C39",
"r+	c #D97C3A",
"s+	c #B56934",
"t+	c #C57036",
"u+	c #D8793A",
"v+	c #BB6C35",
"w+	c #934F27",
"x+	c #372011",
"y+	c #020201",
"z+	c #AC6533",
"A+	c #A46232",
"B+	c #7A6D21",
"C+	c #C67137",
"D+	c #D07639",
"E+	c #D07638",
"F+	c #B26834",
"G+	c #C06E36",
"H+	c #B66A34",
"I+	c #934F28",
"J+	c #9C6034",
"K+	c #D17639",
"L+	c #D77A3A",
"M+	c #F8DC11",
"N+	c #796C1F",
"O+	c #945027",
"P+	c #362010",
"Q+	c #9C6135",
"R+	c #9F6032",
"S+	c #573117",
"T+	c #532E15",
"U+	c #B06B37",
"V+	c #B26B38",
"W+	c #D27639",
"X+	c #D77939",
"Y+	c #AB6432",
"Z+	c #F8DC14",
"`+	c #F9DD12",
" @	c #AC6836",
".@	c #B26C38",
"+@	c #AA6635",
"@@	c #925027",
"#@	c #381F11",
"$@	c #532F15",
"%@	c #E8944F",
"&@	c #F19951",
"*@	c #D57A3B",
"=@	c #D17638",
"-@	c #B36834",
";@	c #AC6633",
">@	c #A46231",
",@	c #AF6A37",
"'@	c #F7DC15",
")@	c #1B1926",
"!@	c #D58547",
"~@	c #F29C52",
"{@	c #CB8043",
"]@	c #563016",
"^@	c #E8934E",
"/@	c #A66330",
"(@	c #D27839",
"_@	c #AD6533",
":@	c #E4924D",
"<@	c #F19850",
"[@	c #7A6E22",
"}@	c #F7DC13",
"|@	c #A36030",
"1@	c #CE8144",
"2@	c #E7934E",
"3@	c #C37A40",
"4@	c #945028",
"5@	c #9C6035",
"6@	c #CB7337",
"7@	c #AB6533",
"8@	c #DD8B4A",
"9@	c #E8924D",
"0@	c #7B6F23",
"a@	c #F7DC12",
"b@	c #F8DC10",
"c@	c #A15E30",
"d@	c #A05D2F",
"e@	c #A25F30",
"f@	c #010201",
"g@	c #9F6031",
"h@	c #756720",
"i@	c #F3D414",
"j@	c #F4D513",
"k@	c #74661E",
"l@	c #924C27",
"m@	c #883D1E",
"n@	c #99552B",
"o@	c #392012",
"p@	c #9E6031",
"q@	c #AC6835",
"r@	c #1A1925",
"s@	c #6E5820",
"t@	c #DAAE11",
"u@	c #DAAE12",
"v@	c #6E591F",
"w@	c #A66332",
"x@	c #944F28",
"y@	c #8B4321",
"z@	c #9A572C",
"A@	c #6D371C",
"B@	c #9B6035",
"C@	c #573119",
"D@	c #532F16",
"E@	c #EC9550",
"F@	c #1F1C25",
"G@	c #241D1F",
"H@	c #241D20",
"I@	c #1F1C26",
"J@	c #DC8B4A",
"K@	c #F09A51",
"L@	c #C1773F",
"M@	c #532F17",
"N@	c #E7924F",
"O@	c #EC944F",
"P@	c #AB6634",
"Q@	c #665C24",
"R@	c #CDB823",
"S@	c #CEB723",
"T@	c #635824",
"U@	c #D78748",
"V@	c #EA954F",
"W@	c #BE753D",
"X@	c #786B1E",
"Y@	c #A76231",
"Z@	c #A86231",
"`@	c #7B6D22",
" #	c #F7DC10",
".#	c #F8DC0F",
"+#	c #7B6D21",
"@#	c #A66030",
"##	c #A86130",
"$#	c #A96231",
"%#	c #A56231",
"&#	c #9E5F32",
"*#	c #563118",
"=#	c #533016",
"-#	c #E8914C",
";#	c #B36E39",
">#	c #7A6D20",
",#	c #796D1F",
"'#	c #1B1925",
")#	c #C97237",
"!#	c #DB7B3A",
"~#	c #E9914B",
"{#	c #F1994F",
"]#	c #C47A3F",
"^#	c #A26232",
"/#	c #A66331",
"(#	c #A86431",
"_#	c #A56331",
":#	c #924F27",
"<#	c #542F18",
"[#	c #382010",
"}#	c #E5914C",
"|#	c #EF9750",
"1#	c #B36D39",
"2#	c #F7DD10",
"3#	c #1C1926",
"4#	c #C77237",
"5#	c #DA7B3A",
"6#	c #E78F48",
"7#	c #C47940",
"8#	c #D38446",
"9#	c #C97D41",
"0#	c #6E371B",
"a#	c #A56131",
"b#	c #74631F",
"c#	c #E7C40C",
"d#	c #E7C30B",
"e#	c #73611E",
"f#	c #A46130",
"g#	c #D28346",
"h#	c #F09852",
"i#	c #C97C41",
"j#	c #6B561E",
"k#	c #DBB00C",
"l#	c #DCB00C",
"m#	c #6B561D",
"n#	c #BE743C",
"o#	c #A56130",
"p#	c #DBB00B",
"q#	c #6C571D",
"r#	c #BD733D",
"s#	c #A66131",
"t#	c #A56031",
"u#	c #DCB10B",
"v#	c #DBB10B",
"w#	c #6B571D",
"x#	c #1C1925",
"y#	c #A16130",
"z#	c #C37036",
"A#	c #A56030",
"B#	c #A4602F",
"C#	c #6C561E",
"D#	c #A2602F",
"E#	c #D67839",
"F#	c #BA6B35",
"G#	c #EB9652",
"H#	c #EF9952",
"I#	c #F09953",
"J#	c #EF9853",
"K#	c #CF7639",
"L#	c #D7793A",
"M#	c #AE6734",
"N#	c #E4914D",
"O#	c #EF9851",
"P#	c #6B571E",
"Q#	c #DBAF0B",
"R#	c #DE8C4A",
"S#	c #F0964F",
"T#	c #ED9651",
"U#	c #F29B53",
"V#	c #AB6734",
"W#	c #AF6633",
"X#	c #6C561D",
"Y#	c #DF8C4A",
"Z#	c #F29850",
"`#	c #6D381C",
" $	c #A76332",
".$	c #EB9650",
"+$	c #F09A52",
"@$	c #AD6835",
"#$	c #A76232",
"$$	c #6A561E",
"%$	c #DCB00B",
"&$	c #A86331",
"*$	c #6E381C",
"=$	c #542F19",
"-$	c #9F6033",
";$	c #A26032",
">$	c #EA9650",
",$	c #6D581E",
"'$	c #DAB00B",
")$	c #020202",
"!$	c #9D6035",
"~$	c #A86433",
"{$	c #A96433",
"]$	c #786820",
"^$	c #ECCC0E",
"/$	c #ECCB0F",
"($	c #776621",
"_$	c #D58647",
":$	c #EE9851",
"<$	c #C37840",
"[$	c #944F27",
"}$	c #A45F30",
"|$	c #D98848",
"1$	c #F19A52",
"2$	c #C57A41",
"3$	c #DF8444",
"4$	c #E88A47",
"5$	c #B16935",
"6$	c #F7DB10",
"7$	c #F7DC0F",
"8$	c #B16733",
"9$	c #A36034",
"0$	c #A86434",
"a$	c #573218",
"b$	c #E38745",
"c$	c #ED8C47",
"d$	c #B26A36",
"e$	c #F7DD0F",
"f$	c #B36833",
"g$	c #955128",
"h$	c #6F381C",
"i$	c #994F29",
"j$	c #974B26",
"k$	c #A15D30",
"l$	c #502F18",
"m$	c #351F10",
"n$	c #C97337",
"o$	c #D28245",
"p$	c #EA924E",
"q$	c #C3773E",
"r$	c #D87A3B",
"s$	c #AF6533",
"t$	c #796C20",
"u$	c #D88647",
"v$	c #C87A40",
"w$	c #72381C",
"x$	c #562F18",
"y$	c #3A2111",
"z$	c #904925",
"A$	c #8F4624",
"B$	c #D48546",
"C$	c #E6924C",
"D$	c #AD6836",
"E$	c #CD8043",
"F$	c #E6914B",
"G$	c #C4793F",
"H$	c #965128",
"I$	c #6F371B",
"J$	c #8C4322",
"K$	c #8B3F1F",
"L$	c #A56132",
"M$	c #F19A51",
"N$	c #C2773F",
"O$	c #512D18",
"P$	c #9F5B30",
"Q$	c #9F5B2F",
"R$	c #AE6937",
"S$	c #B36C38",
"T$	c #A86534",
"U$	c #B26B37",
"V$	c #A96533",
"W$	c #954F28",
"X$	c #72381B",
"Y$	c #542F16",
"Z$	c #7A6C1E",
"`$	c #A56032",
" %	c #522F16",
".%	c #E08E4C",
"+%	c #AA6636",
"@%	c #D98849",
"#%	c #E48F4C",
"$%	c #B16B37",
"%%	c #7A6D22",
"&%	c #512E17",
"*%	c #351E10",
"=%	c #AC6736",
"-%	c #A56232",
";%	c #E4904C",
">%	c #B56E39",
",%	c #1B1927",
"'%	c #1C1927",
")%	c #D77D3D",
"!%	c #D27737",
"~%	c #BE6C34",
"{%	c #CE7336",
"]%	c #B66933",
"^%	c #6F371C",
"/%	c #B46E39",
"(%	c #B66F3A",
"_%	c #B26D38",
":%	c #A66433",
"<%	c #6D5A1D",
"[%	c #E2BB0C",
"}%	c #E1B90D",
"|%	c #6B581F",
"1%	c #E1833F",
"2%	c #DB7938",
"3%	c #B66934",
"4%	c #C46F35",
"5%	c #D77937",
"6%	c #BB6B34",
"7%	c #372010",
"8%	c #1A1725",
"9%	c #715A1E",
"0%	c #D9AC0D",
"a%	c #D9AB0D",
"b%	c #6F5720",
"c%	c #E1823F",
"d%	c #B66834",
"e%	c #AB6433",
"f%	c #A06032",
"g%	c #5E4C23",
"h%	c #BF9A25",
"i%	c #C39D24",
"j%	c #B7703A",
"k%	c #B36935",
"l%	c #B26632",
"m%	c #DA8949",
"n%	c #E38F4B",
"o%	c #B16C38",
"p%	c #181622",
"q%	c #1A1824",
"r%	c #191723",
"s%	c #9E6135",
"t%	c #573217",
"u%	c #E9924C",
"v%	c #F49A50",
"w%	c #B56F3A",
"x%	c #362011",
"y%	c #9F6136",
"z%	c #B8703A",
"A%	c #BB723B",
"B%	c #96512A",
"C%	c #914926",
"D%	c #9E5A2E",
"E%	c #CE8043",
"F%	c #E08C49",
"G%	c #BB723C",
"H%	c #99542B",
"I%	c #934A26",
"J%	c #9C582D",
"K%	c #A16132",
"L%	c #914A26",
"M%	c #8B3F20",
"N%	c #9D582D",
"O%	c #A46133",
"P%	c #DB8947",
"Q%	c #F2974E",
"R%	c #C4773F",
"S%	c #954E28",
"T%	c #8A3E20",
"U%	c #99532B",
"V%	c #965028",
"W%	c #71381C",
"X%	c #583117",
"Y%	c #552F16",
"Z%	c #8D4926",
"`%	c #904A25",
" &	c #9E5B2E",
".&	c #BD743C",
"+&	c #9F5C2F",
"@&	c #9D592E",
"#&	c #A05E2F",
"$&	c #9E6136",
"%&	c #833D20",
"&&	c #70371C",
"*&	c #6E4326",
"=&	c #704324",
"-&	c #65351C",
";&	c #724324",
">&	c #724424",
",&	c #724323",
"'&	c #734324",
")&	c #724423",
"!&	c #734424",
"~&	c #734423",
"{&	c #724223",
"]&	c #724322",
"^&	c #6C3C1E",
"/&	c #5D3219",
"(&	c #010001",
"_&	c #502F1A",
":&	c #2C1B11",
"<&	c #2D1A0E",
"[&	c #2D1A0F",
"}&	c #2C1A0E",
"|&	c #2E1A0E",
"1&	c #2E1A0F",
"2&	c #2E190E",
"3&	c #2D190E",
"4&	c #1D1009",
"        .                                                         +           . .                   @ @ .     @ @ @     @ @ @   ",
"# @ $ % & * * = - = = = = = * ; - = ; & ; = - = - - > - ; , * ; , ; , , ; * , & * , , - = & , = ; , ; , - - ; , * & , ; ' ) !   ",
"# @ ~ { { ] ^ / ( _ : _ _ _ < < < < [ / / } | ( } _ _ } [ < 1 1 1 1 1 ^ 1 ^ / / 1 ^ 1 1 ( / [ ( < 1 < 1 < < < 2 3 4 4 5 6 7 8   ",
"9 @ 0 a b c d e b f f g f f h d i i j k d f f d d l f i d d h d m j n o d c n h p o n d d c c f n d d h d n n n q q e c r s t   ",
"  @ u v w x y y y z z z z y y A y y y y B B y C C C y y y D y E E E y y y E B B E C C C E y B z y B y C E y y E D y F E B G H   ",
"  @ I v J E K L M M N O O O P P P O O O O O P Q R R O O O O O O Q O O O O O O O Q S R O O O P T O P O O S O O O O U V W X Y Z   ",
"  @ ` v w E  ...[ _ _ _ _ < } } +._ _ _ _ _ _ _ _ _ } _ _ _ @ @ @ @ _ _ _ _ _ _ _ _ _ _ _ _ _ +._ _ _ _ _ +._ _ _ @.#.$.%.s &.  ",
"  @ I *.=.-.;.>.[ _ +._ _ _ _ +.,.'.).!.~._ _ +._ ,.{._ +.@ ].^./.(.@ +._ _.:._ _ _ _ _ +._ _.:.<.[.}._ _ _ _ _ _ |.1.2.3.4.5.  ",
"@ @ I v w 6.5 _ _ _ _ _ _ +._ +.,.'.7.8.9.} _ :.'.{.{._ @ 0.a.b.c.d.e.@ _ _ +._ _ _ _ '.,._ _ _ f.g.h._ _ _ i._ _ _ _ j.k.z l.  ",
"  m.I v n.o.p._ _ _ _ _ q.r.s._ _.+.t.u.v.w.i.:.'.'.x.y.@ 0.z.A.B.C.0.@ _ D.+._ _ _ _ ,.,.:._ E.F.u.G._ _ _ :.+.H.H.} I.J.7 K.  ",
"  m.I v J o.L._ +.+._ :.M.N.O._ ,.P.+._ _ i.i._.,.'.Q.R.@ S.z.T.U.V.@ @ _ '.+._ _ _ _ +._ '.,.+.+.: i._ _ :._.{._._ } I.J.W.5.  ",
"+ @ I v X.C L.i.,.,.Y.Z.`. +.+_ +.+.i.i.i._._.i.++@+#+$+@ S.%+&+*+=+@ @ _ ,.-+;+>+,+'+_ _ i.i.{.+._ _ _ :.i.i.{.)+_ _ j.J.z &.  ",
"+ m.` v X.E p._ '.!+~+{+]+_ _ _ _ i.i.i._._._.)+^+/+Z.: @ S.%+(+*+=+@ @ i.'._+:+<+[+}+_ _ i.i.)++._ _ _ :.|+i.{.)+_ _ j.1+W.2+  ",
"  @ ` v X.E 3+_ +.,.4+5+6+_ _ _ i.i.i.:.:.:.:.,.7+8+9+_ @ e.0+a+b+c+0.@ d+e+f+g+h+i+j+} _ _ _ _ D._ k+l+6+:.:.:.:._ _ I.m+z H   ",
"  @ ` v J 6.p._ _ _ _ } } _ _ _ _ _ _ _ _ _._.+.: _ _ w.@ S.z.n+U.c+o+@ p+q+r+{+s+_ _ _ _ _ _ _ _ :.t+u+v+_ _ w._ _ _ w+1+B x+y+",
"  @ I v X.E p.} _ _ _ _ _ _ _ i.z+l+A+_ +._._.+.: _ _ } @ S.B+(+b+V.e.@ C+D+D+E+F+_ _ :._ _ :._ i.)+G+D+H+_ _ _ _ _ _ I+J.4.5.  ",
"@ @ J+v J C p._ _ _ _ _ _ _ :.i.K+L+z+_ _ _.:.+.:._ _ _ @ S.%+a+M+N+0.@ _ :._ _ _ _ i.i.:.i.i.i.i.)+_ _ _ H.A+_ _ _ _ O+k.W.P+. ",
". @ Q+R+S+T+p._ _ '._ _ _ _ U+V+W+X+Y+_ _ +.+.:._ _ _ _ @ S.z.Z+`+V.e.@ _ _ +.+._ :.i.i.i._ _ _ :._ :.:._ :. @.@+@_._ @@1+W.#@  ",
"  @ J+v S+$@p.} _ _ D.H.w._ %@&@*@=@-@;@>@_ :._ _ _ ,@.@@ S.B+'@a+V.)@@ i._ +.:.i.i.'.'.:._ _ } _ _ _ i.i._ !@~@{@D.} @@m+W.#@  ",
"  @ I v ]@o.p._ _ _ H._ _ _ u.^@,@/@(@X+_@_ _ i.,.+.:@<@@ 0.[@}@&+=+S.@ :.:.i.i.i.i.'.'._ } _ |@:._ _ i.i._ 1@2@3@w.A+4@J.z Z   ",
"+ @ 5@*.n.T+p._ _ _._ _ _ +.| _ _ _ 6@W+7@_ _ _ ,.'.8@9@@ 0.0@a@b@=+e.@ _ i.i.i.i.,.+._ _ _ c@d@e@_ _ _ _ _ _ : _ _ _ j.J.z H f@",
"@ @ Q+g@J C p._ _ _ _ _ _ _ _ _ :._ | :._ _._.:.i.: | |@@ S.h@i@j@k@)@@ _ _ _ _ :._ _ _ _ _ l@m@n@_ _ :.:._ ,._ +._ _ I.1+W.o@  ",
"  @ Q+p@X.-.p._ _ _ .+q@w._ _ i.i._ _ _ _ _.i.i.i.i._ _ @ r@s@t@u@v@)@@ _ _ _ _ '+.+w@_ _ _ x@y@z@H._ i.i.)+,.+.+.+._ I.A@W.H   ",
"  @ B@g@C@D@p._ _ _ E@&@.+i.i.i.i._ } D.} :.i.i.i.i._ _ @ )@F@G@H@I@S.@ _ } } E.J@K@L@_ _ _ _ E.E._ i.i.i.:.:._ _ _ _ j.A@z &.  ",
"# @ B@*.X.M@R+_ _ '.N@O@P@i.: :._ _ _ _ +.: i.i.i.:._ _ @ @ Q@R@S@T@S.@ _ +._ _ U@V@W@_ _ _ _ : _ _ _ :.)+)+)+i.i._ _ w+A@z x+f@",
"# @ 5@p.X.7 R+_ _ _ | | _ :._ _ _ _ _ i.+._ _ _ +._ _ i.@ @ N+&+b@X@S.@ _ : i._ | | :._ _ _ i.i.'._ _ _ +._.i.i.i._ _ w+J.W.5.  ",
"+ @ ~ *.=.M@p._ _ _ _ _ _ _ _ _ _ _ Y@Z@:._ _ _ _ _ _ i.@ @ `@ #.#+#)@@ i.i.i._ _ _ _ i.@###Z@$#%#+.+._ _ H._ _ i.:._ I.J.z H   ",
"  m.0 &#*#=#p._ _ _ _ _ _ _ _ _ _ | -#<@;#_ _ :._ _ _ _ @ @ ># #&+,#'#@ i.:.:._ _ +._ )+)#!#~#{#]#_ i._ _ _ _ ^#/#(#_#:#J.<#[#  ",
"  @ ~ *.=.D@p._ _ _ _ _ :.:._ _ _ _ }#|#1#_ : i.i.i._.:.@ @ ,#2#2#N+3#@ _ _ :.:._ ,.'.)+4#5#6#[+7#:.i.:.i.:.>@_ 8#K@9#w+0#7 &.  ",
"  @ J+v =.6.p._ +.)+a#)+)+i.i.i.:._ |@|+: _ i.i.i.i.:.i.@ 0.b#c#d#e#e.@ :._ i.i.)+,.)+i.f#f#f#|+_ _ i.i.i.i._ _ g#h#i#4@0#z H   ",
"@ @ I v =.6.p._ _._.i.:._ i.{.)+i._ _ i.i._ :.i.i.i.i.i.@ '#j#k#l#m#)@@ n#_ i.i.+._ _ :._ _ _ _ _ _ _ ( _ i.i.: f#o#|@w+1+W.H   ",
"+ @ 5@*.=.6.p._ _ i.i._ _ _.i.i.i._ _ i.i.+.+.i.i.i.i.i.@ )@j#p#k#q#e.@ r#i.i.:._ _ :.i.:._ _ _ _ _ _ _ :.s#t#i._ _ } I+k.G H   ",
"+ @ 5@R+w -.p._ _ _._.+._ _ i.i.i.i._ _ } +._.i.i.:.i.:.@ )@j#u#v#w#x#@ y#_ _.w.w._ _ :._ _ _ _ _ _ _ _ z#X+v+:._ _ } j.A@W.x+  ",
"  @ 5@R+w -.p._ f#o#a#A#_ _ _ _ _ :.:._ |+|+_ _ >@+.|+B#@ 0.C#p#p#m#'#@ D#|+_ _ _ ,._ _ _ _ _ i.i.i._ _ z#E#F#i.:._ _ w+k.W.H   ",
"  m.5@R+X.6.p.| G#H#I#J#}.+._ +.)+)+_ :.K#L#M#_ _ _ N#O#@ 0.P#p#Q#m#)@@ R#S#r#_ _ i.i.i.i.i.i.i.i.i.i._ :.o#:._.:._ _ I.A@z &.  ",
"  @ J+*.S+D@p.|@T#U#&@N.V#: i.i.i.)+i.i.D+{+W#i._ _ N#&@@ e.j#p#Q#X#'#@ Y#Z#W@_ _ +.i.i.i.i.i.: :.:.:._ _ A+_ +.i._ _ I.`#W.2+  ",
"  @ J+g@S+=#p._  $6+.$+$@$i.i.i.i.i.i._ o#o#:.i.i.i.#$Y@@ )@$$k#%$q#)@@ #$&$%#_ :.:.i.i.i.i._ _ D._ _ H._ _ _ _ _ } } j.*$=$H   ",
"  @ 5@g@*#M@-$_ } ;$>$g..+_ _ _ _ _ _ _ [ _ :.i.i.)+{.:.@ )@,$p#'$q#x#@ _ +.i.:.:.i.i.i.i.:.| | _ _ _ _ :._ w.D.+._ } 4@*$z H )$",
"@ @ !$p.C@M@R+} _ _ ~${$:.i._ _ _ _ i.i._ i.i.)+i._.)+)+@ 0.]$^$/$($e.@ _ ,.)+i.)+i.)+)+_.)+_$:$<$_ _ _._.:._ _ _ i._ [$k.z x+f@",
"# @ 5@*.S+D@p._ +.'.i.i.i.:._.:.)+)+}$}$_ '.{.{.i.i.i.{.@ e.N+ #.#X@S.@ :.'.i._ _._ :.)+{.{.|$1$2$_ _ )+i.i.:._ _ i._ O+k.z H   ",
"  @ Q+R+=.M@p._ +._ _ _._._.:.i.)+)+3$4$5$'.{.{.i.: : i.@ )@N+6$7$V.)@@ 8$: i.:.P._ _ i.:.9$0$P@w@H.w._ i.i.)+i._ _ _ 4@*$s #@  ",
"  @ Q+R+a$D@p._ _ _ :.:._._.i.i.i.)+b$c$d$_ _._._ i.:.:.@ 0.z.7$e$c+'#@ f$} _ :.+.:.i.i.i._.+.E.} _ _ _ _ _ i._.+.:.H.g$h$z &.  ",
"# @ 5@g@S+D@p._ _ _ :.:.:.i.i.:.:.+.i$j$k$:.i.: _ :.:.:.@ 0.>#7$7$c+e.@ %#_ :.i.i.i.:._.:._ +.,.+._ _ _ _ +._.+.i.:._ 4@k.l$m$)$",
"  @ J+*.n.T+p._ _ _ i.:.:._ i.:.+.+.k$k$: {.)+i.n$D+9+i.@ e.,#7$.#V.e.@ _ i.:.i.:._ _ _ :._ :._ _ i.o$p$q$_ _ :._ _ _ O+0#B [#  ",
"# m.5@g@S+D@p._ _ _ i.: _ _ _ _.'._ _ _ _ : i.'.K#r$s$i.@ )@t$7$7$V.S.@ _ _ +.:.: ( _ '.i.i.i._ i._ u$Z#v$_ _ _ _ < [ 4@w$x$y$  ",
"  @ Q+R+n.6.R+_ _ :.i.i.z$A$3 _ _.:._ _ _ :._ _ Y+z+%#i.@ e.t$7$e$c+)@@ _ :._ _ B$C$G._ i.i.i._ _ _ D$.@'+_ _ _ E$F$G$H$I$y t   ",
"  @ J+g@n.T+p._ _._ _ _ J$K$c@:.L$A+A+_ P.:._ _ _ _ _ _ @ )@z.7$e$V.S.@ _ w.H.+.J@M$N$_ +.:.:._ _ _ _ _ _ _ _ _ B$~@E$g$m+O$t y+",
"  @ !$L.n.T+p.:.:.w._ _ P$Q$: :._.:.i.:.,._ :.i._ _ :.:.@ S.t$ #7$V.)@@ _ _ '.'.R$S$T$_ :.i.i.i.i.i.i.+._ _ _ _  @U$V$W$X$Y$[#f@",
"@ @ 5@R+S+6.R+i._ _ _ :.,.+.:.:.i.i.i.i._.:.i._ _ i.: i.@ e.B+7$7$Z$)@@ i.i.i.i.i._ _ _ _.`$i.i.i.)+_.i.i.i.i._ _ _ _ [$I$D@t   ",
"  @ 5@g@S+ %R+i.: < .% ++%,.:.i.i._._.:._.:.:._ @%#%$%'.@ S.%%7$e$=+)@@ i.i.i.:.i.)+:.:.L$L$i.i.)+_.A+i.i.|+: _ _ _ _ 4@k.&%*%  ",
"  @ 5@R+=.=#p.)+_._ .$K@=%+.:.i.i.-%A+_.+.:.:.,.;%8.>%,.@ ,%C.7$e$X@'%@ )%!%f$:.:.i.)+A+>@%#A+:._._ _ _ ~%{%]%w.D.} } @.^%y H   ",
"  @ I R+=.D@L.)+_.+./%(%-%_ i.{._.-%A+:.i.i.i.'._%(%:%_ @ 0.<%[%}%|%S.@ 1%2%3%_ _ i.i.i.:._._.:.i._ _ : 4%5%6%:._ :._ @.^%z 7%f@",
"  @ I R+C@M@p.+.i.i.i.: : :.:._._.L$:.i.: i.)+i._ _ _ _ @ 8%9%0%a%b%0.@ c%2%d%_ _ i.i.i.i._.i.i.i.i.i._ e%Z.6+:.i.i._ @.^%z 7%  ",
"@ m.!$f%=.D@p._ i.i.i.i.i._.A+:.i.i.:._ _ _ _ i.i.i.i.i.i.@ g%h%i%g%@ j%k%l%Y@_ i.i.i.i.i.i.i.i.i.i.i._ +.'._ A+:._ _ @.h$W.#@. ",
". @ Q+R+S+=#-$_ i.i.i._.A++.'.i.i.i._ _ m%n%o%_ )+i.i.i.i.i.p%'#q%r%_ _ _ i._ _ :.i.i.i.i.|+|+B#:.:.:.i.i.)+)+i.i._ w.g$^%W.H   ",
". @ s%f%t%D@p.} _ :.:._._._ :.:.i.:._ ( u%v%w%_ :.i.i.i.i.:.:._ i.)+:._ _ _ +._ :.i.i.i.:.i.:.f#:.i.i.i.i.i.:.:._ _ w.@.k.A x%f@",
"  m.y%] S+Y$p._ _ i.i.i.i.i._ _ i.i.:.i.z%A%~$_ _ :.:._.:.i.i._ : i._._ B%C%D%:.)+)+E%F%G%i.i.|+i.i.i.i.i.:.:._ H%I%J%W$I$7 7%f@",
"  @ y%K%S+Y$3+_ _ :.i.i.i.i._ _ _ i.i.i.i.: i.i.i.i.i.i.i.i.i.i.i.i.i._ L%M%N%:.{.O%P%Q%R%i.i.i.i.i.:._ _ i.: _ S%T%U%V%W%M@&.  ",
"+ @ s%] X%Y%Z%`%[ _ _ i.i.|+:._ _ i.i.i.i.i.i.i.i.i.i.|+i.i.i.i.i.i.:._  &J%c@_ _.+.>%.& @:.i.i.i.:.:._ _ i.i.:.+&@&#&4@0#D 7%  ",
"  @ $&K%X%C %&#.:.w.D._ :.:.i.i._ i.i._ :.:.:.:.i.i.|+B#:.:._.:.i.i._ _ _ } w.H._._ _ _ _ _ _ +._._.:._ _ _ i._ _ _ _ @.&&W.H   ",
"  m.*&=&7 D -&W ;&>&>&,&,&'&r r )&!&!&)&,&,&,&,&,&r r r ~&r ,&,&,&r ,&)&,&)&;&,&,&,&,&,&)&)&)&)&~&,&,&{&]&,&,&)&)&,&,&^&/&W.Z f@",
"  (&_&W.W.7 7 M@M@M@W.M@M@M@M@M@M@M@M@M@M@M@M@M@M@M@M@M@M@M@M@M@M@M@M@M@M@M@M@M@M@M@M@M@M@M@M@M@M@M@-.M@M@M@M@M@M@7 7 7 7 z Z f@",
"    :&<&<&[&[&<&<&<&<&[&[&<&}&<&}&<&<&|&|&<&|&<&[&[&<&<&<&[&<&<&<&|&|&<&|&|&1&2&<&<&<&[&[&<&<&<&<&|&[&[&<&<&<&<&<&<&<&[&3&<&4&  ",
"                                    f@f@      f@f@        f@    f@f@f@    f@    f@f@  f@f@f@f@    f@f@    f@        f@          "};
