/* XPM */
static char * floor_64_xpm[] = {
"64 64 589 2",
"  	c #010101",
". 	c #000101",
"+ 	c #010100",
"@ 	c #000000",
"# 	c #000100",
"$ 	c #583A24",
"% 	c #5A3A23",
"& 	c #5A3923",
"* 	c #5B3923",
"= 	c #5B3A23",
"- 	c #5B3A22",
"; 	c #5B3922",
"> 	c #5C3A23",
", 	c #5A3922",
"' 	c #462B19",
") 	c #2B190E",
"! 	c #1B1008",
"~ 	c #9C5F34",
"{ 	c #A15F31",
"] 	c #A16032",
"^ 	c #A06031",
"/ 	c #A16031",
"( 	c #A26130",
"_ 	c #A36131",
": 	c #A36031",
"< 	c #A26030",
"[ 	c #A26031",
"} 	c #A26131",
"| 	c #A36130",
"1 	c #A16030",
"2 	c #A25F31",
"3 	c #A15F30",
"4 	c #A15E31",
"5 	c #A05E32",
"6 	c #7B4825",
"7 	c #532F18",
"8 	c #382111",
"9 	c #000001",
"0 	c #9C5F35",
"a 	c #A15E32",
"b 	c #8D532C",
"c 	c #8C532C",
"d 	c #8C532B",
"e 	c #8D522B",
"f 	c #8D542B",
"g 	c #8D542C",
"h 	c #8C542B",
"i 	c #8D532B",
"j 	c #8B542B",
"k 	c #8B542C",
"l 	c #8D532A",
"m 	c #8C542A",
"n 	c #8C532A",
"o 	c #8B532B",
"p 	c #8C542C",
"q 	c #8C522B",
"r 	c #734323",
"s 	c #533019",
"t 	c #371F10",
"u 	c #9D5F35",
"v 	c #A05F31",
"w 	c #573018",
"x 	c #532E18",
"y 	c #522E18",
"z 	c #522F19",
"A 	c #522E19",
"B 	c #522F18",
"C 	c #522E16",
"D 	c #522F17",
"E 	c #522E17",
"F 	c #512E16",
"G 	c #532F1A",
"H 	c #371F11",
"I 	c #9D6034",
"J 	c #563017",
"K 	c #63341B",
"L 	c #65351B",
"M 	c #6F4123",
"N 	c #704224",
"O 	c #704223",
"P 	c #6F4223",
"Q 	c #6F4222",
"R 	c #704222",
"S 	c #704122",
"T 	c #6F4224",
"U 	c #6A3B1E",
"V 	c #66351B",
"W 	c #67351A",
"X 	c #5C311A",
"Y 	c #512F19",
"Z 	c #351F11",
"` 	c #9D5F34",
" .	c #803D1F",
"..	c #853E1E",
"+.	c #A36132",
"@.	c #955028",
"#.	c #883E1E",
"$.	c #853D1E",
"%.	c #6D361B",
"&.	c #361F11",
"*.	c #9F5F31",
"=.	c #573118",
"-.	c #532E17",
";.	c #8A4825",
">.	c #8E4825",
",.	c #A36033",
"'.	c #A36032",
").	c #B66F3B",
"!.	c #BA723C",
"~.	c #A76433",
"{.	c #A46033",
"].	c #AF6634",
"^.	c #B26834",
"/.	c #A66332",
"(.	c #A46132",
"_.	c #A46131",
":.	c #B16B38",
"<.	c #B9713B",
"[.	c #AB6735",
"}.	c #98542B",
"|.	c #8E4724",
"1.	c #874221",
"2.	c #6B361B",
"3.	c #543019",
"4.	c #382011",
"5.	c #532E16",
"6.	c #E6914D",
"7.	c #F09851",
"8.	c #B36C39",
"9.	c #CD7537",
"0.	c #D77838",
"a.	c #B06633",
"b.	c #D68647",
"c.	c #EF9951",
"d.	c #C47A40",
"e.	c #A46031",
"f.	c #935028",
"g.	c #6E371C",
"h.	c #361E11",
"i.	c #010000",
"j.	c #573017",
"k.	c #522E15",
"l.	c #9F5F32",
"m.	c #B56F39",
"n.	c #B76F3A",
"o.	c #A56333",
"p.	c #D78848",
"q.	c #E08E4B",
"r.	c #AF6B37",
"s.	c #A36231",
"t.	c #B46935",
"u.	c #B76B35",
"v.	c #A76332",
"w.	c #C57137",
"x.	c #CD7438",
"y.	c #AE6633",
"z.	c #A26231",
"A.	c #A26132",
"B.	c #CA7F43",
"C.	c #BD743D",
"D.	c #A36232",
"E.	c #935027",
"F.	c #6D371B",
"G.	c #381F10",
"H.	c #A05F32",
"I.	c #EB9751",
"J.	c #F09951",
"K.	c #AE6936",
"L.	c #A36133",
"M.	c #E18141",
"N.	c #EE8743",
"O.	c #B76A36",
"P.	c #532F19",
"Q.	c #563018",
"R.	c #AF6534",
"S.	c #E08E4D",
"T.	c #E4904D",
"U.	c #AC6735",
"V.	c #AE6533",
"W.	c #B16633",
"X.	c #D77B3E",
"Y.	c #DF7F3F",
"Z.	c #B36835",
"`.	c #AC6433",
" +	c #B06533",
".+	c #B46B37",
"++	c #B66E39",
"@+	c #A96634",
"#+	c #A46032",
"$+	c #A45F33",
"%+	c #D5783B",
"&+	c #D87A3A",
"*+	c #A96332",
"=+	c #CF7539",
"-+	c #D8783A",
";+	c #CA7237",
">+	c #DA7A3A",
",+	c #EA924C",
"'+	c #F09850",
")+	c #C0773E",
"!+	c #A46030",
"~+	c #6C371B",
"{+	c #371F12",
"]+	c #9F5F33",
"^+	c #CB743A",
"/+	c #CE7539",
"(+	c #A86332",
"_+	c #C67138",
":+	c #CE7438",
"<+	c #AD6432",
"[+	c #AC6432",
"}+	c #AF6733",
"|+	c #D87A39",
"1+	c #E28E4B",
"2+	c #E4924E",
"3+	c #BB733D",
"4+	c #AA6432",
"5+	c #6C361B",
"6+	c #CB7437",
"7+	c #D97C39",
"8+	c #D97C3A",
"9+	c #B56934",
"0+	c #C57036",
"a+	c #D8793A",
"b+	c #BB6C35",
"c+	c #934F27",
"d+	c #372011",
"e+	c #020201",
"f+	c #AC6533",
"g+	c #A46232",
"h+	c #C67137",
"i+	c #D07639",
"j+	c #D07638",
"k+	c #C06E36",
"l+	c #B66A34",
"m+	c #934F28",
"n+	c #9C6034",
"o+	c #D17639",
"p+	c #D77A3A",
"q+	c #945027",
"r+	c #362010",
"s+	c #9C6135",
"t+	c #9F6032",
"u+	c #573117",
"v+	c #532E15",
"w+	c #B06B37",
"x+	c #B26B38",
"y+	c #D27639",
"z+	c #D77939",
"A+	c #AB6432",
"B+	c #A35F31",
"C+	c #AC6836",
"D+	c #B26C38",
"E+	c #AA6635",
"F+	c #925027",
"G+	c #381F11",
"H+	c #532F15",
"I+	c #E8944F",
"J+	c #F19951",
"K+	c #D57A3B",
"L+	c #D17638",
"M+	c #B36834",
"N+	c #AC6633",
"O+	c #A46231",
"P+	c #AF6A37",
"Q+	c #A66333",
"R+	c #D58547",
"S+	c #F29C52",
"T+	c #CB8043",
"U+	c #563016",
"V+	c #E8934E",
"W+	c #A66330",
"X+	c #D27839",
"Y+	c #AD6533",
"Z+	c #E4924D",
"`+	c #F19850",
" @	c #B67039",
".@	c #A36030",
"+@	c #CE8144",
"@@	c #E7934E",
"#@	c #C37A40",
"$@	c #945028",
"%@	c #9C6035",
"&@	c #CB7337",
"*@	c #AB6533",
"=@	c #DD8B4A",
"-@	c #E8924D",
";@	c #B46D39",
">@	c #A15E30",
",@	c #A05D2F",
"'@	c #A25F30",
")@	c #010201",
"!@	c #9F6031",
"~@	c #924C27",
"{@	c #883D1E",
"]@	c #99552B",
"^@	c #392012",
"/@	c #9E6031",
"(@	c #AC6835",
"_@	c #A56231",
":@	c #A56132",
"<@	c #944F28",
"[@	c #8B4321",
"}@	c #9A572C",
"|@	c #6D371C",
"1@	c #9B6035",
"2@	c #573119",
"3@	c #532F16",
"4@	c #EC9550",
"5@	c #AF6633",
"6@	c #CD7437",
"7@	c #D87838",
"8@	c #B26732",
"9@	c #DC8B4A",
"0@	c #F09A51",
"a@	c #C1773F",
"b@	c #532F17",
"c@	c #E7924F",
"d@	c #EC944F",
"e@	c #AB6634",
"f@	c #CA7338",
"g@	c #D37839",
"h@	c #C97238",
"i@	c #D37738",
"j@	c #B16733",
"k@	c #D78748",
"l@	c #EA954F",
"m@	c #BE753D",
"n@	c #A76231",
"o@	c #A86231",
"p@	c #A66030",
"q@	c #A86130",
"r@	c #A96231",
"s@	c #9E5F32",
"t@	c #563118",
"u@	c #533016",
"v@	c #E8914C",
"w@	c #B36E39",
"x@	c #C97237",
"y@	c #DB7B3A",
"z@	c #E9914B",
"A@	c #F1994F",
"B@	c #C47A3F",
"C@	c #A26232",
"D@	c #A66331",
"E@	c #A86431",
"F@	c #A56331",
"G@	c #924F27",
"H@	c #542F18",
"I@	c #382010",
"J@	c #E5914C",
"K@	c #EF9750",
"L@	c #B36D39",
"M@	c #C77237",
"N@	c #DA7B3A",
"O@	c #E78F48",
"P@	c #C47940",
"Q@	c #D38446",
"R@	c #C97D41",
"S@	c #6E371B",
"T@	c #A56131",
"U@	c #A56130",
"V@	c #A46130",
"W@	c #D28346",
"X@	c #F09852",
"Y@	c #C97C41",
"Z@	c #DF8D4C",
"`@	c #BE743C",
" #	c #DF8D4B",
".#	c #EF9850",
"+#	c #BD733D",
"@#	c #A66131",
"##	c #A56031",
"$#	c #A3602F",
"%#	c #A25F2E",
"&#	c #A16130",
"*#	c #C37036",
"=#	c #A56030",
"-#	c #A4602F",
";#	c #A2602F",
">#	c #D67839",
",#	c #BA6B35",
"'#	c #EB9652",
")#	c #EF9952",
"!#	c #F09953",
"~#	c #EF9853",
"{#	c #CF7639",
"]#	c #D7793A",
"^#	c #AE6734",
"/#	c #E4914D",
"(#	c #EF9851",
"_#	c #B8703B",
":#	c #DE8C4A",
"<#	c #F0964F",
"[#	c #ED9651",
"}#	c #F29B53",
"|#	c #AB6734",
"1#	c #B8703A",
"2#	c #DF8C4A",
"3#	c #F29850",
"4#	c #6D381C",
"5#	c #EB9650",
"6#	c #F09A52",
"7#	c #AD6835",
"8#	c #A76232",
"9#	c #A46133",
"0#	c #A86331",
"a#	c #6E381C",
"b#	c #542F19",
"c#	c #9F6033",
"d#	c #A26032",
"e#	c #EA9650",
"f#	c #020202",
"g#	c #9D6035",
"h#	c #A86433",
"i#	c #A96433",
"j#	c #D58647",
"k#	c #EE9851",
"l#	c #C37840",
"m#	c #944F27",
"n#	c #A45F30",
"o#	c #D98848",
"p#	c #F19A52",
"q#	c #C57A41",
"r#	c #DF8444",
"s#	c #E88A47",
"t#	c #B16935",
"u#	c #C97339",
"v#	c #D37739",
"w#	c #A36034",
"x#	c #A86434",
"y#	c #573218",
"z#	c #E38745",
"A#	c #ED8C47",
"B#	c #B26A36",
"C#	c #CC7439",
"D#	c #B36833",
"E#	c #955128",
"F#	c #6F381C",
"G#	c #994F29",
"H#	c #974B26",
"I#	c #A15D30",
"J#	c #502F18",
"K#	c #351F10",
"L#	c #C97337",
"M#	c #D28245",
"N#	c #EA924E",
"O#	c #C3773E",
"P#	c #D87A3B",
"Q#	c #AF6533",
"R#	c #D88647",
"S#	c #C87A40",
"T#	c #72381C",
"U#	c #562F18",
"V#	c #3A2111",
"W#	c #904925",
"X#	c #8F4624",
"Y#	c #D48546",
"Z#	c #E6924C",
"`#	c #AD6836",
" $	c #CD8043",
".$	c #E6914B",
"+$	c #C4793F",
"@$	c #965128",
"#$	c #6F371B",
"$$	c #8C4322",
"%$	c #8B3F1F",
"&$	c #F19A51",
"*$	c #C2773F",
"=$	c #512D18",
"-$	c #9F5B30",
";$	c #9F5B2F",
">$	c #AE6937",
",$	c #B36C38",
"'$	c #A86534",
")$	c #B26B37",
"!$	c #A96533",
"~$	c #954F28",
"{$	c #72381B",
"]$	c #542F16",
"^$	c #A56032",
"/$	c #522F16",
"($	c #E08E4C",
"_$	c #AA6636",
":$	c #D98849",
"<$	c #E48F4C",
"[$	c #B16B37",
"}$	c #512E17",
"|$	c #351E10",
"1$	c #AC6736",
"2$	c #A56232",
"3$	c #E4904C",
"4$	c #B56E39",
"5$	c #D68648",
"6$	c #E38F4C",
"7$	c #D77D3D",
"8$	c #D27737",
"9$	c #BE6C34",
"0$	c #CE7336",
"a$	c #B66933",
"b$	c #6F371C",
"c$	c #B46E39",
"d$	c #B66F3A",
"e$	c #B26D38",
"f$	c #A66433",
"g$	c #E1833F",
"h$	c #DB7938",
"i$	c #B66934",
"j$	c #C46F35",
"k$	c #D77937",
"l$	c #BB6B34",
"m$	c #372010",
"n$	c #EE974F",
"o$	c #E1823F",
"p$	c #B66834",
"q$	c #AB6433",
"r$	c #A06032",
"s$	c #B7703A",
"t$	c #B36935",
"u$	c #B26632",
"v$	c #DA8949",
"w$	c #E38F4B",
"x$	c #B16C38",
"y$	c #9E6135",
"z$	c #573217",
"A$	c #E9924C",
"B$	c #F49A50",
"C$	c #B56F3A",
"D$	c #362011",
"E$	c #9F6136",
"F$	c #BB723B",
"G$	c #96512A",
"H$	c #914926",
"I$	c #9E5A2E",
"J$	c #CE8043",
"K$	c #E08C49",
"L$	c #BB723C",
"M$	c #99542B",
"N$	c #934A26",
"O$	c #9C582D",
"P$	c #A16132",
"Q$	c #914A26",
"R$	c #8B3F20",
"S$	c #9D582D",
"T$	c #DB8947",
"U$	c #F2974E",
"V$	c #C4773F",
"W$	c #954E28",
"X$	c #8A3E20",
"Y$	c #99532B",
"Z$	c #965028",
"`$	c #71381C",
" %	c #583117",
".%	c #552F16",
"+%	c #8D4926",
"@%	c #904A25",
"#%	c #9E5B2E",
"$%	c #BD743C",
"%%	c #9F5C2F",
"&%	c #9D592E",
"*%	c #A05E2F",
"=%	c #9E6136",
"-%	c #833D20",
";%	c #70371C",
">%	c #6E4326",
",%	c #704324",
"'%	c #65351C",
")%	c #724324",
"!%	c #724424",
"~%	c #724323",
"{%	c #734324",
"]%	c #724423",
"^%	c #734424",
"/%	c #734423",
"(%	c #724223",
"_%	c #724322",
":%	c #6C3C1E",
"<%	c #5D3219",
"[%	c #010001",
"}%	c #502F1A",
"|%	c #2C1B11",
"1%	c #2D1A0E",
"2%	c #2D1A0F",
"3%	c #2C1A0E",
"4%	c #2E1A0E",
"5%	c #2E1A0F",
"6%	c #2E190E",
"7%	c #2D190E",
"8%	c #1D1009",
"        .                                                         +           . .                   @ @ .     @ @ @     @ @ @   ",
"# @ $ % & * * = - = = = = = * ; - = ; & ; = - = - - > - ; , * ; , ; , , ; * , & * , , - = & , = ; , ; , - - ; , * & , ; ' ) !   ",
"# @ ~ { { ] ^ / ( _ : _ _ _ < < < < [ / / } | ( } _ _ } [ < 1 1 1 1 1 ^ 1 ^ / / 1 ^ 1 1 ( / [ ( < 1 < 1 < < < 2 3 4 4 5 6 7 8   ",
"9 @ 0 a b c d e b f f g f f h d i i j k d f f d d l f i d d h d m j n o d c n h p o n d d c c f n d d h d n n n q q e c r s t   ",
"  @ u v w x y y y z z z z y y A y y y y B B y C C C y y y D y E E E y y y E B B E C C C E y B z y B y C E y y E D y F E B G H   ",
"  @ I v J E K L M M N O O O P P P O O O O O P Q R R O O O O O O Q O O O O O O O Q S R O O O P T O P O O S O O O O U V W X Y Z   ",
"  @ ` v w E  ...[ _ _ _ _ < } } +._ _ _ _ _ _ _ _ _ } _ _ _ +._ _ _ _ _ _ _ _ _ _ _ _ _ _ _ _ +._ _ _ _ _ +._ _ _ @.#.$.%.s &.  ",
"  @ I *.=.-.;.>.[ _ +._ _ _ _ +.,.'.).!.~._ _ +._ ,.{._ +._ ].^./._ '.+._ (._._ _ _ _ _ +._ (._.:.<.[._ _ _ _ _ _ }.|.1.2.3.4.  ",
"@ @ I v w 5.5 _ _ _ _ _ _ +._ +.,.'.6.7.8.} _ _.'.{.{._ _ _.9.0.a.+.,.'._ _ +._ _ _ _ '.,._ _ _ b.c.d._ _ _ e._ _ _ _ f.g.z h.  ",
"  i.I v j.k.l._ _ _ _ _ m.n.o._ (.+.p.q.r.s.e._.'.'.t.u.v._ w.x.y.(.{.+._ z.+._ _ _ _ ,.,._._ A.B.q.C._ _ _ _.+.D.D.} E.F.7 G.  ",
"  i.I v J k.H._ +.+._ _.I.J.K._ ,.L.+._ _ e.e.(.,.'.M.N.O._ _ _ _ e.e._ _ '.+._ _ _ _ +._ '.,.+.+.: e._ _ _.(.{.(._ } E.F.P.4.  ",
"+ @ I v Q.C H.e.,.,.R.a.S.T.U._ +.+.e.e.e.(.(.e.V.W.X.Y.Z._ _ _ e.e.e.: _ ,.`. +.+++@+_ _ e.e.{.+._ _ _ _.e.e.{.#+_ _ f.F.z &.  ",
"+ i.` v Q.E l._ '.$+%+&+*+_ _ _ _ e.e.e.(.(.(.#+=+-+a.: _ _ _ _ e.e.e.e.e.'.;+>+,+'+)+_ _ e.e.#++._ _ _ _.!+e.{.#+_ _ f.~+P.{+  ",
"  @ ` v Q.E ]+_ +.,.^+/+(+_ _ _ e.e.e._._._._.,._+:+<+_ _ _ _ _ _ e.e.e.[+}+x.|+1+2+3+} _ _ _ _ z._ 4+y.(+_._._._._ _ E.5+z H   ",
"  @ ` v J 5.l._ _ _ _ } } _ _ _ _ _ _ _ _ (.(.+.: _ _ s.} _ _ _ _.e._ _ 6+7+8+&+9+_ _ _ _ _ _ _ _ _.0+a+b+_ _ s._ _ _ c+~+B d+e+",
"  @ I v Q.E l.} _ _ _ _ _ _ _ e.f+y.g+_ +.(.(.+.: _ _ } _ _ _ _ _._._ _ h+i+i+j+^._ _ _._ _ _._ e.#+k+i+l+_ _ _ _ _ _ m+F.3.4.  ",
"@ @ n+v J C l._ _ _ _ _ _ _ _.e.o+p+f+_ _ (._.+._._ _ _ _ e.e._ _ _ _ _ _ _._ _ _ _ e.e._.e.e.e.e.#+_ _ _ D.g+_ _ _ _ q+g.P.r+. ",
". @ s+t+u+v+l._ _ '._ _ _ _ w+x+y+z+A+_ _ +.+._._ _ _ _ #+'.B+_ _ e._ _ _ _ +.+._ _.e.e.e._ _ _ _._ _._._ _.C+D+E+(._ F+~+P.G+  ",
"  @ n+v u+H+l.} _ _ z.D.s._ I+J+K+L+M+N+O+_ _._ _ _ P+D+Q+A.< _ _ e._ _.e._ +._.e.e.'.'._._ _ } _ _ _ e.e._ R+S+T+z.} F+5+P.G+  ",
"  @ I v U+k.l._ _ _ D._ _ _ q.V+P+W+X+z+Y+_ _ e.,.+.Z+`+ @_ _ _ _ _._ _._._.e.e.e.e.'.'._ } _ .@_._ _ e.e._ +@@@#@s.g+$@F.z Z   ",
"+ @ %@*.j.v+l._ _ (._ _ _ +.| _ _ _ &@y+*@_ _ _ ,.'.=@-@;@_ _ _ _ _ _ _ _ e.e.e.e.,.+._ _ _ >@,@'@_ _ _ _ _ _ : _ _ _ f.F.z H )@",
"@ @ s+!@J C l._ _ _ _ _ _ _ _ _ _._ | _._ (.(._.e.: | .@_._ _ _ _ _ _ _ _ _ _ _ _._ _ _ _ _ ~@{@]@_ _ _._._ ,._ +._ _ E.~+P.^@  ",
"  @ s+/@Q.-.l._ _ _ U.(@s._ _ e.e._ _ _ _ (.e.e.e.e._ _ v.(+_@O+(+*+:@_ _ _ _ _ @+U./._ _ _ <@[@}@D._ e.e.#+,.+.+.+._ E.|@P.H   ",
"  @ 1@!@2@3@l._ _ _ 4@J+U.e.e.e.e._ } z.} _.e.e.e.e._ _ 9.z+5@_ 6@7@8@_ _ } } A.9@0@a@_ _ _ _ A.A._ e.e.e._._._ _ _ _ f.|@z &.  ",
"# @ 1@*.Q.b@t+_ _ '.c@d@e@e.: _._ _ _ _ +.: e.e.e._._ _ f@g@5@_ h@i@j@_ _ +._ _ k@l@m@_ _ _ _ : _ _ _ _.#+#+#+e.e._ _ c+|@z d+)@",
"# @ %@l.Q.7 t+_ _ _ | | _ _._ _ _ _ _ e.+._ _ _ +._ _ e.: .@_ _._.: _ _ _ : e._ | | _._ _ _ e.e.'._ _ _ +.(.e.e.e._ _ c+F.P.4.  ",
"+ @ ~ *.=.b@l._ _ _ _ _ _ _ _ _ _ _ n@o@_._ _ _ _ _ _ e.e.e.{.e.#+'.e.e.e.e.e._ _ _ _ e.p@q@o@r@_@+.+._ _ D._ _ e._._ E.F.z H   ",
"  i.0 s@t@u@l._ _ _ _ _ _ _ _ _ _ | v@`+w@_ _ _._ _ _ _ _._ z._ _ #+e.e.e._._._ _ +._ #+x@y@z@A@B@_ e._ _ _ _ C@D@E@F@G@F.H@I@  ",
"  @ ~ *.=.3@l._ _ _ _ _ _._._ _ _ _ J@K@L@_ : e.e.e.(._._ _ _ _.e.e.e._._ _ _._._ ,.'.#+M@N@O@'+P@_.e._.e._.O+_ Q@0@R@c+S@7 &.  ",
"  @ n+v =.5.l._ +.#+T@#+#+e.e.e._._ .@!+: _ e.e.e.e._.e.e.e.e.e.e._.U@U@_._ e.e.#+,.#+e.V@V@V@!+_ _ e.e.e.e._ _ W@X@Y@$@S@z H   ",
"@ @ I v =.5.l._ (.(.e._._ e.{.#+e._ _ e.e._ _.e.e.e.e.e.e.e.e.'.'.,.Z@J.`@_ e.e.+._ _ _._ _ _ _ _ _ _ ( _ e.e.: V@U@.@c+~+P.H   ",
"+ @ %@*.=.5.l._ _ e.e._ _ (.e.e.e._ _ e.e.+.+.e.e.e.e.e._.e._.+.+._  #.#+#e.e._._ _ _.e._._ _ _ _ _ _ _ _.@###e._ _ } m+g.G H   ",
"+ @ %@t+w -.l._ _ (.(.+._ _ e.e.e.e._ _ } +.(.e.e._.e._._ _ e.D._ _ $#%#&#_ (.s.s._ _ _._ _ _ _ _ _ _ _ *#z+b+_._ _ } f.|@P.d+  ",
"  @ %@t+w -.l._ V@U@T@=#_ _ _ _ _ _._._ !+!+_ _ O++.!+-#_ _ e._ _ _ : } ;#!+_ _ _ ,._ _ _ _ _ e.e.e._ _ *#>#,#e._._ _ c+g.P.H   ",
"  i.%@t+Q.5.l.| '#)#!#~#[.+._ +.#+#+_ _.{#]#^#_ _ _ /#(#_#_.!+e.e._ +.g+:#<#+#_ _ e.e.e.e.e.e.e.e.e.e._ _.U@_.(._._ _ E.|@z &.  ",
"  @ n+*.u+3@l..@[#}#J+J.|#: e.e.e.#+e.e.i+&+5@e._ _ /#J+1#e.e._._ _ _ #+2#3#m@_ _ +.e.e.e.e.e.: _._._._ _ g+_ +.e._ _ E.4#P.{+  ",
"  @ n+!@u+u@l._ v.(+5#6#7#e.e.e.e.e.e._ U@U@_.e.e.e.8#n@_._._._ _ _.#+9#8#0#_@_ _._.e.e.e.e._ _ z._ _ D._ _ _ _ _ } } f.a#b#H   ",
"  @ %@!@t@b@c#_ } d#e#c.U._ _ _ _ _ _ _ [ _ _.e.e.#+{._.(.e.e._._._ _ _ _ +.e._._.e.e.e.e._.| | _ _ _ _ _._ s.z.+._ } $@a#z H f#",
"@ @ g#l.2@b@t+} _ _ h#i#_.e._ _ _ _ e.e._ e.e.#+e.(.#+#+#+e.e.e.e.e._._ _ ,.#+e.#+e.#+#+(.#+j#k#l#_ _ (.(._._ _ _ e._ m#g.z d+)@",
"# @ %@*.u+3@l._ +.'.e.e.e._.(._.#+#+n#n#_ '.{.{.e.e.e.{.e.e.{.e._.e.e..@_.'.e._ (._ _.#+{.{.o#p#q#_ _ #+e.e._._ _ e._ q+g.z H   ",
"  @ s+t+=.b@l._ +._ _ (.(.(._.e.#+#+r#s#t#'.{.{.e.: : e.e.e.{._.e._ u#v#j@: e._.L._ _ e._.w#x#e@/.D.s._ e.e.#+e._ _ _ $@a#s G+  ",
"  @ s+t+y#3@l._ _ _ _._.(.(.e.e.e.#+z#A#B#_ (.(._ e._._._ +.#+#+#+_ C#z+D#} _ _.+._.e.e.e.(.+.A.} _ _ _ _ _ e.(.+._.D.E#F#z &.  ",
"# @ %@!@u+3@l._ _ _ _._._.e.e._._.+.G#H#I#_.e.: _ _._._.#+#+#+{.#+_.(+4+_@_ _.e.e.e._.(._._ +.,.+._ _ _ _ +.(.+.e._._ $@g.J#K#f#",
"  @ n+*.j.v+l._ _ _ e._._._ e._.+.+.I#I#: {.#+e.L#i+<+e.e.e.e.e.(.g+_._ _ e._.e._._ _ _ _._ _._ _ e.M#N#O#_ _ _._ _ _ q+S@B I@  ",
"# i.%@!@u+3@l._ _ _ e.: _ _ _ (.'._ _ _ _ : e.'.{#P#Q#e.e.e.e.e._ _ _ _ _ _ +._.: ( _ '.e.e.e._ e._ R#3#S#_ _ _ _ < [ $@T#U#V#  ",
"  @ s+t+j.5.t+_ _ _.e.e.W#X#3 _ (._._ _ _ _._ _ A+f+_@e._._ _._._ _ _ _ _ _._ _ Y#Z#C._ e.e.e._ _ _ `#D+@+_ _ _  $.$+$@$#$y t   ",
"  @ n+!@j.v+l._ (._ _ _ $$%$>@_.:@g+g+_ L._._ _ _ _ _ _ _ _ _ e._ +._ _ _ s.D.+.9@&$*$_ +._._._ _ _ _ _ _ _ _ _ Y#S+ $E#5+=$t e+",
"  @ g#H.j.v+l._._.s._ _ -$;$: _.(._.e._.,._ _.e._ _ _._.e.(.+.e._ _ _ _ _ _ '.'.>$,$'$_ _.e.e.e.e.e.e.+._ _ _ _ C+)$!$~${$]$I@)@",
"@ @ %@t+u+5.t+e._ _ _ _.,.+._._.e.e.e.e.(._.e._ _ e.: e.e.e.e.e.e._.g+(.e.e.e.e.e._ _ _ (.^$e.e.e.#+(.e.e.e.e._ _ _ _ m##$3@t   ",
"  @ %@!@u+/$t+e.: < ($T._$,._.e.e.(.(._.(._._._ :$<$[$'.e.e.e._ _ e.(.e.e.e.e._.e.#+_._.:@:@e.e.#+(.g+e.e.!+: _ _ _ _ $@g.}$|$  ",
"  @ %@t+=.u@l.#+(._ 5#0@1$+._.e.e.2$g+(.+._._.,.3$7.4$,._ _._ _ _ _ 5$6$7$8$D#_._.e.#+g+O+_@g+_.(._ _ _ 9$0$a$s.z.} } @.b$y H   ",
"  @ I t+=.3@H.#+(.+.c$d$2$_ e.{.(.2$g+_.e.e.e.'.e$d$f$_ _._._ _._ _  #.#g$h$i$_ _ e.e.e._.(.(._.e._ _ : j$k$l$_._ _._ @.b$z m$)@",
"  @ I t+2@b@l.+.e.e.e.: : _._.(.(.:@_.e.: e.#+e._ _ _ _ e.e._ e._ _  #n$o$h$p$_ _ e.e.e.e.(.e.e.e.e.e._ q$a.(+_.e.e._ @.b$z m$  ",
"@ i.g#r$=.3@l._ e.e.e.e.e.(.g+_.e.e._._ _ _ _ e.e.e.e.e.e.e._ e.e._ D+s$t$u$n@_ e.e.e.e.e.e.e.e.e.e.e._ +.'._ g+_._ _ @.F#P.G+. ",
". @ s+t+u+u@c#_ e.e.e.(.g++.'.e.e.e._ _ v$w$x$_ #+e.e.e.e.e._ _.e.e._ _ _ e._ _ _.e.e.e.e.!+!+-#_._._.e.e.#+#+e.e._ s.E#b$P.H   ",
". @ y$r$z$3@l.} _ _._.(.(._ _._.e._._ ( A$B$C$_ _.e.e.e.e._._._ e.#+_._ _ _ +._ _.e.e.e._.e._.V@_.e.e.e.e.e._._._ _ s.@.g.A D$)@",
"  i.E$] u+]$l._ _ e.e.e.e.e._ _ e.e._.e.1#F$h#_ _ _._.(._.e.e._ : e.(._ G$H$I$_.#+#+J$K$L$e.e.!+e.e.e.e.e._._._ M$N$O$~$#$7 m$)@",
"  @ E$P$u+]$]+_ _ _.e.e.e.e._ _ _ e.e.e.e.: e.e.e.e.e.e.e.e.e.e.e.e.e._ Q$R$S$_.{.9#T$U$V$e.e.e.e.e._._ _ e.: _ W$X$Y$Z$`$b@&.  ",
"+ @ y$]  %.%+%@%[ _ _ e.e.!+_._ _ e.e.e.e.e.e.e.e.e.e.!+e.e.e.e.e.e._._ #%O$>@_ (.+.4$$%C+_.e.e.e._._._ _ e.e._.%%&%*%$@S@D m$  ",
"  @ =%P$ %C -%#._.s.z._ _._.e.e._ e.e._ _._._._.e.e.!+-#_._.(._.e.e._ _ _ } s.D.(._ _ _ _ _ _ +.(.(._._ _ _ e._ _ _ _ @.;%P.H   ",
"  i.>%,%7 D '%W )%!%!%~%~%{%r r ]%^%^%]%~%~%~%~%~%r r r /%r ~%~%~%r ~%]%~%]%)%~%~%~%~%~%]%]%]%]%/%~%~%(%_%~%~%]%]%~%~%:%<%P.Z )@",
"  [%}%P.P.7 7 b@b@b@P.b@b@b@b@b@b@b@b@b@b@b@b@b@b@b@b@b@b@b@b@b@b@b@b@b@b@b@b@b@b@b@b@b@b@b@b@b@b@b@-.b@b@b@b@b@b@7 7 7 7 z Z )@",
"    |%1%1%2%2%1%1%1%1%2%2%1%3%1%3%1%1%4%4%1%4%1%2%2%1%1%1%2%1%1%1%4%4%1%4%4%5%6%1%1%1%2%2%1%1%1%1%4%2%2%1%1%1%1%1%1%1%2%7%1%8%  ",
"                                    )@)@      )@)@        )@    )@)@)@    )@    )@)@  )@)@)@)@    )@)@    )@        )@          "};
