/* XPM */
static char * mario_left_64_xpm[] = {
"64 64 1309 2",
"  	c #010101",
". 	c #000101",
"+ 	c #000000",
"@ 	c #010100",
"# 	c #000100",
"$ 	c #583A24",
"% 	c #5A3A23",
"& 	c #5A3923",
"* 	c #5B3923",
"= 	c #5B3A23",
"- 	c #5B3A22",
"; 	c #5B3922",
"> 	c #540C14",
", 	c #681718",
"' 	c #7B1E1C",
") 	c #7A1E1C",
"! 	c #7A1D1C",
"~ 	c #661517",
"{ 	c #550C13",
"] 	c #5A3922",
"^ 	c #462B19",
"/ 	c #2B190E",
"( 	c #1B1008",
"_ 	c #9C5F34",
": 	c #A15F31",
"< 	c #A16032",
"[ 	c #A06031",
"} 	c #A16031",
"| 	c #A26130",
"1 	c #A36131",
"2 	c #A36031",
"3 	c #A26030",
"4 	c #A26031",
"5 	c #020202",
"6 	c #7F101D",
"7 	c #A71125",
"8 	c #C62225",
"9 	c #DE2B27",
"0 	c #DF2C28",
"a 	c #DF2D29",
"b 	c #DD2A26",
"c 	c #C22025",
"d 	c #A51124",
"e 	c #740D19",
"f 	c #010201",
"g 	c #A16030",
"h 	c #A25F31",
"i 	c #A15F30",
"j 	c #A15E31",
"k 	c #A05E32",
"l 	c #7B4825",
"m 	c #532F18",
"n 	c #382111",
"o 	c #000001",
"p 	c #9C5F35",
"q 	c #A15E32",
"r 	c #8D532C",
"s 	c #8C532C",
"t 	c #8C532B",
"u 	c #8D522B",
"v 	c #8D542B",
"w 	c #8D542C",
"x 	c #8C542B",
"y 	c #8D532B",
"z 	c #570B14",
"A 	c #921920",
"B 	c #BA1D26",
"C 	c #D32829",
"D 	c #DF2D28",
"E 	c #CD2627",
"F 	c #B71C25",
"G 	c #991E21",
"H 	c #791D1B",
"I 	c #6C1718",
"J 	c #520B12",
"K 	c #3D080E",
"L 	c #8C542C",
"M 	c #8B532B",
"N 	c #8C532A",
"O 	c #8C522B",
"P 	c #734323",
"Q 	c #533019",
"R 	c #371F10",
"S 	c #9D5F35",
"T 	c #A05F31",
"U 	c #573018",
"V 	c #532E18",
"W 	c #522E18",
"X 	c #522F19",
"Y 	c #522E19",
"Z 	c #7C111D",
"` 	c #A71226",
" .	c #CB2528",
"..	c #DE2C28",
"+.	c #DF2C29",
"@.	c #DE2C27",
"#.	c #A41124",
"$.	c #81101D",
"%.	c #522E17",
"&.	c #522E16",
"*.	c #522F18",
"=.	c #522F17",
"-.	c #512E16",
";.	c #532F1A",
">.	c #371F11",
",.	c #9D6034",
"'.	c #563017",
").	c #63341B",
"!.	c #65351B",
"~.	c #6F4123",
"{.	c #704224",
"].	c #704223",
"^.	c #6F4223",
"/.	c #997173",
"(.	c #BF898C",
"_.	c #D15B5C",
":.	c #D12727",
"<.	c #9C1D22",
"[.	c #6E1918",
"}.	c #661718",
"|.	c #500B12",
"1.	c #704222",
"2.	c #6F4224",
"3.	c #704122",
"4.	c #6A3B1E",
"5.	c #66351B",
"6.	c #67351A",
"7.	c #5C311A",
"8.	c #512F19",
"9.	c #351F11",
"0.	c #9D5F34",
"a.	c #803D1F",
"b.	c #853E1E",
"c.	c #A26131",
"d.	c #A36132",
"e.	c #CACBCB",
"f.	c #FEFEFE",
"g.	c #E5A5A5",
"h.	c #CC2528",
"i.	c #A41224",
"j.	c #010202",
"k.	c #955028",
"l.	c #883E1E",
"m.	c #853D1E",
"n.	c #6D361B",
"o.	c #361F11",
"p.	c #9F5F31",
"q.	c #573118",
"r.	c #532E17",
"s.	c #8A4825",
"t.	c #8E4825",
"u.	c #A36033",
"v.	c #CBCBCB",
"w.	c #FEFFFE",
"x.	c #DEA3A4",
"y.	c #CF2627",
"z.	c #D82A28",
"A.	c #E02D29",
"B.	c #E02C28",
"C.	c #E02D28",
"D.	c #D22728",
"E.	c #B61B25",
"F.	c #991921",
"G.	c #4B0C12",
"H.	c #A46132",
"I.	c #A46131",
"J.	c #B16B38",
"K.	c #B9713B",
"L.	c #AB6735",
"M.	c #98542B",
"N.	c #8E4724",
"O.	c #874221",
"P.	c #6B361B",
"Q.	c #543019",
"R.	c #382011",
"S.	c #532E16",
"T.	c #FFFFFF",
"U.	c #CCA4A6",
"V.	c #C72326",
"W.	c #CC2628",
"X.	c #A21425",
"Y.	c #81111E",
"Z.	c #D68647",
"`.	c #EF9951",
" +	c #C47A40",
".+	c #A46031",
"++	c #935028",
"@+	c #6E371C",
"#+	c #361E11",
"$+	c #010000",
"%+	c #573017",
"&+	c #522E15",
"*+	c #9F5F32",
"=+	c #B56F39",
"-+	c #B76F3A",
";+	c #A56333",
">+	c #C1C2C2",
",+	c #F1F2F2",
"'+	c #C4999D",
")+	c #C82327",
"!+	c #DF2E29",
"~+	c #DE2D28",
"{+	c #D02727",
"]+	c #B01924",
"^+	c #991821",
"/+	c #490910",
"(+	c #A26132",
"_+	c #CA7F43",
":+	c #E08E4B",
"<+	c #BD743D",
"[+	c #A36232",
"}+	c #935027",
"|+	c #6D371B",
"1+	c #381F10",
"2+	c #A05F32",
"3+	c #EB9751",
"4+	c #F09951",
"5+	c #AE6936",
"6+	c #929599",
"7+	c #B7BBC0",
"8+	c #B0787E",
"9+	c #A51224",
"0+	c #C92428",
"a+	c #DD2B27",
"b+	c #CE2628",
"c+	c #A41223",
"d+	c #84111E",
"e+	c #A46033",
"f+	c #532F19",
"g+	c #563018",
"h+	c #AF6534",
"i+	c #B06633",
"j+	c #838589",
"k+	c #A5A7AC",
"l+	c #9D6C72",
"m+	c #921322",
"n+	c #BC2327",
"o+	c #D52929",
"p+	c #D92A28",
"q+	c #E02C29",
"r+	c #B01823",
"s+	c #8F161F",
"t+	c #A46032",
"u+	c #A36032",
"v+	c #A45F33",
"w+	c #D5783B",
"x+	c #020201",
"y+	c #780E1A",
"z+	c #A41023",
"A+	c #C32125",
"B+	c #B52624",
"C+	c #A46030",
"D+	c #6C371B",
"E+	c #371F12",
"F+	c #9F5F33",
"G+	c #42080E",
"H+	c #501212",
"I+	c #561413",
"J+	c #581514",
"K+	c #581614",
"L+	c #571614",
"M+	c #571514",
"N+	c #480E10",
"O+	c #3B080D",
"P+	c #6C111B",
"Q+	c #931221",
"R+	c #B12326",
"S+	c #C52D2A",
"T+	c #CB2A28",
"U+	c #D32827",
"V+	c #D92B28",
"W+	c #BB2725",
"X+	c #3B070E",
"Y+	c #450D0F",
"Z+	c #5A1916",
"`+	c #521413",
" @	c #3B080E",
".@	c #A86332",
"+@	c #6C361B",
"@@	c #881320",
"#@	c #A81326",
"$@	c #D42C2B",
"%@	c #DD2D29",
"&@	c #DE2D29",
"*@	c #DE2E29",
"=@	c #DD2C28",
"-@	c #BD1F26",
";@	c #A51225",
">@	c #6E0E18",
",@	c #020101",
"'@	c #71101A",
")@	c #A61225",
"!@	c #C72227",
"~@	c #CE2627",
"{@	c #B61D25",
"]@	c #DE2F29",
"^@	c #D12A28",
"/@	c #8E1422",
"(@	c #BB6C35",
"_@	c #A36231",
":@	c #934F27",
"<@	c #372011",
"[@	c #030201",
"}@	c #80131E",
"|@	c #8E1321",
"1@	c #B92727",
"2@	c #C72C28",
"3@	c #C82C29",
"4@	c #C52B28",
"5@	c #C62B28",
"6@	c #C72B28",
"7@	c #C92D29",
"8@	c #BC252A",
"9@	c #AE1724",
"0@	c #7F171C",
"a@	c #521412",
"b@	c #480F11",
"c@	c #3A070D",
"d@	c #6A121A",
"e@	c #911322",
"f@	c #B22025",
"g@	c #D42827",
"h@	c #D62928",
"i@	c #DA2B29",
"j@	c #D22827",
"k@	c #B11A25",
"l@	c #BD2026",
"m@	c #DD2C27",
"n@	c #D42928",
"o@	c #B21925",
"p@	c #991823",
"q@	c #3C080D",
"r@	c #934F28",
"s@	c #9C6034",
"t@	c #A72523",
"u@	c #DC2A27",
"v@	c #DC2C27",
"w@	c #DC2E29",
"x@	c #C42428",
"y@	c #6B0E18",
"z@	c #6D0D18",
"A@	c #A21023",
"B@	c #D4292A",
"C@	c #A61224",
"D@	c #8D1221",
"E@	c #A46232",
"F@	c #945027",
"G@	c #362010",
"H@	c #9C6135",
"I@	c #9F6032",
"J@	c #573117",
"K@	c #532E15",
"L@	c #423128",
"M@	c #513C2F",
"N@	c #9D362F",
"O@	c #C62D28",
"P@	c #C52B27",
"Q@	c #AC2024",
"R@	c #921222",
"S@	c #630E16",
"T@	c #600E16",
"U@	c #901221",
"V@	c #911221",
"W@	c #921221",
"X@	c #B01F25",
"Y@	c #D72928",
"Z@	c #D72A28",
"`@	c #D72A29",
" #	c #D62A28",
".#	c #D92B29",
"+#	c #DC2D28",
"@#	c #DA2D28",
"##	c #D52A29",
"$#	c #CB2829",
"%#	c #AC6836",
"&#	c #B26C38",
"*#	c #AA6635",
"=#	c #925027",
"-#	c #381F11",
";#	c #532F15",
">#	c #A26231",
",#	c #E8944F",
"'#	c #F19951",
")#	c #D57A3B",
"!#	c #AA7553",
"~#	c #D79162",
"{#	c #8B6048",
"]#	c #670D17",
"^#	c #A61124",
"/#	c #A51123",
"(#	c #A31323",
"_#	c #A31223",
":#	c #A41123",
"<#	c #BB1E27",
"[#	c #D32B29",
"}#	c #D58547",
"|#	c #F29C52",
"1#	c #CB8043",
"2#	c #563016",
"3#	c #E8934E",
"4#	c #AF6A37",
"5#	c #AB7553",
"6#	c #DA9263",
"7#	c #9A7764",
"8#	c #5B5B5C",
"9#	c #5C5C5C",
"0#	c #5D5D5D",
"a#	c #564E49",
"b#	c #4E382C",
"c#	c #4B3629",
"d#	c #4C372A",
"e#	c #37271F",
"f#	c #100805",
"g#	c #1E0F08",
"h#	c #5F1317",
"i#	c #931321",
"j#	c #941322",
"k#	c #951222",
"l#	c #941122",
"m#	c #A81C25",
"n#	c #D72B29",
"o#	c #D72B28",
"p#	c #CD2728",
"q#	c #CE8144",
"r#	c #E7934E",
"s#	c #C37A40",
"t#	c #945028",
"u#	c #9C6035",
"v#	c #A36130",
"w#	c #D89162",
"x#	c #EDDBCF",
"y#	c #FFFFFE",
"z#	c #E9CDBD",
"A#	c #D88F62",
"B#	c #D89064",
"C#	c #D79062",
"D#	c #9B694B",
"E#	c #371D11",
"F#	c #572D1A",
"G#	c #472415",
"H#	c #550A13",
"I#	c #A51223",
"J#	c #9F6031",
"K#	c #B07C5B",
"L#	c #DC9769",
"M#	c #E3CFC3",
"N#	c #EEEEED",
"O#	c #F7F6F6",
"P#	c #EBD0C1",
"Q#	c #DC9667",
"R#	c #DC9364",
"S#	c #DC9669",
"T#	c #A17254",
"U#	c #371D12",
"V#	c #552D19",
"W#	c #422315",
"X#	c #332923",
"Y#	c #554439",
"Z#	c #524236",
"`#	c #534337",
" $	c #643731",
".$	c #961322",
"+$	c #9B1223",
"@$	c #392012",
"#$	c #9E6031",
"$$	c #AC6735",
"%$	c #AC6835",
"&$	c #010301",
"*$	c #C09877",
"=$	c #F3BB8D",
"-$	c #9C7C63",
";$	c #C1C1C1",
">$	c #F6DECC",
",$	c #F1B98E",
"'$	c #F1B98C",
")$	c #F1B989",
"!$	c #AE8768",
"~$	c #54301D",
"{$	c #7C4326",
"]$	c #5D341F",
"^$	c #010001",
"/$	c #977860",
"($	c #F3BC91",
"_$	c #F2BA8E",
":$	c #F3B98E",
"<$	c #F3BB8F",
"[$	c #CA9E7A",
"}$	c #530C12",
"|$	c #8F1221",
"1$	c #6D371C",
"2$	c #9B6035",
"3$	c #573119",
"4$	c #532F16",
"5$	c #EC9550",
"6$	c #443830",
"7$	c #43372F",
"8$	c #443730",
"9$	c #44372F",
"0$	c #42362E",
"a$	c #C49B79",
"b$	c #F2BC8E",
"c$	c #9D7D65",
"d$	c #C0C0C0",
"e$	c #F6DDCA",
"f$	c #EBB88D",
"g$	c #E4B289",
"h$	c #A68165",
"i$	c #1E120D",
"j$	c #5A331F",
"k$	c #7F4426",
"l$	c #62351F",
"m$	c #97765C",
"n$	c #F2B88A",
"o$	c #F1BA8D",
"p$	c #F0BA8E",
"q$	c #F2B88B",
"r$	c #C99B77",
"s$	c #490D12",
"t$	c #981423",
"u$	c #991423",
"v$	c #991524",
"w$	c #9D1525",
"x$	c #A01324",
"y$	c #961524",
"z$	c #8B252E",
"A$	c #532F17",
"B$	c #E7924F",
"C$	c #D1A380",
"D$	c #F2BC91",
"E$	c #F2BC90",
"F$	c #F2BB90",
"G$	c #F2BB8F",
"H$	c #F1BB8F",
"I$	c #F2BC8F",
"J$	c #F3BB8E",
"K$	c #9C7B63",
"L$	c #C1C0C1",
"M$	c #F1B88A",
"N$	c #AB8769",
"O$	c #57311F",
"P$	c #7E4629",
"Q$	c #814628",
"R$	c #7C4426",
"S$	c #5D351F",
"T$	c #98775E",
"U$	c #F3BA8D",
"V$	c #EBAD81",
"W$	c #D79061",
"X$	c #E1A073",
"Y$	c #F2B98F",
"Z$	c #CA9D79",
"`$	c #050101",
" %	c #030101",
".%	c #43080F",
"+%	c #3A2F27",
"@%	c #D4A581",
"#%	c #F3B98D",
"$%	c #A28066",
"%%	c #392E25",
"&%	c #C3C0BC",
"*%	c #FDFAF5",
"=%	c #F6D9C3",
"-%	c #F1B88C",
";%	c #AA8569",
">%	c #542F1D",
",%	c #7A4226",
"'%	c #7A4326",
")%	c #7D4426",
"!%	c #623620",
"~%	c #967359",
"{%	c #F1B587",
"]%	c #E9A77B",
"^%	c #D89060",
"/%	c #E29F72",
"(%	c #F2B98C",
"_%	c #050202",
":%	c #0F0503",
"<%	c #0D0503",
"[%	c #440C11",
"}%	c #9D1425",
"|%	c #8A232D",
"1%	c #050505",
"2%	c #D3A582",
"3%	c #F1BB90",
"4%	c #F3BB90",
"5%	c #F3BA8E",
"6%	c #F4BA8D",
"7%	c #F2BB8D",
"8%	c #F1BA8C",
"9%	c #F0B88B",
"0%	c #F0B98C",
"a%	c #F0BA90",
"b%	c #562B19",
"c%	c #6D3A20",
"d%	c #623621",
"e%	c #895D43",
"f%	c #D98E60",
"g%	c #D88D5E",
"h%	c #D88F60",
"i%	c #E2A073",
"j%	c #F3BA8C",
"k%	c #CA9D78",
"l%	c #2B160F",
"m%	c #592C1A",
"n%	c #562B1A",
"o%	c #552C1A",
"p%	c #4C2819",
"q%	c #9E5F32",
"r%	c #563118",
"s%	c #533016",
"t%	c #D5A580",
"u%	c #F3B98C",
"v%	c #F2BA8C",
"w%	c #F2B98B",
"x%	c #F2B78A",
"y%	c #F1B88B",
"z%	c #F1B98D",
"A%	c #EDB98F",
"B%	c #EAB68C",
"C%	c #E9B388",
"D%	c #E9B68B",
"E%	c #A9896E",
"F%	c #2A2018",
"G%	c #3D251A",
"H%	c #522C1A",
"I%	c #653822",
"J%	c #7C4629",
"K%	c #643B27",
"L%	c #271D15",
"M%	c #8B6044",
"N%	c #D99262",
"O%	c #D99364",
"P%	c #E2A175",
"Q%	c #27150E",
"R%	c #592C18",
"S%	c #5B2F1A",
"T%	c #552E1B",
"U%	c #482B1F",
"V%	c #A26232",
"W%	c #A66331",
"X%	c #A86431",
"Y%	c #A56331",
"Z%	c #924F27",
"`%	c #542F18",
" &	c #382010",
".&	c #D6A682",
"+&	c #F2BA8D",
"@&	c #E3A174",
"#&	c #D99061",
"$&	c #E3A579",
"%&	c #EAB48A",
"&&	c #A18066",
"*&	c #020000",
"=&	c #A9886D",
"-&	c #EFB98E",
";&	c #AD876A",
">&	c #040201",
",&	c #9E7E64",
"'&	c #F0B98D",
")&	c #E6A87A",
"!&	c #D88E5E",
"~&	c #E2A071",
"{&	c #F3BD8F",
"]&	c #C99C78",
"^&	c #3F2518",
"/&	c #6A3C23",
"(&	c #C47940",
"_&	c #A46231",
":&	c #D38446",
"<&	c #F09A51",
"[&	c #C97D41",
"}&	c #6E371B",
"|&	c #D6A884",
"1&	c #F3B88A",
"2&	c #F3B88B",
"3&	c #F1BC92",
"4&	c #E0A177",
"5&	c #D48E63",
"6&	c #865F48",
"7&	c #AB866A",
"8&	c #B28B6E",
"9&	c #17100D",
"0&	c #19110E",
"a&	c #1B130F",
"b&	c #9F7C62",
"c&	c #EAAD81",
"d&	c #D99263",
"e&	c #F3B98B",
"f&	c #F2BA8F",
"g&	c #EFBB91",
"h&	c #C69B7A",
"i&	c #060202",
"j&	c #412618",
"k&	c #7F4526",
"l&	c #6D3C23",
"m&	c #D28346",
"n&	c #F09852",
"o&	c #C97C41",
"p&	c #BE825C",
"q&	c #D99265",
"r&	c #D99266",
"s&	c #D78E61",
"t&	c #8D593C",
"u&	c #5B2E18",
"v&	c #391A0E",
"w&	c #F2B98D",
"x&	c #F1B98F",
"y&	c #EEB78C",
"z&	c #EEB88C",
"A&	c #EEBA8F",
"B&	c #F0BA8F",
"C&	c #F2B88C",
"D&	c #C69976",
"E&	c #412416",
"F&	c #784328",
"G&	c #7B4327",
"H&	c #7D4325",
"I&	c #6C3C24",
"J&	c #A46130",
"K&	c #A56130",
"L&	c #A36030",
"M&	c #BC825E",
"N&	c #D69165",
"O&	c #D69167",
"P&	c #D59167",
"Q&	c #D59165",
"R&	c #8F5C41",
"S&	c #562E1C",
"T&	c #2F190F",
"U&	c #AB8567",
"V&	c #F2B889",
"W&	c #EFB88B",
"X&	c #F0BA8D",
"Y&	c #C59B78",
"Z&	c #3F2417",
"`&	c #7E4427",
" *	c #6D3D23",
".*	c #A66131",
"+*	c #A56031",
"@*	c #A37153",
"#*	c #D69368",
"$*	c #E4A87D",
"%*	c #F0B98E",
"&*	c #F2BB8B",
"**	c #F2BC8C",
"=*	c #E8AD81",
"-*	c #AC7451",
";*	c #32190E",
">*	c #532816",
",*	c #512918",
"'*	c #562D1C",
")*	c #572C19",
"!*	c #63351D",
"~*	c #7E4425",
"{*	c #7E4526",
"]*	c #7A4528",
"^*	c #6A3D26",
"/*	c #C37036",
"(*	c #D77939",
"_*	c #A56131",
":*	c #A16E4D",
"<*	c #E6AD81",
"[*	c #F3B689",
"}*	c #F3B78A",
"|*	c #E8AE82",
"1*	c #D59266",
"2*	c #A87353",
"3*	c #2C1810",
"4*	c #552E1D",
"5*	c #582D1C",
"6*	c #572C1B",
"7*	c #562C1A",
"8*	c #65351E",
"9*	c #7B4325",
"0*	c #7B4426",
"a*	c #6D3E25",
"b*	c #D67839",
"c*	c #BA6B35",
"d*	c #EB9652",
"e*	c #EF9952",
"f*	c #F09953",
"g*	c #EF9853",
"h*	c #B68E6E",
"i*	c #F3B889",
"j*	c #E7AC83",
"k*	c #D89062",
"l*	c #AA7452",
"m*	c #190E09",
"n*	c #100806",
"o*	c #060201",
"p*	c #2E170E",
"q*	c #562D1B",
"r*	c #552D1B",
"s*	c #542D1A",
"t*	c #542C19",
"u*	c #4D2718",
"v*	c #ED9651",
"w*	c #F29B53",
"x*	c #AB6734",
"y*	c #A27154",
"z*	c #CC8A61",
"A*	c #D18D63",
"B*	c #D39066",
"C*	c #E5AC82",
"D*	c #F4B98B",
"E*	c #F1B78B",
"F*	c #EFB78C",
"G*	c #E4A97F",
"H*	c #D79366",
"I*	c #D79266",
"J*	c #D68F63",
"K*	c #A47050",
"L*	c #010104",
"M*	c #010108",
"N*	c #2A1610",
"O*	c #542C1B",
"P*	c #522D1B",
"Q*	c #512D1B",
"R*	c #532E1C",
"S*	c #532E1B",
"T*	c #552D1C",
"U*	c #4B281A",
"V*	c #6D381C",
"W*	c #A76332",
"X*	c #EB9650",
"Y*	c #F09A52",
"Z*	c #AD6835",
"`*	c #24160E",
" =	c #AB7452",
".=	c #D99163",
"+=	c #DA9468",
"@=	c #DA9568",
"#=	c #D99264",
"$=	c #9A6A4B",
"%=	c #251B13",
"&=	c #251912",
"*=	c #25170E",
"==	c #27180F",
"-=	c #25160E",
";=	c #180D08",
">=	c #1B2551",
",=	c #2B3C82",
"'=	c #2A3B7F",
")=	c #293C82",
"!=	c #233168",
"~=	c #080302",
"{=	c #090402",
"]=	c #0A0403",
"^=	c #0A0402",
"/=	c #6E381C",
"(=	c #542F19",
"_=	c #9F6033",
":=	c #A26032",
"<=	c #EA9650",
"[=	c #090A09",
"}=	c #A67050",
"|=	c #D78F62",
"1=	c #D68F61",
"2=	c #D89163",
"3=	c #98694C",
"4=	c #020207",
"5=	c #010204",
"6=	c #040101",
"7=	c #0B0101",
"8=	c #090101",
"9=	c #070101",
"0=	c #1B234D",
"a=	c #2B3E86",
"b=	c #293F89",
"c=	c #2A3E89",
"d=	c #22306A",
"e=	c #9D6035",
"f=	c #A86433",
"g=	c #A96433",
"h=	c #2F2119",
"i=	c #2F2118",
"j=	c #302219",
"k=	c #30221A",
"l=	c #2C2F59",
"m=	c #2A3C85",
"n=	c #1F2C5F",
"o=	c #8D2422",
"p=	c #D5312D",
"q=	c #D32F2C",
"r=	c #D22F2A",
"s=	c #A32A28",
"t=	c #070A1A",
"u=	c #1A2552",
"v=	c #2B3D89",
"w=	c #2A3D88",
"x=	c #222F67",
"y=	c #D58647",
"z=	c #EE9851",
"A=	c #C37840",
"B=	c #944F27",
"C=	c #A45F30",
"D=	c #010103",
"E=	c #202D64",
"F=	c #2C3D89",
"G=	c #1F2A5D",
"H=	c #922220",
"I=	c #E02E2B",
"J=	c #DF2D2A",
"K=	c #AA2523",
"L=	c #1A234D",
"M=	c #2B3D87",
"N=	c #2B3D88",
"O=	c #22306C",
"P=	c #D98848",
"Q=	c #F19A52",
"R=	c #C57A41",
"S=	c #DF8444",
"T=	c #7E383C",
"U=	c #971323",
"V=	c #5E0D16",
"W=	c #1D2858",
"X=	c #28397D",
"Y=	c #1E2957",
"Z=	c #0B0E22",
"`=	c #8B2628",
" -	c #CD2E2A",
".-	c #D42D2A",
"+-	c #DE2C29",
"@-	c #C82629",
"#-	c #971422",
"$-	c #701421",
"%-	c #0A0E1F",
"&-	c #1B2655",
"*-	c #2A3E8B",
"=-	c #384170",
"--	c #A36034",
";-	c #A86434",
">-	c #AB6634",
",-	c #A66332",
"'-	c #573218",
")-	c #E38745",
"!-	c #79111C",
"~-	c #A31224",
"{-	c #670C18",
"]-	c #010203",
"^-	c #273F80",
"/-	c #3557B3",
"(-	c #273C77",
"_-	c #922420",
":-	c #D92E29",
"<-	c #DC2C29",
"[-	c #CA2528",
"}-	c #7E101B",
"|-	c #18234D",
"1-	c #2B3D8A",
"2-	c #22316D",
"3-	c #955128",
"4-	c #6F381C",
"5-	c #994F29",
"6-	c #240406",
"7-	c #310609",
"8-	c #344079",
"9-	c #3756A7",
"0-	c #3658B0",
"a-	c #365AB9",
"b-	c #283F7F",
"c-	c #290908",
"d-	c #3F0D0C",
"e-	c #992522",
"f-	c #E02E29",
"g-	c #A41324",
"h-	c #81111C",
"i-	c #17214A",
"j-	c #2A3D89",
"k-	c #233271",
"l-	c #010102",
"m-	c #502F18",
"n-	c #351F10",
"o-	c #A78B41",
"p-	c #E0B950",
"q-	c #9F9391",
"r-	c #375BBC",
"s-	c #293F7F",
"t-	c #942422",
"u-	c #DE2F2A",
"v-	c #DD2E2A",
"w-	c #DD2F2B",
"x-	c #CB282A",
"y-	c #7D101D",
"z-	c #18224C",
"A-	c #2B3D8B",
"B-	c #2A3D87",
"C-	c #222F65",
"D-	c #D28245",
"E-	c #EA924E",
"F-	c #C3773E",
"G-	c #2A4080",
"H-	c #3353A8",
"I-	c #3354AD",
"J-	c #3455AC",
"K-	c #B79B71",
"L-	c #F2C134",
"M-	c #AB9686",
"N-	c #375ABC",
"O-	c #294081",
"P-	c #300E0D",
"Q-	c #4D1413",
"R-	c #4D1513",
"S-	c #72151C",
"T-	c #A21223",
"U-	c #7D101C",
"V-	c #2B3E8B",
"W-	c #23316F",
"X-	c #D88647",
"Y-	c #F29850",
"Z-	c #C87A40",
"`-	c #72381C",
" ;	c #562F18",
".;	c #3A2111",
"+;	c #904925",
"@;	c #8F4624",
"#;	c #2B4890",
"$;	c #345ABB",
"%;	c #365BBC",
"&;	c #B9A080",
"*;	c #F2C33C",
"=;	c #AA9685",
"-;	c #3659B9",
";;	c #283E7D",
">;	c #610C15",
",;	c #A31222",
"';	c #7E111C",
");	c #17224B",
"!;	c #233270",
"~;	c #AD6836",
"{;	c #A96634",
"];	c #CD8043",
"^;	c #E6914B",
"/;	c #C4793F",
"(;	c #965128",
"_;	c #6F371B",
":;	c #8C4322",
"<;	c #8B3F1F",
"[;	c #A15E30",
"};	c #A56132",
"|;	c #2C4993",
"1;	c #355BBE",
"2;	c #345ABD",
"3;	c #355ABC",
"4;	c #57629C",
"5;	c #6A677D",
"6;	c #5262A5",
"7;	c #375CBC",
"8;	c #273F7C",
"9;	c #75787B",
"0;	c #A4A8AC",
"a;	c #C7C9CA",
"b;	c #E8E8E8",
"c;	c #CFD0D1",
"d;	c #A7ACAF",
"e;	c #89888B",
"f;	c #39090C",
"g;	c #2B0709",
"h;	c #2A3D8A",
"i;	c #233371",
"j;	c #D48546",
"k;	c #512D18",
"l;	c #9F5B30",
"m;	c #9F5B2F",
"n;	c #2C4893",
"o;	c #355BBF",
"p;	c #355ABF",
"q;	c #345ABC",
"r;	c #2F4BA0",
"s;	c #293F8A",
"t;	c #24356F",
"u;	c #182447",
"v;	c #A4A4A9",
"w;	c #E6E6E5",
"x;	c #EDEDEE",
"y;	c #F2F2F3",
"z;	c #F8F8F8",
"A;	c #E5E6E7",
"B;	c #B6BBBF",
"C;	c #93979A",
"D;	c #17214B",
"E;	c #233370",
"F;	c #B26B37",
"G;	c #A96533",
"H;	c #954F28",
"I;	c #72381B",
"J;	c #542F16",
"K;	c #2C4792",
"L;	c #355ABE",
"M;	c #3358B9",
"N;	c #3356B5",
"O;	c #253A77",
"P;	c #B3B3B4",
"Q;	c #F9FAFA",
"R;	c #F1F2F3",
"S;	c #DADBDD",
"T;	c #A5A8AC",
"U;	c #85878B",
"V;	c #16214A",
"W;	c #293D89",
"X;	c #A56032",
"Y;	c #522F16",
"Z;	c #E08E4C",
"`;	c #E4904D",
" >	c #AA6636",
".>	c #2C4892",
"+>	c #345BBD",
"@>	c #273D7E",
"#>	c #8E8F92",
"$>	c #C4C7CA",
"%>	c #E2E4E5",
"&>	c #E6E7E8",
"*>	c #B4B9BD",
"=>	c #919598",
"->	c #16224B",
";>	c #293E89",
">>	c #2B3E8A",
",>	c #512E17",
"'>	c #351E10",
")>	c #AC6736",
"!>	c #355BBD",
"~>	c #273E7F",
"{>	c #020302",
"]>	c #84888A",
"^>	c #B6BABE",
"/>	c #DBDDDF",
"(>	c #929699",
"_>	c #A56231",
":>	c #BE6C34",
"<>	c #CE7336",
"[>	c #B66933",
"}>	c #6F371C",
"|>	c #B46E39",
"1>	c #B66F3A",
"2>	c #A56232",
"3>	c #365BBD",
"4>	c #355ABD",
"5>	c #345ABE",
"6>	c #365ABC",
"7>	c #273D7C",
"8>	c #AEAFAF",
"9>	c #F2F3F3",
"0>	c #23326F",
"a>	c #C46F35",
"b>	c #D77937",
"c>	c #BB6B34",
"d>	c #372010",
"e>	c #273A7C",
"f>	c #2D4597",
"g>	c #2C4699",
"h>	c #2C4495",
"i>	c #1F2F64",
"j>	c #B6B6B6",
"k>	c #919498",
"l>	c #18224E",
"m>	c #253577",
"n>	c #AB6433",
"o>	c #A06032",
"p>	c #212E66",
"q>	c #293C87",
"r>	c #293C88",
"s>	c #293A80",
"t>	c #273676",
"u>	c #5E6076",
"v>	c #7D7D7D",
"w>	c #7E7D7D",
"x>	c #717272",
"y>	c #5C5D5F",
"z>	c #4A4D60",
"A>	c #263471",
"B>	c #28387B",
"C>	c #23316E",
"D>	c #213068",
"E>	c #2A3C87",
"F>	c #1D2857",
"G>	c #000201",
"H>	c #18234C",
"I>	c #2A3D86",
"J>	c #23306B",
"K>	c #A4602F",
"L>	c #9E6135",
"M>	c #573217",
"N>	c #131B3E",
"O>	c #141B3E",
"P>	c #131B3C",
"Q>	c #131B3B",
"R>	c #263C77",
"S>	c #2F50A3",
"T>	c #2F4EA0",
"U>	c #2F4EA1",
"V>	c #2C4590",
"W>	c #243473",
"X>	c #253474",
"Y>	c #263575",
"Z>	c #253574",
"`>	c #253676",
" ,	c #223065",
".,	c #141D41",
"+,	c #141B3D",
"@,	c #362011",
"#,	c #9F6136",
"$,	c #B8703A",
"%,	c #284083",
"&,	c #314DA6",
"*,	c #2A3E8C",
"=,	c #2A3F8B",
"-,	c #2A3E8A",
";,	c #24326E",
">,	c #CE8043",
",,	c #E08C49",
"',	c #BB723C",
"),	c #99542B",
"!,	c #934A26",
"~,	c #9C582D",
"{,	c #A16132",
"],	c #152042",
"^,	c #1E2F62",
"/,	c #1E2E5E",
"(,	c #1F2F61",
"_,	c #1C2956",
":,	c #161F44",
"<,	c #161F45",
"[,	c #151E43",
"},	c #151E42",
"|,	c #111733",
"1,	c #A46133",
"2,	c #DB8947",
"3,	c #F2974E",
"4,	c #C4773F",
"5,	c #954E28",
"6,	c #8A3E20",
"7,	c #99532B",
"8,	c #965028",
"9,	c #71381C",
"0,	c #583117",
"a,	c #552F16",
"b,	c #8D4926",
"c,	c #904A25",
"d,	c #B56E39",
"e,	c #BD743C",
"f,	c #9F5C2F",
"g,	c #9D592E",
"h,	c #A05E2F",
"i,	c #9E6136",
"j,	c #833D20",
"k,	c #643821",
"l,	c #75472D",
"m,	c #8A5636",
"n,	c #7D4C2D",
"o,	c #653A22",
"p,	c #633922",
"q,	c #633821",
"r,	c #643822",
"s,	c #633822",
"t,	c #5C331F",
"u,	c #472517",
"v,	c #381E13",
"w,	c #70371C",
"x,	c #6E4326",
"y,	c #704324",
"z,	c #65351C",
"A,	c #724324",
"B,	c #724424",
"C,	c #724323",
"D,	c #734324",
"E,	c #724423",
"F,	c #734424",
"G,	c #5B331E",
"H,	c #7A4325",
"I,	c #935732",
"J,	c #A36439",
"K,	c #8D5430",
"L,	c #7A4425",
"M,	c #7A4224",
"N,	c #794324",
"O,	c #7B4425",
"P,	c #6E3C21",
"Q,	c #522B19",
"R,	c #402216",
"S,	c #734423",
"T,	c #724223",
"U,	c #724322",
"V,	c #6C3C1E",
"W,	c #5D3219",
"X,	c #502F1A",
"Y,	c #59321D",
"Z,	c #844B2A",
"`,	c #8B522E",
" '	c #804929",
".'	c #784224",
"+'	c #794224",
"@'	c #6E3B21",
"#'	c #532C19",
"$'	c #402215",
"%'	c #2C1B11",
"&'	c #2D1A0E",
"*'	c #2D1A0F",
"='	c #2C1A0E",
"-'	c #2E1A0E",
";'	c #2F1B11",
">'	c #432717",
",'	c #442717",
"''	c #442617",
")'	c #432617",
"!'	c #3D2215",
"~'	c #301A0F",
"{'	c #24130C",
"]'	c #2D190E",
"^'	c #1D1009",
"        .                                 +                   +   @           . .                   + + .     + + +     + + +   ",
"# + $ % & * * = - = = = = = * ; - = ; & + + > , ' ) ! ! ! ~ { + + + + + + + ] & * ] ] - = & ] = ; ] ; ] - - ; ] * & ] ; ^ / (   ",
"# + _ : : < [ } | 1 2 1 1 1 3 3 3 3 4 + 5 6 7 8 9 0 a 0 b c d e     f f   + } } g [ g g | } 4 | 3 g 3 g 3 3 3 h i j j k l m n   ",
"o + p q r s t u r v v w v v x t y y + + z A B C D 0 0 0 0 E F G H I J K f + + + L M N t t s s v N t t x t N N N O O u s P Q R   ",
"  + S T U V W W W X X X X W W Y W + f Z `  ...0 0 0 0 0 0 +.0 0 @.8 #.$.  f f + %.&.&.&.%.W *.X W *.W &.%.W W %.=.W -.%.*.;.>.  ",
"  + ,.T '.%.).!.~.~.{.].].].^.^.^.+ 5 /.(._.a 0 0 0 D D D D 0 0 0 :.B <.[.}.|.+ + + 1.].].].^.2.].^.].].3.].].].].4.5.6.7.8.9.  ",
"  + 0.T U %.a.b.4 1 1 1 1 3 c.c.d.+ # e.f.g.0 0 0 0 0 0 ..0 0 0 0 0 0 ..9 h.i.6 j.+ 1 1 1 1 1 d.1 1 1 1 1 d.1 1 1 k.l.m.n.Q o.  ",
"  + ,.p.q.r.s.t.4 1 d.1 1 1 1 d.u.+   v.w.x.y.z.a A.A.0 a 0 0 B.C.0 0 0 0 D.E.F.G.+ + + d.1 H.I.J.K.L.1 1 1 1 1 1 M.N.O.P.Q.R.  ",
"+ + ,.T U S.k 1 1 1 1 1 1 d.1 d.u.+   v.T.U.d V.0 +.A.A.a a a a +.0 0 0 0 0 0 W.X.Y.+ + u.1 1 1 Z.`. +1 1 1 .+1 1 1 1 ++@+X #+  ",
"  $+,.T %+&+*+1 1 1 1 1 =+-+;+1 H.+ f >+,+'+#.)+D a a !+a ~+a D 0 D D 0 D D D {+]+^+/++ + I.1 (+_+:+<+1 1 1 I.d.[+[+c.}+|+m 1+  ",
"  $+,.T '.&+2+1 d.d.1 I.3+4+5+1 u.+   6+7+8+9+0+D D a 0 0 0 +.a 0 0 D D D D 0 ..a+b+c+d++ + u.d.d.2 .+1 1 I.H.e+H.1 c.}+|+f+R.  ",
"@ + ,.T g+&.2+.+u.u.h+i++ + + + + +   j+k+l+m+n+o+p+0 0 0 q+0 0 0 0 0 0 a a 0 0 ..{+r+s+  + + + + + 1 1 I..+.+e+t+1 1 ++|+X o.  ",
"@ $+0.T g+%.*+1 u+v+w++ f j.f     +       x+x+y+z+A+0 0 +.0 0 0 0 0 0 +.D D 0 0 0 ..a+B+$+    . f + 1 1 I.C+.+e+t+1 1 ++D+f+E+  ",
"  + 0.T g+%.F+1 d.u.+ + G+H+I+J+K+J+J+L+M+N+O+P+Q+R+S+T+U+V+D 0 0 0 a a a a D 0 0 ....W+X+Y+Z+`+ @+ + + .@I.I.I.I.1 1 }++@X >.  ",
"  + 0.T '.S.*+1 1 + @ @@#@$@..%@&@*@*@&@=@-@;@>@,@,@,@'@)@!@0 ....~+a a a a &@0 0 ....~@i.{@]@^@i./@f + (@1 1 _@1 1 1 :@D+*.<@x+",
"  + ,.T g+%.*+c.1 + [@}@|@1@2@3@2@4@5@6@7@8@9@0@a@b@c@d@e@f@U+g@h@i@A.a a +.~+0 0 ....j@k@l@m@n@o@p@q@+ + + 1 1 1 1 1 r@|+Q.R.  ",
"+ + s@T '.&.*+1 1 +   ,@    .           ,@t@u@v@w@x@#.y@$+z@A@d d l@....0 0 0 0 0 ....0 0 0 =@=@..B@C@D@+ + E@1 1 1 1 F@@+f+G@. ",
". + H@I@J@K@*+1 1 u++ + + + + + + + 5 L@M@N@O@O@P@Q@R@S@  T@U@V@W@X@h@h@Y@Z@`@ # #.#......=@+#@###$#i.V@+ + %#&#*#H.1 =#D+f+-#  ",
"  + s@T J@;#*+c.1 1 >#[+_@1 ,#'#)#+   !#~#{#  @ +     x+          ]#^#/#(#(#_#:#/#<#..=@=@+#+#[#C@9+9+U@+ + }#|#1#>#c.=#+@f+-#  ",
"  + ,.T 2#&+*+1 1 1 [+1 1 1 :+3#4#+   5#6#7#8#9#0#a#b#c#d#e#  f#g#h#Q+W@i#j#k#k#l#m#Z@`@n#o#Z@p##.9+i.U@+ + q#r#s#_@E@t#|+X 9.  ",
"@ + u#p.%+K@*+1 1 H.1 1 1 d.v#1 1 +   5#w#x#T.T.y#z#A#B#C#D#  E#F#G#5 . +     $+  H#9+I#d /#:#z+:##.;@V@+ + 1 2 1 1 1 ++|+X >.f ",
"+ + H@J#'.&.*+1 1 1 1 1 1 1 + + + + x+K#L#M#N#O#f.P#Q#R#S#T#x+U#V#W#. X#Y#Z#Z#Z#`# $.$+$#.:#:#:#:#9+;@V@+ + u.1 d.1 1 }+D+f+@$  ",
"  + H@#$g+r.*+1 1 1 $$%$_@+ &$  . f 5 *$=$-$  ;$T.>$,$'$)$!$f ~${$]$^$/$($_$_$:$<$[$,@}$C@c+c+c+9+9+i.|$+ + u.d.d.d.1 }+1$f+>.  ",
"  + 2$J#3$4$*+1 1 1 5$'#+ + 6$7$8$9$0$a$b$c$  d$y#e$'$f$g$h$i$j$k$l$  m$n$o$p$'$q$r$  s$t$u$v$w$)@x$y$z$+ + I.1 1 1 1 ++1$X o.  ",
"# + 2$p.g+A$I@1 1 u+B$+ f C$D$E$F$G$H$I$J$K$  L$y#e$M$N$  O$P$Q$R$S$  T$U$V$W$X$Y$Z$+   `$`$ %.%i.e@+ + t+t+t+.+.+1 1 :@1$X <@f ",
"# + u#*+g+m I@1 1 1 + + +%@%U$U$U$U$#%#%#%$%%%&%*%=%-%;%  >%,%'%)%!%  ~%{%]%^%/%(%Z$  _%:%<%<%[%}%|%+ + d.H..+.+.+1 1 :@|+f+R.  ",
"@ + _ p.q.A$*+1 1 + 1%2%3%4%5%U$#%U$U$6%7%8%9%9%0%a%,$;%  E#b%c%R$d%  e%f%g%h%i%j%k%. l%m%n%o%p%+ + d.1 1 [+1 1 .+I.1 }+|+X >.  ",
"  $+p q%r%s%*+1 1 + f t%u%=$6%U$U$U$v%w%x%y%z%A%B%C%D%E%F%G%H%I%J%K%L%M%N%N%O%P%J$[$  Q%R%S%T%U%+ + .+1 1 1 1 V%W%X%Y%Z%|+`% &  ",
"  + _ p.q.4$*+1 1 + x+.&u%j%U$U$U$J$+&@&#&$&%&&&*&+ + =&-&;&x+>&`$,&'&)&!&~&{&E$v%]&  ^&R$/& %+ (&I..+I..+I._&1 :&<&[&:@}&m o.  ",
"  + s@T q.S.*+1 d.+   |&5%:$u%1&2&F$3&4&5&6&+ +       7&-%8&9&0&a&b&u%c&d&/%e&f&g&h&i&j&k&l&. + 1 1 .+.+.+.+1 1 m&n&o&t#}&X >.  ",
"+ + ,.T q.S.*+1 H.+ x+p&d&q&r&B#s&t&u&v&+ +   + + + + 7&w&x&y&z&A&B&C&2&e&U$u%D&+ E&F&G&H&I&o + 1 1 1 | 1 .+.+2 J&K&L&:@D+f+>.  ",
"@ + u#p.q.S.*+1 1 + + M&N&O&P&O&Q&R&S&T&      + + + + U&u%U$U$+&w%V&2&f&y&W&X&Y&  Z&'%`&)% *@ + 1 1 1 1 I..*+*.+1 1 c.r@@+;.>.  ",
"@ + u#I@U r.*+1 1 H.+ + # + + + + x+5         @*#*$*%*v%&***=$5%F$=*g%-*. ;*>*,*'*'*)*!*~*{*]*^*+ + 1 1 /*(*(@I.1 1 c.++1$f+<@  ",
"  + u#I@U r.*+1 J&K&_*+ + + + +       + + +   :*d&<*E$G$=$e&[*}*u%|*1*2*. 3*4*5*6*o%7*8*9*'%0*a*+ + 1 1 /*b*c*.+I.1 1 :@@+f+>.  ",
"  $+u#I@g+S.*+v#d*e*f*g*L.d.1 +   + + + + + + h*i*e&J$f&F$j*k*!&^%l*m*n*^$,@o*p*7*q*r*s*t*b%)*u*+ + .+1 I.K&I.H.I.1 1 }+1$X o.  ",
"  + s@p.J@4$*+L&v*w*'#4+x*2 .++ +   5 y*z*A*B*C*J$6%D*E*F*G*H*I*J*K*  L*M*L*L*N*O*P*Q*R*S*T*r*U*+ + I.1 1 E@1 d..+1 1 }+V*f+E+  ",
"  + s@J#J@s%*+1 W*.@X*Y*Z*.+.+.+.+.+.++ `* =f%.=+=@=#=$=%=&=*===-=;=f >=,='=)=!=~={=]=]=^=^=^=+ >#1 1 [+1 1 1 1 1 c.c.++/=(=>.  ",
"  + u#J#r%A$_=1 c.:=<=`.$$1 1 1 1 1 1 + [=}=|=|=1=C#2=3=4=5=  6=7=8=9=0=a=b=c=d=5=+ + + + + + + 1 1 1 1 I.1 _@>#d.1 c.t#/=X >.5 ",
"+ + e=*+3$A$I@c.1 1 f=g=I..+1 1 1 1 .+.+1 + h=i=i=j=k=l=m=n=  o=p=q=r=s=t=u=v=w=x=+ t+t+H.t+y=z=A=1 1 H.H.I.1 1 1 .+1 B=@+X <@f ",
"# + u#p.J@4$*+1 d.u+.+.+.+I.H.I.t+t+C=C=1 + 6=,@  o D=E=F=G=6=H=a I=J=K=`$L=M=N=O=+ I.t+e+e+P=Q=R=1 1 t+.+.+I.1 1 .+1 F@@+X >.  ",
"  + H@I@q.A$*+1 d.1 1 H.H.H.I..+t+t+S=+ + T=U=V=  W=X=Y=Z=`= -.-~++-J=@-#-$-%-&-*-=-+ + I.--;->-,-[+_@1 .+.+t+.+1 1 1 t#/=Q -#  ",
"  + H@I@'-4$*+1 1 1 I.I.H.H..+.+.+t+)-+ f !-~-{-]-^-/-(-f _-:-<-+.a a [-(#}-j.|-1-2-  + .+H.d.(+c.1 1 1 1 1 .+H.d.I.[+3-4-X o.  ",
"# + u#J#J@4$*+1 1 1 I.I.I..+.+I.I.d.5-+   6-7-8-9-0-a-b-  c-d-e-!+f-a [-g-h-f i-j-k-l-+ I.1 d.u.d.1 1 1 1 d.H.d..+I.1 t#@+m-n-5 ",
"  + s@p.%+K@*+1 1 1 .+I.I.1 .+I.d.+ + + 5 l-o o-p-q-r-s-+ +   t-u-v-w-x-9+y-  z-A-B-C-+ + 1 I.1 1 .+D-E-F-1 1 I.1 1 1 F@}&*. &  ",
"# $+u#J#J@4$*+1 1 1 .+2 1 1 1 H.u++ o G-H-I-J-K-L-M-N-O-+ + + P-Q-Q-R-S-T-U-  z-V-j-W-  + .+.+1 .+1 X-Y-Z-1 1 1 1 3 4 t#`- ;.;  ",
"  + H@I@%+S.I@1 1 I..+.++;@;i 1 H.+ f #;$;$;%;&;*;=;-;;;f     o + +   >;,;';5 );j-j-!;  + .+.+1 1 1 ~;&#{;1 1 1 ];^;/;(;_;W R   ",
"  + s@J#%+K@*+1 H.1 1 1 :;<;[;I.};+ f |;1;2;3;4;5;6;7;8;f 9;0;a;b;c;d;e;f;g;  );j-h;i;  + I.I.1 1 1 1 1 1 1 1 1 j;|#];3-+@k;R x+",
"  + e=2+%+K@*+I.I._@1 1 l;m;2 I.H.+   n;o;p;q;r;s;t;u;v;w;x;y;z;T.A;B;C;5     D;h;h;E;  + .+.+.+.+.+.+d.1 1 1 1 %#F;G;H;I;J; &f ",
"+ + u#I@J@S.I@.+1 1 1 I.u.d.I.I..++   K;L;1;2;M;N;O;+ P;f.T.T.T.T.Q;R;S;T;U;  V;W;1-!;. + X;.+.+.+t+H..+.+.+.+1 1 1 1 B=_;4$R   ",
"  + u#J#J@Y;I@.+2 3 Z;`; >u.I..+.++   .>2;+>1;2;3;@>  #>$>%>w.T.T.T.T.&>*>=>f ->;>>>!;+ + };.+.+t+H.E@.+.+C+2 1 1 1 1 t#@+,>'>  ",
"  + u#I@q.s%*+t+H.1 X*<&)>d.I..+.++ f .>2;!>+>2;3;~>{>]>^>/>w.T.T.T.T.&>*>(>f );c=j-!;  + _>E@I.H.1 1 1 :><>[>_@>#c.c.k.}>W >.  ",
"  + ,.I@q.4$2+t+H.d.|>1>2>1 .+e+H.+ j.n;3>4>4>5>6>7>x+8>9>z;y#T.T.T.T.&>*>(>  i-j-1-0>  + H.H.I..+1 1 2 a>b>c>I.1 I.1 k.}>X d>f ",
"  + ,.I@3$A$*+d..+.+.+2 2 I.I.H.H.+ + + + e>f>g>h>i>l-j>f.f.T.T.T.y#T.&>^>k>  l>m>+ + + .+H..+.+.+.+.+1 n>i+.@I..+.+1 k.}>X d>  ",
"+ $+e=o>q.4$*+1 .+.+.+.+.+H.E@I..+.+I.+ + p>q>r>j-s>t>u>v>v>v>w>v>v>v>x>y>z>A>B>C>+ + .+.+.+.+.+.+.+.+1 d.u+1 E@I.1 1 k.4-f+-#. ",
". + H@I@J@s%_=1 .+.+.+H.E@d.u+.+.+.+1 + j.D>j-r>r>E>m=F>  j.j.j.  j.    G>H>M=I>J>+ + .+.+C+C+K>I.I.I..+.+t+t+.+.+1 _@3-}>f+>.  ",
". + L>o>M>4$*+c.1 I.I.H.H.1 I.I..+I.1 + + + + N>O>P>Q>R>S>T>U>V>W>X>Y>Z>`> ,.,+,+ + .+.+I..+I.J&I..+.+.+.+.+I.I.1 1 _@k.@+Y @,f ",
"  $+#,< J@J;*+1 1 .+.+.+.+.+1 1 .+.+I..+$,+ + #     f %,3;2;q;&,*,=,-,c=>>;,  + + t+>,,,',.+.+C+.+.+.+.+.+I.I.1 ),!,~,H;_;m d>f ",
"  + #,{,J@J;F+1 1 I..+.+.+.+1 1 1 .+.+.+.++ + +   + + ],^,/,(,_,:,<,<,[,},|,  + + 1,2,3,4,.+.+.+.+.+I.1 1 .+2 1 5,6,7,8,9,A$o.  ",
"@ + L>< 0,a,b,c,4 1 1 .+.+C+I.1 1 .+.+.+.+.+.++         .   .     f f         + H.d.d,e,%#I..+.+.+I.I.1 1 .+.+I.f,g,h,t#}&=.d>  ",
"  + i,{,0,&.j,l.I._@>#1 I.I..+.+1 .+.+1 I.I.+ + k,l,m,n,o,p,q,k,r,q,s,t,u,v,j.+ H.1 1 1 1 1 1 d.H.H.I.1 1 1 .+1 1 1 1 k.w,f+>.  ",
"  $+x,y,m =.z,6.A,B,B,C,C,D,P P E,F,F,E,C,+ f G,H,I,J,K,L,9*M,N,H,H,O,P,Q,R,j.+ C,C,C,C,E,E,E,E,S,C,C,T,U,C,C,E,E,C,C,V,W,f+9.f ",
"  ^$X,f+f+m m A$A$A$f+A$A$A$A$A$A$A$A$A$A$+ f Y,N,Z,`, '.'+'+'+'+'N,H,@'#'$'  + A$A$A$A$A$A$A$A$A$A$r.A$A$A$A$A$A$m m m m X 9.f ",
"    %'&'&'*'*'&'&'&'&'*'*'&'='&'='&'&'-'-'+ f ;'>',''''',')''',',',')'!'~'{'  + &'&'&'*'*'&'&'&'&'-'*'*'&'&'&'&'&'&'&'*']'&'^'  ",
"                                    f f   + j.  f f     f f f   f           j.+ f f   f f f f     f f     f         f           "};
