/* XPM */
static char * mario_right_64_xpm[] = {
"64 64 1332 2",
"  	c #010101",
". 	c #000101",
"+ 	c #000000",
"@ 	c #000100",
"# 	c #583A24",
"$ 	c #5A3A23",
"% 	c #5A3923",
"& 	c #5B3923",
"* 	c #5B3A23",
"= 	c #5B3A22",
"- 	c #5B3922",
"; 	c #5C3A23",
"> 	c #570D15",
", 	c #671618",
"' 	c #7A1D1C",
") 	c #7B1D1C",
"! 	c #7B1E1C",
"~ 	c #691618",
"{ 	c #540C14",
"] 	c #5A3922",
"^ 	c #462B19",
"/ 	c #2B190E",
"( 	c #1B1008",
"_ 	c #9C5F34",
": 	c #A15F31",
"< 	c #A16032",
"[ 	c #A06031",
"} 	c #A16031",
"| 	c #A26130",
"1 	c #A36131",
"2 	c #A36031",
"3 	c #A26030",
"4 	c #A26031",
"5 	c #A26131",
"6 	c #A36130",
"7 	c #010201",
"8 	c #750E19",
"9 	c #A51224",
"0 	c #C22025",
"a 	c #DE2B27",
"b 	c #DF2C28",
"c 	c #E02C28",
"d 	c #DE2A27",
"e 	c #C62124",
"f 	c #A61124",
"g 	c #81101D",
"h 	c #A16030",
"i 	c #A25F31",
"j 	c #A15F30",
"k 	c #A15E31",
"l 	c #A05E32",
"m 	c #7B4825",
"n 	c #532F18",
"o 	c #382111",
"p 	c #000001",
"q 	c #9C5F35",
"r 	c #A15E32",
"s 	c #8D532C",
"t 	c #8C532C",
"u 	c #8C532B",
"v 	c #8D522B",
"w 	c #8D542B",
"x 	c #8D542C",
"y 	c #8C542B",
"z 	c #8D532B",
"A 	c #8B542B",
"B 	c #8B542C",
"C 	c #3B080D",
"D 	c #520B13",
"E 	c #6C1818",
"F 	c #791D1B",
"G 	c #9B1F22",
"H 	c #B71D26",
"I 	c #CE2728",
"J 	c #E02D28",
"K 	c #DE2C28",
"L 	c #D32728",
"M 	c #BC1D26",
"N 	c #941920",
"O 	c #530B14",
"P 	c #8C532A",
"Q 	c #8C522B",
"R 	c #734323",
"S 	c #533019",
"T 	c #371F10",
"U 	c #9D5F35",
"V 	c #A05F31",
"W 	c #573018",
"X 	c #532E18",
"Y 	c #522E18",
"Z 	c #522F19",
"` 	c #522E19",
" .	c #522F18",
"..	c #522E16",
"+.	c #020202",
"@.	c #7F101C",
"#.	c #A41224",
"$.	c #C72325",
"%.	c #DF2D28",
"&.	c #E02D29",
"*.	c #DF2D29",
"=.	c #DF2B28",
"-.	c #CB2428",
";.	c #A51125",
">.	c #7D101D",
",.	c #522E17",
"'.	c #522F17",
").	c #512E16",
"!.	c #532F1A",
"~.	c #371F11",
"{.	c #9D6034",
"].	c #563017",
"^.	c #63341B",
"/.	c #65351B",
"(.	c #6F4123",
"_.	c #704224",
":.	c #704223",
"<.	c #6F4223",
"[.	c #500A12",
"}.	c #661617",
"|.	c #6E1A18",
"1.	c #991D21",
"2.	c #B91D27",
"3.	c #D12828",
"4.	c #DE2D29",
"5.	c #D25B5C",
"6.	c #BE888C",
"7.	c #997073",
"8.	c #020201",
"9.	c #6F4224",
"0.	c #704122",
"a.	c #6A3B1E",
"b.	c #66351B",
"c.	c #67351A",
"d.	c #5C311A",
"e.	c #512F19",
"f.	c #351F11",
"g.	c #9D5F34",
"h.	c #803D1F",
"i.	c #853E1E",
"j.	c #A36132",
"k.	c #7E101C",
"l.	c #A31224",
"m.	c #CB2627",
"n.	c #E5A3A2",
"o.	c #FEFEFE",
"p.	c #CCCCCC",
"q.	c #955028",
"r.	c #883E1E",
"s.	c #853D1E",
"t.	c #6D361B",
"u.	c #361F11",
"v.	c #9F5F31",
"w.	c #573118",
"x.	c #532E17",
"y.	c #8A4825",
"z.	c #8E4825",
"A.	c #A36033",
"B.	c #A36032",
"C.	c #B66F3B",
"D.	c #BA723C",
"E.	c #A76433",
"F.	c #981921",
"G.	c #B51B25",
"H.	c #D22828",
"I.	c #D82A27",
"J.	c #D02727",
"K.	c #DFA3A3",
"L.	c #FFFFFE",
"M.	c #CDCDCD",
"N.	c #A46131",
"O.	c #B16B38",
"P.	c #B9713B",
"Q.	c #AB6735",
"R.	c #98542B",
"S.	c #8E4724",
"T.	c #874221",
"U.	c #6B361B",
"V.	c #543019",
"W.	c #382011",
"X.	c #532E16",
"Y.	c #E6914D",
"Z.	c #F09851",
"`.	c #82121F",
" +	c #A31425",
".+	c #CC2628",
"++	c #C72326",
"@+	c #A61225",
"#+	c #CDA4A6",
"$+	c #D68647",
"%+	c #EF9951",
"&+	c #C47A40",
"*+	c #A46031",
"=+	c #935028",
"-+	c #6E371C",
";+	c #361E11",
">+	c #010000",
",+	c #573017",
"'+	c #522E15",
")+	c #9F5F32",
"!+	c #B56F39",
"~+	c #B76F3A",
"{+	c #A56333",
"]+	c #A46132",
"^+	c #D78848",
"/+	c #9B1922",
"(+	c #B21A25",
"_+	c #DF2E29",
":+	c #C82327",
"<+	c #A51225",
"[+	c #C4989C",
"}+	c #EFF0F1",
"|+	c #C1C2C2",
"1+	c #A26132",
"2+	c #CA7F43",
"3+	c #E08E4B",
"4+	c #BD743D",
"5+	c #A36232",
"6+	c #935027",
"7+	c #6D371B",
"8+	c #381F10",
"9+	c #A05F32",
"0+	c #EB9751",
"a+	c #F09951",
"b+	c #AE6936",
"c+	c #A36133",
"d+	c #86121E",
"e+	c #A41324",
"f+	c #CF2728",
"g+	c #DF2C29",
"h+	c #C92428",
"i+	c #B1797F",
"j+	c #B7BBBF",
"k+	c #929599",
"l+	c #A46033",
"m+	c #532F19",
"n+	c #010100",
"o+	c #563018",
"p+	c #AF6534",
"q+	c #B06633",
"r+	c #E08E4D",
"s+	c #E4904D",
"t+	c #AC6735",
"u+	c #020101",
"v+	c #90171F",
"w+	c #B11924",
"x+	c #D22727",
"y+	c #D92A28",
"z+	c #D52828",
"A+	c #BB2226",
"B+	c #921222",
"C+	c #9D6D73",
"D+	c #A5A8AC",
"E+	c #838689",
"F+	c #A46032",
"G+	c #A45F33",
"H+	c #D5783B",
"I+	c #D87A3A",
"J+	c #A96332",
"K+	c #B62725",
"L+	c #DD2C28",
"M+	c #C32025",
"N+	c #A41123",
"O+	c #780D19",
"P+	c #010202",
"Q+	c #A46030",
"R+	c #6C371B",
"S+	c #371F12",
"T+	c #9F5F33",
"U+	c #CB743A",
"V+	c #CE7539",
"W+	c #A86332",
"X+	c #521313",
"Y+	c #591714",
"Z+	c #440C0F",
"`+	c #3C080E",
" @	c #BB2826",
".@	c #DE2D28",
"+@	c #CA2A28",
"@@	c #C42D2A",
"#@	c #B02225",
"$@	c #8F1320",
"%@	c #6A111A",
"&@	c #3B070D",
"*@	c #480D10",
"=@	c #571514",
"-@	c #581514",
";@	c #581614",
">@	c #561513",
",@	c #4F1212",
"'@	c #42080E",
")@	c #6C361B",
"!@	c #8D1422",
"~@	c #A31225",
"{@	c #D12928",
"]@	c #DE2F29",
"^@	c #B51D27",
"/@	c #A31324",
"(@	c #CE2727",
"_@	c #C62227",
":@	c #6F0F19",
"<@	c #6E0E18",
"[@	c #A71125",
"}@	c #BC1F26",
"|@	c #DC2C28",
"1@	c #DE2E29",
"2@	c #DD2D29",
"3@	c #D42B2B",
"4@	c #A81226",
"5@	c #881320",
"6@	c #A36231",
"7@	c #934F27",
"8@	c #372011",
"9@	c #3C080D",
"0@	c #9D1A23",
"a@	c #B31B26",
"b@	c #D32927",
"c@	c #BD1F27",
"d@	c #B11926",
"e@	c #D22827",
"f@	c #DA2B29",
"g@	c #D72928",
"h@	c #D42827",
"i@	c #D32827",
"j@	c #B12025",
"k@	c #8E1321",
"l@	c #68121A",
"m@	c #481011",
"n@	c #521412",
"o@	c #7F181D",
"p@	c #B01724",
"q@	c #BC252A",
"r@	c #C82D29",
"s@	c #C72C28",
"t@	c #C52C28",
"u@	c #C72B28",
"v@	c #C72C29",
"w@	c #B82627",
"x@	c #901321",
"y@	c #7F131D",
"z@	c #030201",
"A@	c #934F28",
"B@	c #9C6034",
"C@	c #8E1322",
"D@	c #A61325",
"E@	c #D32929",
"F@	c #DE2B28",
"G@	c #C01F26",
"H@	c #A51124",
"I@	c #A31123",
"J@	c #6C0D18",
"K@	c #6B0F19",
"L@	c #C42428",
"M@	c #DD2D28",
"N@	c #DD2B27",
"O@	c #DD2A26",
"P@	c #A72523",
"Q@	c #945027",
"R@	c #362010",
"S@	c #9C6135",
"T@	c #9F6032",
"U@	c #573117",
"V@	c #532E15",
"W@	c #911322",
"X@	c #CC2829",
"Y@	c #D62A28",
"Z@	c #DB2C28",
"`@	c #DC2D28",
" #	c #DE2C27",
".#	c #D82A28",
"+#	c #D52928",
"@#	c #D72929",
"##	c #D62928",
"$#	c #AF1F24",
"%#	c #931321",
"&#	c #921221",
"*#	c #911221",
"=#	c #620E17",
"-#	c #620F18",
";#	c #921322",
">#	c #AC2125",
",#	c #C52C27",
"'#	c #C52D28",
")#	c #9B352E",
"!#	c #523C30",
"~#	c #423127",
"{#	c #AC6836",
"]#	c #B26C38",
"^#	c #AA6635",
"/#	c #925027",
"(#	c #381F11",
"_#	c #532F15",
":#	c #8F1322",
"<#	c #D32B2A",
"[#	c #DC2E28",
"}#	c #DD2D2A",
"|#	c #DE2C2A",
"1#	c #BB2028",
"2#	c #A31223",
"3#	c #A51223",
"4#	c #660D17",
"5#	c #896048",
"6#	c #D89062",
"7#	c #AA7452",
"8#	c #D58547",
"9#	c #F29C52",
"0#	c #CB8043",
"a#	c #A26231",
"b#	c #563016",
"c#	c #901222",
"d#	c #D72C29",
"e#	c #D82C2B",
"f#	c #D72B2A",
"g#	c #D52927",
"h#	c #A91C25",
"i#	c #951221",
"j#	c #971221",
"k#	c #951321",
"l#	c #941321",
"m#	c #931322",
"n#	c #5E1318",
"o#	c #1D0D09",
"p#	c #100705",
"q#	c #382920",
"r#	c #4E382B",
"s#	c #4B362A",
"t#	c #4D382B",
"u#	c #564E49",
"v#	c #5D5D5D",
"w#	c #5C5C5D",
"x#	c #5B5B5C",
"y#	c #997764",
"z#	c #DA9263",
"A#	c #AC7552",
"B#	c #A36030",
"C#	c #CE8144",
"D#	c #E7934E",
"E#	c #C37A40",
"F#	c #A46232",
"G#	c #945028",
"H#	c #9C6035",
"I#	c #A41124",
"J#	c #A61224",
"K#	c #A31124",
"L#	c #540A13",
"M#	c #472416",
"N#	c #572C1A",
"O#	c #381C11",
"P#	c #9B6B4C",
"Q#	c #D89163",
"R#	c #D89164",
"S#	c #D89162",
"T#	c #EACDBD",
"U#	c #FFFFFF",
"V#	c #EDDBD0",
"W#	c #D89262",
"X#	c #AB7552",
"Y#	c #A05D2F",
"Z#	c #A25F30",
"`#	c #9F6031",
" $	c #911222",
".$	c #9A1223",
"+$	c #941322",
"@$	c #653A33",
"#$	c #544438",
"$$	c #524236",
"%$	c #514236",
"&$	c #544337",
"*$	c #332922",
"=$	c #422315",
"-$	c #572D1A",
";$	c #391D11",
">$	c #A17254",
",$	c #DC9668",
"'$	c #DB9365",
")$	c #DC9768",
"!$	c #ECD1C1",
"~$	c #FEFFFE",
"{$	c #F7F6F7",
"]$	c #EEEEEE",
"^$	c #E3D1C4",
"/$	c #DC9869",
"($	c #B07C5A",
"_$	c #883D1E",
":$	c #99552B",
"<$	c #392012",
"[$	c #9E6031",
"}$	c #540C13",
"|$	c #C99E7C",
"1$	c #F3BC90",
"2$	c #F2BB8E",
"3$	c #F2B98E",
"4$	c #F2BA8F",
"5$	c #F2BB91",
"6$	c #9A7960",
"7$	c #5E341F",
"8$	c #7C4425",
"9$	c #56301C",
"0$	c #AE8566",
"a$	c #F1B88A",
"b$	c #F1B98B",
"c$	c #F1BA8C",
"d$	c #F6DECB",
"e$	c #C1C1C1",
"f$	c #9A7A61",
"g$	c #F3BA8D",
"h$	c #C29877",
"i$	c #010302",
"j$	c #6D371C",
"k$	c #9B6035",
"l$	c #573119",
"m$	c #532F16",
"n$	c #8B252E",
"o$	c #961424",
"p$	c #A01324",
"q$	c #9D1525",
"r$	c #9B1524",
"s$	c #981424",
"t$	c #971423",
"u$	c #4C0D13",
"v$	c #C99C78",
"w$	c #F3B98B",
"x$	c #F1BA8D",
"y$	c #F0B98E",
"z$	c #F2BA8E",
"A$	c #F2B88A",
"B$	c #98775C",
"C$	c #61361F",
"D$	c #804525",
"E$	c #5D341F",
"F$	c #1F120D",
"G$	c #A57F64",
"H$	c #E4B188",
"I$	c #EBB88D",
"J$	c #F0BB8C",
"K$	c #F6DDCA",
"L$	c #C0C0C0",
"M$	c #9B7B63",
"N$	c #F3BB8D",
"O$	c #C59B79",
"P$	c #443830",
"Q$	c #44372F",
"R$	c #43372F",
"S$	c #433730",
"T$	c #532F17",
"U$	c #E7924F",
"V$	c #EC944F",
"W$	c #921422",
"X$	c #A21224",
"Y$	c #43080E",
"Z$	c #040101",
"`$	c #050101",
" %	c #C99D79",
".%	c #F3BB8E",
"+%	c #E2A174",
"@%	c #D89060",
"#%	c #E9AD80",
"$%	c #99785F",
"%%	c #7F4326",
"&%	c #824628",
"*%	c #804628",
"=%	c #56311F",
"-%	c #AC886A",
";%	c #F1B889",
">%	c #F6DCC8",
",%	c #9A7B62",
"'%	c #F2BB8F",
")%	c #F1BC8F",
"!%	c #F1BC8E",
"~%	c #F2BC8F",
"{%	c #F2BB90",
"]%	c #CEA17F",
"^%	c #8D242E",
"/%	c #9A1625",
"(%	c #430D11",
"_%	c #0E0503",
":%	c #0C0503",
"<%	c #050202",
"[%	c #CA9D7A",
"}%	c #F2B98C",
"|%	c #E29F71",
"1%	c #E9A97B",
"2%	c #F1B588",
"3%	c #97745A",
"4%	c #623520",
"5%	c #814426",
"6%	c #7B4326",
"7%	c #794226",
"8%	c #532F1C",
"9%	c #AB8669",
"0%	c #F1B88B",
"a%	c #F5D9C2",
"b%	c #FDFAF5",
"c%	c #C3C0BC",
"d%	c #382E25",
"e%	c #A07E64",
"f%	c #F3B98C",
"g%	c #F3B98D",
"h%	c #D3A480",
"i%	c #392F27",
"j%	c #070201",
"k%	c #4B281A",
"l%	c #532C1B",
"m%	c #542B1A",
"n%	c #582D1B",
"o%	c #2D180F",
"p%	c #E2A072",
"q%	c #D88F60",
"r%	c #D88E5F",
"s%	c #D98E60",
"t%	c #885D43",
"u%	c #7C4426",
"v%	c #6C3A21",
"w%	c #562C19",
"x%	c #371D11",
"y%	c #AB8569",
"z%	c #F1B98D",
"A%	c #F0BA8F",
"B%	c #F1B98C",
"C%	c #F0B88B",
"D%	c #F3BA8E",
"E%	c #F1BB8F",
"F%	c #D3A581",
"G%	c #030303",
"H%	c #9E5F32",
"I%	c #563118",
"J%	c #533016",
"K%	c #472A1F",
"L%	c #542C1C",
"M%	c #5A2E1A",
"N%	c #592E1A",
"O%	c #2B180E",
"P%	c #C99D7A",
"Q%	c #F3B98E",
"R%	c #E1A174",
"S%	c #D89263",
"T%	c #D99162",
"U%	c #D99262",
"V%	c #8C6145",
"W%	c #281D16",
"X%	c #633C26",
"Y%	c #7D4629",
"Z%	c #653822",
"`%	c #512C1B",
" &	c #3D2519",
".&	c #281E16",
"+&	c #AA886E",
"@&	c #E9B68B",
"#&	c #E9B488",
"$&	c #EDB98F",
"%&	c #F1BB8E",
"&&	c #F2B88B",
"*&	c #F2B789",
"=&	c #F2B98B",
"-&	c #D4A57F",
";&	c #A26232",
">&	c #A66331",
",&	c #A86431",
"'&	c #A56331",
")&	c #924F27",
"!&	c #542F18",
"~&	c #382010",
"{&	c #040201",
"]&	c #693C23",
"^&	c #7B4426",
"/&	c #422618",
"(&	c #CA9B78",
"_&	c #F4B88C",
":&	c #F2BD90",
"<&	c #E19F71",
"[&	c #D78E5E",
"}&	c #E5A87C",
"|&	c #EFB98D",
"1&	c #9F8066",
"2&	c #AD8769",
"3&	c #A9866A",
"4&	c #9E7D64",
"5&	c #EAB48A",
"6&	c #E3A67B",
"7&	c #D99062",
"8&	c #E3A173",
"9&	c #F2BA8C",
"0&	c #D5A680",
"a&	c #D38446",
"b&	c #F09A51",
"c&	c #C97D41",
"d&	c #6E371B",
"e&	c #A56131",
"f&	c #6A3B23",
"g&	c #7F4527",
"h&	c #442618",
"i&	c #080302",
"j&	c #C69B7A",
"k&	c #EEBA90",
"l&	c #E9AC81",
"m&	c #9F7D62",
"n&	c #19110D",
"o&	c #19100D",
"p&	c #18110E",
"q&	c #B28B6C",
"r&	c #F2BA8B",
"s&	c #AA8669",
"t&	c #865F48",
"u&	c #D48E63",
"v&	c #E0A276",
"w&	c #F1BC91",
"x&	c #F3B98A",
"y&	c #F3B88B",
"z&	c #F2BA8D",
"A&	c #D5A782",
"B&	c #D28346",
"C&	c #F09852",
"D&	c #C97C41",
"E&	c #6B3B23",
"F&	c #7E4427",
"G&	c #7B4428",
"H&	c #794328",
"I&	c #432517",
"J&	c #C29776",
"K&	c #EFB98E",
"L&	c #EEB88C",
"M&	c #F0BA8E",
"N&	c #F2BB8D",
"O&	c #010001",
"P&	c #371A0E",
"Q&	c #592C17",
"R&	c #8D5A3C",
"S&	c #D88E60",
"T&	c #D89063",
"U&	c #D89264",
"V&	c #D99266",
"W&	c #BD815B",
"X&	c #A46130",
"Y&	c #A56130",
"Z&	c #6C3C24",
"`&	c #7F4526",
" *	c #7F4627",
".*	c #7A4426",
"+*	c #412517",
"@*	c #C2997A",
"#*	c #F0B98D",
"$*	c #EFB88C",
"%*	c #EEB68C",
"&*	c #F2B889",
"**	c #AB8568",
"=*	c #522C1C",
"-*	c #8D5D42",
";*	c #D69267",
">*	c #D69268",
",*	c #D59167",
"'*	c #D59166",
")*	c #D59064",
"!*	c #BB815E",
"~*	c #6B3E27",
"{*	c #7C4629",
"]*	c #7E4526",
"^*	c #64351D",
"/*	c #582C18",
"(*	c #562D1B",
"_*	c #572D1B",
":*	c #532918",
"<*	c #532716",
"[*	c #32180D",
"}*	c #AA7451",
"|*	c #D68E5D",
"1*	c #E8AC81",
"2*	c #F3BB8F",
"3*	c #F3BB8C",
"4*	c #F3BB8B",
"5*	c #E3A77B",
"6*	c #D59265",
"7*	c #A16F50",
"8*	c #D77939",
"9*	c #BB6C35",
"0*	c #A56030",
"a*	c #6F3F25",
"b*	c #7B4527",
"c*	c #7C4427",
"d*	c #66361F",
"e*	c #592C19",
"f*	c #552C1B",
"g*	c #582E1B",
"h*	c #562D1A",
"i*	c #2D180E",
"j*	c #A67353",
"k*	c #D59267",
"l*	c #E8AE83",
"m*	c #F3B78A",
"n*	c #F3B889",
"o*	c #F3BA8C",
"p*	c #F3BC8E",
"q*	c #F3BC8F",
"r*	c #F2BC90",
"s*	c #E6AB80",
"t*	c #D88F61",
"u*	c #A06C4C",
"v*	c #D67839",
"w*	c #BA6B35",
"x*	c #EB9652",
"y*	c #EF9952",
"z*	c #F09953",
"A*	c #EF9853",
"B*	c #4B2818",
"C*	c #552D1A",
"D*	c #552C1A",
"E*	c #562C1B",
"F*	c #572C1B",
"G*	c #572D1C",
"H*	c #2F180E",
"I*	c #100805",
"J*	c #1A0E0A",
"K*	c #AA7554",
"L*	c #D89161",
"M*	c #D88F5E",
"N*	c #E7AD83",
"O*	c #F3BD91",
"P*	c #F3BA8F",
"Q*	c #F4BA8E",
"R*	c #F4B88B",
"S*	c #F3B789",
"T*	c #B68C6D",
"U*	c #ED9651",
"V*	c #F29B53",
"W*	c #F19951",
"X*	c #AB6734",
"Y*	c #020102",
"Z*	c #49281A",
"`*	c #552D1C",
" =	c #532D1B",
".=	c #2A1710",
"+=	c #010104",
"@=	c #010108",
"#=	c #A47050",
"$=	c #D79163",
"%=	c #D69367",
"&=	c #D69266",
"*=	c #E4A87E",
"==	c #F0B88C",
"-=	c #F2B88C",
";=	c #F4B98C",
">=	c #E6AA80",
",=	c #D39065",
"'=	c #D08D62",
")=	c #CC8A62",
"!=	c #A37154",
"~=	c #6D381C",
"{=	c #A76332",
"]=	c #EB9650",
"^=	c #F09A52",
"/=	c #AD6835",
"(=	c #233067",
"_=	c #2A3D83",
":=	c #2B3C7F",
"<=	c #2C3C81",
"[=	c #1B2550",
"}=	c #1A0F0A",
"|=	c #27180F",
"1=	c #271810",
"2=	c #24160E",
"3=	c #251911",
"4=	c #261B14",
"5=	c #9B6A4B",
"6=	c #D99264",
"7=	c #D99669",
"8=	c #DA9568",
"9=	c #AB7451",
"0=	c #22140D",
"a=	c #6E381C",
"b=	c #542F19",
"c=	c #9F6033",
"d=	c #A26032",
"e=	c #EA9650",
"f=	c #213069",
"g=	c #2B3E89",
"h=	c #2B408B",
"i=	c #2B3E85",
"j=	c #1C234B",
"k=	c #080101",
"l=	c #090202",
"m=	c #0A0201",
"n=	c #010204",
"o=	c #020408",
"p=	c #996B4D",
"q=	c #D79062",
"r=	c #D68F62",
"s=	c #D79063",
"t=	c #A57151",
"u=	c #080808",
"v=	c #9D6035",
"w=	c #A86433",
"x=	c #A96433",
"y=	c #233168",
"z=	c #2B3F89",
"A=	c #2A3E89",
"B=	c #1A2552",
"C=	c #070A1A",
"D=	c #A22A29",
"E=	c #D32E2A",
"F=	c #D22D2A",
"G=	c #D32F2C",
"H=	c #902221",
"I=	c #1F2B5E",
"J=	c #2A3E83",
"K=	c #2D3058",
"L=	c #2F2119",
"M=	c #2F2118",
"N=	c #302219",
"O=	c #D58647",
"P=	c #EE9851",
"Q=	c #C37840",
"R=	c #944F27",
"S=	c #A45F30",
"T=	c #23326D",
"U=	c #2B3E87",
"V=	c #2A3E88",
"W=	c #1A234B",
"X=	c #060101",
"Y=	c #AA2523",
"Z=	c #DD2E29",
"`=	c #DE2B29",
" -	c #93201E",
".-	c #030101",
"+-	c #2B3E88",
"@-	c #202C60",
"#-	c #010102",
"$-	c #D98848",
"%-	c #F19A52",
"&-	c #C57A41",
"*-	c #DF8444",
"=-	c #E88A47",
"--	c #B16935",
";-	c #223269",
">-	c #2A3F89",
",-	c #1B2653",
"'-	c #0A0D1E",
")-	c #711422",
"!-	c #991323",
"~-	c #C82728",
"{-	c #DC2E29",
"]-	c #D42D2A",
"^-	c #CB2D2A",
"/-	c #8A2527",
"(-	c #0A0E23",
"_-	c #1F2B5C",
":-	c #293A81",
"<-	c #1C2758",
"[-	c #630F17",
"}-	c #991523",
"|-	c #7C383B",
"1-	c #A36034",
"2-	c #A86434",
"3-	c #AB6634",
"4-	c #A66332",
"5-	c #573218",
"6-	c #E38745",
"7-	c #ED8C47",
"8-	c #23326C",
"9-	c #18234C",
"0-	c #A41223",
"a-	c #CA2628",
"b-	c #E02E2C",
"c-	c #DF2E2A",
"d-	c #DC2D29",
"e-	c #D92D28",
"f-	c #92231F",
"g-	c #283E7C",
"h-	c #3659B6",
"i-	c #284082",
"j-	c #020203",
"k-	c #660F19",
"l-	c #A31424",
"m-	c #7B111C",
"n-	c #955128",
"o-	c #6F381C",
"p-	c #994F29",
"q-	c #974B26",
"r-	c #233371",
"s-	c #2A3D88",
"t-	c #182149",
"u-	c #82121C",
"v-	c #A51324",
"w-	c #DF2E2B",
"x-	c #DF2D2A",
"y-	c #DE2D2A",
"z-	c #9C2322",
"A-	c #400E0D",
"B-	c #2A0908",
"C-	c #294080",
"D-	c #385ABA",
"E-	c #3657B0",
"F-	c #3654A8",
"G-	c #353F7C",
"H-	c #31060A",
"I-	c #230406",
"J-	c #502F18",
"K-	c #351F10",
"L-	c #A15D30",
"M-	c #212F65",
"N-	c #2A3C86",
"O-	c #2A3E8B",
"P-	c #18224B",
"Q-	c #7E111D",
"R-	c #CB282B",
"S-	c #DC2E2C",
"T-	c #DD2E2C",
"U-	c #DD2E2A",
"V-	c #962220",
"W-	c #2A4181",
"X-	c #395BBD",
"Y-	c #A19491",
"Z-	c #E0B850",
"`-	c #A78A41",
" ;	c #020303",
".;	c #D28245",
"+;	c #EA924E",
"@;	c #C3773E",
"#;	c #23336F",
"$;	c #2B3E8A",
"%;	c #2A3E8A",
"&;	c #19234B",
"*;	c #7E101D",
"=;	c #72141B",
"-;	c #4E1413",
";;	c #4E1514",
">;	c #4E1513",
",;	c #310C0C",
"';	c #294081",
");	c #385BBC",
"!;	c #AC9786",
"~;	c #F2C032",
"{;	c #B89C72",
"];	c #3555AB",
"^;	c #3454AC",
"/;	c #3353A9",
"(;	c #2A407F",
"_;	c #D88647",
":;	c #F29850",
"<;	c #C87A40",
"[;	c #72381C",
"};	c #562F18",
"|;	c #3A2111",
"1;	c #904925",
"2;	c #8F4624",
"3;	c #233370",
"4;	c #293E8A",
"5;	c #293E89",
"6;	c #17224A",
"7;	c #81111D",
"8;	c #620C15",
"9;	c #283F7E",
"0;	c #375AB9",
"a;	c #AB9786",
"b;	c #F3C439",
"c;	c #B9A17F",
"d;	c #365BBC",
"e;	c #3559BB",
"f;	c #2C4791",
"g;	c #AD6836",
"h;	c #A96634",
"i;	c #CD8043",
"j;	c #E6914B",
"k;	c #C4793F",
"l;	c #965128",
"m;	c #6F371B",
"n;	c #8C4322",
"o;	c #8B3F1F",
"p;	c #A15E30",
"q;	c #A56132",
"r;	c #2A3D8A",
"s;	c #18224A",
"t;	c #2C070A",
"u;	c #390A0D",
"v;	c #89888A",
"w;	c #A6ABAE",
"x;	c #CED0D1",
"y;	c #E7E8E7",
"z;	c #C7C9CB",
"A;	c #A4A8AB",
"B;	c #747779",
"C;	c #28407F",
"D;	c #375CBC",
"E;	c #5262A4",
"F;	c #6B677C",
"G;	c #57639B",
"H;	c #355ABC",
"I;	c #345ABC",
"J;	c #345ABD",
"K;	c #2C4893",
"L;	c #D48546",
"M;	c #512D18",
"N;	c #9F5B30",
"O;	c #9F5B2F",
"P;	c #23326F",
"Q;	c #283E8A",
"R;	c #020302",
"S;	c #919598",
"T;	c #B6BBBF",
"U;	c #E4E5E7",
"V;	c #F8F8F9",
"W;	c #F2F3F3",
"X;	c #EDEDED",
"Y;	c #E6E6E6",
"Z;	c #A3A5A8",
"`;	c #182448",
" >	c #24346F",
".>	c #314C9F",
"+>	c #365ABD",
"@>	c #355BBE",
"#>	c #B26B37",
"$>	c #A96533",
"%>	c #954F28",
"&>	c #72381B",
"*>	c #542F16",
"=>	c #233270",
"->	c #2A3D89",
";>	c #85888B",
">>	c #A6A9AD",
",>	c #DADBDC",
"'>	c #F1F2F3",
")>	c #F9F9F9",
"!>	c #B3B4B4",
"~>	c #263A78",
"{>	c #3556B5",
"]>	c #3558BA",
"^>	c #355BBD",
"/>	c #522F16",
"(>	c #E08E4C",
"_>	c #AA6636",
":>	c #93979A",
"<>	c #B5BABF",
"[>	c #E6E7E8",
"}>	c #E2E3E5",
"|>	c #C4C6C9",
"1>	c #8B8D8F",
"2>	c #273F80",
"3>	c #375BBD",
"4>	c #2C4792",
"5>	c #512E17",
"6>	c #351E10",
"7>	c #AC6736",
"8>	c #A56232",
"9>	c #22336F",
"0>	c #93989B",
"a>	c #B6BABE",
"b>	c #DBDDDE",
"c>	c #B4B9BC",
"d>	c #828588",
"e>	c #010301",
"f>	c #263F80",
"g>	c #345BBD",
"h>	c #BE6C34",
"i>	c #CE7336",
"j>	c #B66933",
"k>	c #6F371C",
"l>	c #B46E39",
"m>	c #B66F3A",
"n>	c #23326E",
"o>	c #18214A",
"p>	c #FEFFFF",
"q>	c #F8F8F8",
"r>	c #F2F2F2",
"s>	c #ADAEAE",
"t>	c #263E7F",
"u>	c #355ABD",
"v>	c #365ABC",
"w>	c #355ABB",
"x>	c #2E4992",
"y>	c #C46F35",
"z>	c #D77937",
"A>	c #BB6B34",
"B>	c #372010",
"C>	c #253576",
"D>	c #19234D",
"E>	c #929699",
"F>	c #B5BABE",
"G>	c #FEFEFF",
"H>	c #B5B5B5",
"I>	c #202E64",
"J>	c #2D4496",
"K>	c #2D459A",
"L>	c #273979",
"M>	c #18274F",
"N>	c #AB6433",
"O>	c #A06032",
"P>	c #28397C",
"Q>	c #263571",
"R>	c #4A4E5F",
"S>	c #5A5C5F",
"T>	c #707071",
"U>	c #7D7C7D",
"V>	c #7D7D7D",
"W>	c #7D7D7C",
"X>	c #7C7D7C",
"Y>	c #5A5E76",
"Z>	c #273676",
"`>	c #293A80",
" ,	c #2B3D8A",
".,	c #2A3D87",
"+,	c #212F66",
"@,	c #DA8949",
"#,	c #2B3D88",
"$,	c #2A3C87",
"%,	c #1D2859",
"&,	c #2A3C84",
"*,	c #2A3C88",
"=,	c #2A3E87",
"-,	c #A4602F",
";,	c #9E6135",
">,	c #573217",
",,	c #E9924C",
"',	c #F49A50",
"),	c #141B3D",
"!,	c #141D40",
"~,	c #232F64",
"{,	c #263677",
"],	c #253674",
"^,	c #243575",
"/,	c #243574",
"(,	c #253473",
"_,	c #2B4691",
":,	c #2F4EA1",
"<,	c #2F4D9F",
"[,	c #2F4EA0",
"},	c #273B75",
"|,	c #131B3B",
"1,	c #131B3C",
"2,	c #131B3E",
"3,	c #131B3D",
"4,	c #362011",
"5,	c #9F6136",
"6,	c #B8703A",
"7,	c #BB723B",
"8,	c #2B3D8B",
"9,	c #304FA9",
"0,	c #3459BB",
"a,	c #E08C49",
"b,	c #BB723C",
"c,	c #99542B",
"d,	c #934A26",
"e,	c #9C582D",
"f,	c #A16132",
"g,	c #111834",
"h,	c #151E42",
"i,	c #151E43",
"j,	c #161F45",
"k,	c #161E43",
"l,	c #1B2957",
"m,	c #1E3061",
"n,	c #1E2F5E",
"o,	c #1E3062",
"p,	c #151F40",
"q,	c #F2974E",
"r,	c #C4773F",
"s,	c #954E28",
"t,	c #8A3E20",
"u,	c #99532B",
"v,	c #965028",
"w,	c #71381C",
"x,	c #583117",
"y,	c #552F16",
"z,	c #8D4926",
"A,	c #904A25",
"B,	c #B56E39",
"C,	c #BD743C",
"D,	c #9F5C2F",
"E,	c #9D592E",
"F,	c #A05E2F",
"G,	c #9E6136",
"H,	c #833D20",
"I,	c #391D13",
"J,	c #472417",
"K,	c #5A321E",
"L,	c #623821",
"M,	c #633921",
"N,	c #643922",
"O,	c #643822",
"P,	c #633822",
"Q,	c #7F4C2F",
"R,	c #8A5736",
"S,	c #75482C",
"T,	c #633821",
"U,	c #70371C",
"V,	c #6E4326",
"W,	c #704324",
"X,	c #65351C",
"Y,	c #724324",
"Z,	c #724424",
"`,	c #724323",
" '	c #734324",
".'	c #724423",
"+'	c #734424",
"@'	c #402215",
"#'	c #532A1A",
"$'	c #6E3B21",
"%'	c #7B4325",
"&'	c #7A4325",
"*'	c #7A4324",
"='	c #8E5531",
"-'	c #A4663C",
";'	c #935832",
">'	c #794324",
",'	c #5A321C",
"''	c #734423",
")'	c #724223",
"!'	c #724322",
"~'	c #6C3C1E",
"{'	c #5D3219",
"]'	c #502F1A",
"^'	c #3F2116",
"/'	c #552A1A",
"('	c #6D3B21",
"_'	c #794224",
":'	c #814A29",
"<'	c #8D532F",
"['	c #834B2A",
"}'	c #58311C",
"|'	c #2C1B11",
"1'	c #2D1A0E",
"2'	c #2D1A0F",
"3'	c #2C1A0E",
"4'	c #2E1A0E",
"5'	c #24130C",
"6'	c #30190F",
"7'	c #3B2114",
"8'	c #442617",
"9'	c #452718",
"0'	c #452717",
"a'	c #442718",
"b'	c #442717",
"c'	c #2F1A10",
"d'	c #2D190E",
"e'	c #1D1009",
"        .                                                       +                   +               + + .     + + +     + + +   ",
"@ + # $ % & & * = * * * * * & - = * - % - * = * = = ; + + + + + + > , ' ' ' ) ! ~ { + + * % ] * - ] - ] = = - ] & % ] - ^ / (   ",
"@ + _ : : < [ } | 1 2 1 1 1 3 3 3 3 4 } } 5 6 | 5 1 +     7     8 9 0 a b c b d e f g + + } 4 | 3 h 3 h 3 3 3 i j k k l m n o   ",
"p + q r s t u v s w w x w w y u z z A B u w w u u + +   C D E F G H I J b K b b L M N O + + t w P u u y u P P P Q Q v t R S T   ",
"  + U V W X Y Y Y Z Z Z Z Y Y ` Y Y Y Y  . .Y ..+ 7   +.@.#.$.%.&.b *.*.*.%.*.b b =.-.;.>.7 + Z Y  .Y ..,.Y Y ,.'.Y ).,. .!.~.  ",
"  + {.V ].,.^./.(.(._.:.:.:.<.<.<.:.:.:.:.:.<.+ + [.}.|.1.2.3.b b b %.*.*.*.4.4.*.&.5.6.7.8.+ 9.:.<.:.:.0.:.:.:.:.a.b.c.d.e.f.  ",
"  + g.V W ,.h.i.4 1 1 1 1 3 5 5 j.1 1 1 1 1 + + k.l.m.K %.b b b b b b *.*.*.b b *.%.n.o.p.  + j.1 1 1 1 1 j.1 1 1 q.r.s.t.S u.  ",
"  + {.v.w.x.y.z.4 1 j.1 1 1 1 j.A.B.C.D.E.+ + + F.G.H.c b *.&.&.*.b b *.b *.b b I.J.K.L.M.  + N.O.P.Q.1 1 1 1 1 1 R.S.T.U.V.W.  ",
"+ + {.V W X.l 1 1 1 1 1 1 j.1 j.A.B.Y.Z.+ + `. +.+b K b b *.*.J c b %.*.b %.b b ++@+#+L.M.  + 1 $+%+&+1 1 1 *+1 1 1 1 =+-+Z ;+  ",
"  >+{.V ,+'+)+1 1 1 1 1 !+~+{+1 ]+j.^++ + + /+(+J.b K b %.%.*.%.b b *.*.*._+*.*.:+<+[+}+|+  + 1+2+3+4+1 1 1 N.j.5+5+5 6+7+n 8+  ",
"  >+{.V ].'+9+1 j.j.1 N.0+a+b+1 A.c++ + d+e+f+b g+b %.%.b b b b b b *.*.*.*.%.*.h+<+i+j+k+7 + j.j.2 *+1 1 N.]+l+]+1 5 6+7+m+W.  ",
"n++ {.V o+..9+*+A.A.p+q+r+s+t+1 j.j.+ u+v+w+x+%.&.&.%.*.&.g+c c b b *.b b b y+z+A+B+C+D+E+7 + l+j.1 1 1 N.*+*+l+F+1 1 =+7+Z u.  ",
"n+>+g.V o+,.)+1 B.G+H+I+J+1 + +   .   >+K+L+K *.&.&.*.*.&.&.&.%.%.b b b K b M+N+O+8.8.  7 7         P+7 + Q+*+l+F+1 1 =+R+m+S+  ",
"  + g.V o+,.T+1 j.A.U+V+W++ + + X+Y+Z+`+ @.@K *.*.*.*.%.%.*.*.*.*.b y+x++@@@#@$@%@&@*@=@=@-@;@;@-@>@,@'@+ N.N.N.N.1 1 6+)@Z ~.  ",
"  + g.V ].X.)+1 1 1 1 5 + 8.!@~@{@]@^@/@(@K K *.*.%.*.%.*.b .@K K b _@9 :@u+u+8.<@[@}@|@4.1@1@2@L+K 3@4@5@  + 6@1 1 1 7@R+ .8@8.",
"  + {.V o+,.)+5 1 1 1 + + 9@0@a@b@L+c@d@e@b g+*.%.b %.%.%.b f@g@h@i@j@k@l@C m@n@o@p@q@r@s@t@t@u@v@u@w@x@y@z@+ 1 1 1 1 A@7+V.W.  ",
"+ + B@V ]...)+1 1 1 + + C@D@E@.@K L+K b b b K K K K b b F@=.G@f H@I@J@  K@l.L@M@N@O@P@u+            .   u+  + 1 1 1 1 Q@-+m+R@. ",
". + S@T@U@V@)+1 1 B.+   W@9 X@Y@Z@`@F@K  #K .#+#+#Y@@#@#####$#%#&#*#=#  -#;#>#,#'#,#)#!#~#7 + + + + + + + N.{#]#^#]+1 /#R+m+(#  ",
"  + B@V U@_#)+5 1 1 +   :#9 #.9 <#[#}#|#L+.@1#f N+I@2##.3#9 4#            u+  @ @   5#6#7#  + 5 1 1 1 *+*+1 8#9#0#a#5 /#)@m+(#  ",
"  + {.V b#'+)+1 1 1 + 7 c##.#.#.X@d#e#f###g#h#i#j#k#l#m#*#*#n#o#p#  q#r#s#t#u#v#w#x#y#z#A#  + B#N.1 1 *+*+1 C#D#E#6@F#G#7+Z f.  ",
"n++ H#v.,+V@)+1 1 ]++   c#9 I#9 9 J#@+J#H@K#L#n+  8.u+n+@ u+M#N#O#  P#Q#R#S#T#o.U#o.V#W#X#  + Y#Z#1 1 1 1 1 1 2 1 1 1 =+7+Z ~.7 ",
"+ + S@`#]...)+1 1 1 +    $D@9 9 9 9 9 <+.$+$@$#$$$%$$$&$*$  =$-$;$P+>$,$'$)$!$~${$]$^$/$($7 + _$:$1 1 N.N.1 A.1 j.1 1 6+R+m+<$  ",
"  + S@[$o+x.)+1 1 1 +   c#<+9 9 9 9 I#9 }$u+|$1$2$3$4$5$6$  7$8$9$  0$a$b$c$d$L.e$  f$g$h$8.7   7 i$+ *+*+F+A.j.j.j.1 6+j$m+~.  ",
"  + k$`#l$m$)+1 1 1 + + n$o$p$9 q$r$s$t$u$  v$w$x$y$z$A$B$7 C$D$E$F$G$H$I$J$K$~$L$  M$N$O$P$P$Q$R$S$+ *+*+N.N.1 1 1 1 =+j$Z u.  ",
"@ + k$v.o+T$T@1 1 B.U$V$+ + W$X$Y$Z$`$Z$>+   %.%+%@%#%4$$%  7$%%&%*%=%8.-%;%>%L.e$  ,%N$'%)%!%~%{%5$]%  + F+F+*+*+1 1 7@j$Z 8@7 ",
"@ + H#)+o+n T@1 1 1 6 6 + + ^%/%(%_%:%_%<%  [%}%|%@%1%2%3%  4%5%6%7%8%  9%0%a%b%c%d%e%f%g$g$g$g%g%g%h%i%+ ]+*+*+*+1 1 7@7+m+W.  ",
"n++ _ v.w.T$)+1 1 1 1 1 1 1 + j%k%l%m%n%o%   %}%p%q%r%s%t%P+C$u%v%w%x%  y%z%A%B%B%C%x$g$g$g$g$g$g$g$D%E%F%G%+ 1 *+N.1 6+7+Z ~.  ",
"  >+q H%I%J%)+1 1 1 1 1 1 1 + + K%L%M%N%O%  P%Q%R%S%T%U%V%W%X%Y%Z%`% &.&+&@&#&@&$&%&&&*&=&g$g$g$D%.%g$&&-&. + ;&>&,&'&)&7+!&~&  ",
"  + _ v.w.m$)+1 1 1 1 1 N.N.1 1 + {&]&^&/&  (&_&:&1$<&[&}&|&1&`$z@u+2&|&3&+ + >+4&5&6&7&8&9&N$g$g$g$g$=&0&u++ 1 a&b&c&7@d&n u.  ",
"  + B@V w.X.)+1 j.F+e&F+F+*+*+*++   f&g&h&i&j&k&z$w$R%S%l&g%m&n&o&p&q&r&s&  + + + + t&u&v&w&5$w$x&y&g%z&A&  + 1 B&C&D&G#d&Z ~.  ",
"+ + {.V w.X.)+1 ]+]+*+N.1 *+l+F++   E&F&G&H&I&+ J&=&9&}%y&f%y$K&L&L&M&N&y%+ + + + O&+ + P&Q&R&S&T&U&V&S%W&  + 2 X&Y&B#7@R+m+~.  ",
"n++ H#v.w.X.)+1 1 *+*+1 1 ]+*+*++   Z&`& *.*+*  @*#*$*%*x$w$&*=&z&D%z&9&**+ + + @       o%=*-*;*>*,*'*)*!*+ + *+1 1 5 A@-+!.~.  ",
"n++ H#T@W x.)+1 1 ]+]+j.1 1 + + ~*{*g&]*^*/*(*_*:*<*[*p }*|*1*2*g$3*3*4*9&M&5*6*7*  + +   u+8.@ + + + @ + 8*9*N.1 1 5 =+j$m+8@  ",
"  + H#T@W x.)+1 X&Y&e&0*1 1 + 8.a*b*.*c*d*e*f*N#g*h*i*  j*k*l*_&m*n*o*p*q*r*s*t*u*@ +           + + + + + v*w**+N.1 1 7@-+m+~.  ",
"  >+H#T@o+X.)+6 x*y*z*A*Q.j.+   B*C*h*D*E*F*G*C*H*i&u+  I*J*K*L*M*7&N*O*P*Q*R*S*T*+ + + + O&+   + *+*+1 N.Y&N.]+N.1 1 6+j$Z u.  ",
"  + B@v.U@m$)+B#U*V*W*a+X*2 + Y*Z*`*`*`*`* = =l%.=+=+=@=+=+ #=$=%=&=*===-=;=.%q*>=,='=)=!=+ + + + N.N.1 1 F#1 j.*+1 1 6+~=m+S+  ",
"  + B@`#U@J%)+1 {=W+]=^=/=*+*+*++ + + + + + + + (=_=:=<=[=7 }=|=1=2=3=4=5=6=7=8=T%r%9=0=+ *+1 1 a#1 1 5+1 1 1 1 1 5 5 =+a=b=~.  ",
"  + H#`#I%T$c=1 5 d=e=%+t+1 1 1 + + + + + + + + f=g=h=i=j=k=l=m=Z$  n=o=p=q=r=r=r=s=t=u=+ N.6 6 1 1 1 1 N.1 6@a#j.1 5 G#a=Z ~.+.",
"+ + v=)+l$T$T@5 1 1 w=x=N.*+1 1 1 1 *+*+1 + + y=z=A=B=C=D=E=F=G=H=  I=J=K=L=M=M=L=N=+ F+]+F+O=P=Q=1 1 ]+]+N.1 1 1 *+1 R=-+Z 8@7 ",
"@ + H#v.U@m$)+1 j.B.*+*+*+N.]+N.F+F+S=S=1 + + T=U=V=W=X=Y=.@Z=`= -.-I=+-@-#-p   u+Z$+ F+l+l+$-%-&-1 1 F+*+*+N.1 1 *+1 Q@-+Z ~.  ",
"  + S@T@w.T$)+1 j.1 1 ]+]+]+N.*+F+F+*-=---+ ;->-,-'-)-!-~-}#{-|#]-^-/-(-_-:-<-  [-}-|-+ + 1-2-3-4-5+6@1 *+*+F+*+1 1 1 G#a=S (#  ",
"  + S@T@5-m$)+1 1 1 N.N.]+]+*+*+*+F+6-7-+ + 8-V=9-P+k.0-a-b-c-2@d-e-f-7 g-h-i-j-k-l-m-+ + ]+j.1+5 1 1 1 1 1 *+]+j.N.5+n-o-Z u.  ",
"@ + H#`#U@m$)+1 1 1 N.N.N.*+*+N.N.j.p-q-+ + r-s-t-7 u-v-a-w-x-y-z-A-B-  C-D-E-F-G-H-I-  + 1 j.A.j.1 1 1 1 j.]+j.*+N.1 G#-+J-K-+.",
"  + B@v.,+V@)+1 1 1 *+N.N.1 *+N.j.j.L-+ + M-N-O-P-  Q-9 R-S-T-U-V-+ +   W-X-Y-Z-`-p #- ;+ + + 1 1 *+.;+;@;1 1 N.1 1 1 Q@d& .~&  ",
"@ >+H#`#U@m$)+1 1 1 *+2 1 1 1 ]+B.1 1 + + #;$;%;&;  *;I@=;-;;;>;,;+ + + ';);!;~;{;];^;/;(;. + 1 *+1 _;:;<;1 1 1 1 3 4 G#[;};|;  ",
"  + S@T@,+X.T@1 1 N.*+*+1;2;j 1 ]+N.1 + + 3;4;5;6;  7;/@8;  + + + n++   9;0;a;b;c;d;e;e;f;  + 1 1 1 g;]#h;1 1 1 i;j;k;l;m;Y T   ",
"  + B@`#,+V@)+1 ]+1 1 1 n;o;p;N.q;F#F#+ + 3;4;r;s;  t;u;v;w;x;y;z;A;B;  C;D;E;F;G;H;I;J;K;  + 1 1 1 1 1 1 1 1 1 L;9#i;n-)@M;T 8.",
"  + v=9+,+V@)+N.N.6@1 1 N;O;2 N.]+N.*++   P;Q;r;P-  R;P+S;T;U;U#V;W;X;Y;Z;`; >+-.>+>@>@>K;  + *+*+*+*+j.1 1 1 1 {##>$>%>&>*>~&7 ",
"+ + H#T@U@X.T@*+1 1 1 N.A.j.N.N.*+*+*++ + =>4;->6;  ;>>>,>'>)>L.U#U#U#~$!>+ ~>{>]>^>^>^>K;. + *+*+F+]+*+*+*+*+1 1 1 1 R=m;m$T   ",
"  + H#`#U@/>T@*+2 3 (>s+_>A.N.*+*+]+]++ + P;%;r;s;  :><>[>U#U#U#U#U#}>|>1>8.2>3>@>^>J;J;4>. + *+F+]+F#*+*+Q+2 1 1 1 1 G#-+5>6>  ",
"  + H#T@w.J%)+F+]+1 ]=b&7>j.N.*+*+8>F#+ + 9>A=->s;  0>a>[>~$U#U#U#U#b>c>d>e>f>H;g>g>J;I;f;  + N.]+1 1 1 h>i>j>6@a#5 5 q.k>Y ~.  ",
"  + {.T@w.m$9+F+]+j.l>m>8>1 *+l+]+8>F#+ + n>r;s-o>7 0>T;[>p>U#U#U#U#q>r>s>R;t>J;u>v>w>w>x>e>+ N.*+1 1 2 y>z>A>N.1 N.1 q.k>Z B>7 ",
"  + {.T@l$T$)+j.*+*+*+2 2 N.N.]+]+q;N.*++ + + C>D>7 E>F>[>G>o.o.U#U#U#L.H>P+I>J>K>J>L>M>+ + *+*+*+*+*+1 N>q+W+N.*+*+1 q.k>Z B>  ",
"+ >+v=O>w.m$)+1 *+*+*+*+*+]+F#N.*+*+N.1 1 + + 8-P>Q>R>S>T>U>V>V>V>V>W>X>Y>Z>`> ,->.,+,7 + *+*+*+*+*+*+1 j.B.1 F#N.1 1 q.o-m+(#. ",
". + S@T@U@J%c=1 *+*+*+]+F#j.B.*+*+*+1 1 @,+ + 8-#,$,s;.   P+P+P+P+7 #-P+%,&,*,->=,+-+,P++ Q+Q+-,N.N.N.*+*+F+F+*+*+1 6@n-k>m+~.  ",
". + ;,O>>,m$)+5 1 N.N.]+]+1 N.N.*+N.1 | ,,',+ + ),!,~,{,],^,/,(,_,:,<,[,},|,1,2,3,1,+ + N.*+N.X&N.*+*+*+*+*+N.N.1 1 6@q.-+` 4,7 ",
"  >+5,< U@*>)+1 1 *+*+*+*+*+1 1 *+*+N.*+6,7,w=+ 8.R;#;%;->-> ,8,9,0,J;^>2>P+  +   R;+ a,b,*+*+Q+*+*+*+*+*+N.N.1 c,d,e,%>m;n B>7 ",
"  + 5,f,U@*>T+1 1 N.*+*+*+*+1 1 1 *+*+*+*+2 *+*++ P+g,h,i,j,j,k,l,m,n,o,p,+ + + + + + q,r,*+*+*+*+*+N.1 1 *+2 1 s,t,u,v,w,T$u.  ",
"n++ ;,< x,y,z,A,4 1 1 *+*+Q+N.1 1 *+*+*+*+*+*+*++         7   7 . .             + j.B,C,{#N.*+*+*+N.N.1 1 *+*+N.D,E,F,G#d&'.B>  ",
"  + G,f,x,..H,r.N.6@a#1 N.N.*+*+1 *+*+1 N.N.N.N.+   I,J,K,L,M,N,O,P,P,Z%Q,R,S,T,+ + + 1 1 1 1 j.]+]+N.1 1 1 *+1 1 1 1 q.U,m+~.  ",
"  >+V,W,n '.X,c.Y,Z,Z,`,`, 'R R .'+'+'.'`,`,`,`,+ 7 @'#'$'%'&'&'*'&'%'%'='-';'>','7 + `,.'.'.'.'''`,`,)'!'`,`,.'.'`,`,~'{'m+f.7 ",
"  O&]'m+m+n n T$T$T$m+T$T$T$T$T$T$T$T$T$T$T$T$T$+   ^'/'('_'&'&'&'&'>'>':'<'['>'}'  + T$T$T$T$T$T$T$x.T$T$T$T$T$T$n n n n Z f.7 ",
"    |'1'1'2'2'1'1'1'1'2'2'1'3'1'3'1'1'4'4'1'4'1'+   5'6'7'8'9'0'a'a'8'b'b'a'9'b'c'  + 2'2'1'1'1'1'4'2'2'1'1'1'1'1'1'1'2'd'1'e'  ",
"                                    7 7       7 +           7 7   7 7           7 7 + 7 7 7 7     7 7     7         7           "};
