/* XPM */
static char * mario_bottom_64_xpm[] = {
"64 64 1726 2",
"  	c #010101",
". 	c #000101",
"+ 	c #000000",
"@ 	c #000100",
"# 	c #583A24",
"$ 	c #5A3A23",
"% 	c #5A3923",
"& 	c #5B3923",
"* 	c #5B3A23",
"= 	c #5B3A22",
"- 	c #5B3922",
"; 	c #AE0F0F",
"> 	c #B5100D",
", 	c #B4100E",
"' 	c #B4100D",
") 	c #B40F0E",
"! 	c #B5100E",
"~ 	c #B00F10",
"{ 	c #5A3922",
"] 	c #462B19",
"^ 	c #2B190E",
"/ 	c #1B1008",
"( 	c #9C5F34",
"_ 	c #A15F31",
": 	c #A16032",
"< 	c #A06031",
"[ 	c #A16031",
"} 	c #A26130",
"| 	c #A36131",
"1 	c #A36031",
"2 	c #A26030",
"3 	c #A26031",
"4 	c #7F090D",
"5 	c #8E0B09",
"6 	c #950C0B",
"7 	c #DA1211",
"8 	c #DB1210",
"9 	c #DB1110",
"0 	c #DB1111",
"a 	c #DA1111",
"b 	c #960D0C",
"c 	c #8D0A08",
"d 	c #81090C",
"e 	c #A16030",
"f 	c #A25F31",
"g 	c #A15F30",
"h 	c #A15E31",
"i 	c #A05E32",
"j 	c #7B4825",
"k 	c #532F18",
"l 	c #382111",
"m 	c #000001",
"n 	c #9C5F35",
"o 	c #A15E32",
"p 	c #8D532C",
"q 	c #8C532C",
"r 	c #8C532B",
"s 	c #8D522B",
"t 	c #8D542B",
"u 	c #8D542C",
"v 	c #8C542B",
"w 	c #8D532B",
"x 	c #8B542B",
"y 	c #8B542C",
"z 	c #B7101F",
"A 	c #D41210",
"B 	c #DA1210",
"C 	c #D51011",
"D 	c #BF454C",
"E 	c #BA6B70",
"F 	c #B96B71",
"G 	c #B96C71",
"H 	c #BA6C72",
"I 	c #BE454D",
"J 	c #D41012",
"K 	c #DC1111",
"L 	c #DB110F",
"M 	c #D61211",
"N 	c #B4101D",
"O 	c #43080A",
"P 	c #8C532A",
"Q 	c #8C522B",
"R 	c #734323",
"S 	c #533019",
"T 	c #371F10",
"U 	c #9D5F35",
"V 	c #A05F31",
"W 	c #573018",
"X 	c #532E18",
"Y 	c #522E18",
"Z 	c #522F19",
"` 	c #522E19",
" .	c #95091E",
"..	c #CE1115",
"+.	c #DC1311",
"@.	c #D91210",
"#.	c #D9120F",
"$.	c #CB1016",
"%.	c #BA8F95",
"&.	c #DFD5D7",
"*.	c #FDFDFC",
"=.	c #FFFFFE",
"-.	c #FDFEFD",
";.	c #DDD4D7",
">.	c #B98E95",
",.	c #CB1017",
"'.	c #DA1310",
").	c #DB1211",
"!.	c #CE1215",
"~.	c #970A1E",
"{.	c #030202",
"].	c #522F18",
"^.	c #522E16",
"/.	c #522E17",
"(.	c #522F17",
"_.	c #512E16",
":.	c #532F1A",
"<.	c #371F11",
"[.	c #9D6034",
"}.	c #563017",
"|.	c #63341B",
"1.	c #65351B",
"2.	c #6F4123",
"3.	c #704224",
"4.	c #704223",
"5.	c #6F4223",
"6.	c #B60F14",
"7.	c #D21110",
"8.	c #DB1310",
"9.	c #DA1212",
"0.	c #C82329",
"a.	c #BB9AA0",
"b.	c #EEEFF0",
"c.	c #E5B6B4",
"d.	c #DE9493",
"e.	c #FEFEFE",
"f.	c #FFFFFF",
"g.	c #DE9694",
"h.	c #E4B7B5",
"i.	c #EFF0F1",
"j.	c #BC9CA2",
"k.	c #CA2429",
"l.	c #DC1212",
"m.	c #DC1211",
"n.	c #DC1310",
"o.	c #D11210",
"p.	c #B40F16",
"q.	c #6F4224",
"r.	c #704122",
"s.	c #6A3B1E",
"t.	c #66351B",
"u.	c #67351A",
"v.	c #5C311A",
"w.	c #512F19",
"x.	c #351F11",
"y.	c #9D5F34",
"z.	c #803D1F",
"A.	c #853E1E",
"B.	c #A26131",
"C.	c #A36132",
"D.	c #080504",
"E.	c #B21017",
"F.	c #DC1210",
"G.	c #CF1015",
"H.	c #B25A64",
"I.	c #F0F4F4",
"J.	c #F5F0EF",
"K.	c #DC706E",
"L.	c #D85150",
"M.	c #F1E0DE",
"N.	c #F1E0DF",
"O.	c #D6504F",
"P.	c #DA706D",
"Q.	c #F6F0EF",
"R.	c #F1F4F4",
"S.	c #B05762",
"T.	c #D00F16",
"U.	c #DB1212",
"V.	c #B01217",
"W.	c #070403",
"X.	c #955028",
"Y.	c #883E1E",
"Z.	c #853D1E",
"`.	c #6D361B",
" +	c #361F11",
".+	c #9F5F31",
"++	c #573118",
"@+	c #532E17",
"#+	c #8A4825",
"$+	c #8E4825",
"%+	c #BF131C",
"&+	c #C40E19",
"*+	c #EDDEE0",
"=+	c #E4C4C2",
"-+	c #DB1610",
";+	c #E37976",
">+	c #D41D19",
",+	c #D31D19",
"'+	c #E27774",
")+	c #DA1610",
"!+	c #E4C4C1",
"~+	c #ECDDDF",
"{+	c #DD1211",
"]+	c #D81411",
"^+	c #BA141D",
"/+	c #B16B38",
"(+	c #B9713B",
"_+	c #AB6735",
":+	c #98542B",
"<+	c #8E4724",
"[+	c #874221",
"}+	c #6B361B",
"|+	c #543019",
"1+	c #382011",
"2+	c #532E16",
"3+	c #94091A",
"4+	c #D91211",
"5+	c #C30E18",
"6+	c #EBE1E2",
"7+	c #FEFBFA",
"8+	c #DE7370",
"9+	c #D11F1B",
"0+	c #F8E8E6",
"a+	c #D98582",
"b+	c #D98682",
"c+	c #D2201C",
"d+	c #DF7270",
"e+	c #FEFBFB",
"f+	c #EBE0E2",
"g+	c #C50F19",
"h+	c #DB1112",
"i+	c #95091B",
"j+	c #D68647",
"k+	c #EF9951",
"l+	c #C47A40",
"m+	c #A46031",
"n+	c #935028",
"o+	c #6E371C",
"p+	c #361E11",
"q+	c #010000",
"r+	c #573017",
"s+	c #522E15",
"t+	c #9F5F32",
"u+	c #B56F39",
"v+	c #B76F3A",
"w+	c #A56333",
"x+	c #D21214",
"y+	c #DA1311",
"z+	c #E2D8DA",
"A+	c #E9BAB8",
"B+	c #D91511",
"C+	c #EFC2C1",
"D+	c #FEFEFD",
"E+	c #FFFEFD",
"F+	c #F0C3C1",
"G+	c #DA1410",
"H+	c #E9B9B8",
"I+	c #E1D8DB",
"J+	c #DC1312",
"K+	c #D01214",
"L+	c #E08E4B",
"M+	c #BD743D",
"N+	c #A46131",
"O+	c #A36232",
"P+	c #935027",
"Q+	c #6D371B",
"R+	c #381F10",
"S+	c #A05F32",
"T+	c #EB9751",
"U+	c #F09951",
"V+	c #AF101E",
"W+	c #D91310",
"X+	c #D91111",
"Y+	c #C90F17",
"Z+	c #B2737C",
"`+	c #C0B8BD",
" @	c #D66765",
".@	c #D5A9AB",
"+@	c #C7D4D9",
"@@	c #C7D4D8",
"#@	c #C6D4D9",
"$@	c #D5AAAC",
"%@	c #DC6968",
"&@	c #C1B9BE",
"*@	c #AF6F77",
"=@	c #CB0E18",
"-@	c #DD1311",
";@	c #D9130F",
">@	c #AE0F1D",
",@	c #A46132",
"'@	c #A46033",
")@	c #532F19",
"!@	c #010100",
"~@	c #563018",
"{@	c #A36033",
"]@	c #AF6534",
"^@	c #B06633",
"/@	c #E08E4D",
"(@	c #E4904D",
"_@	c #7B071B",
":@	c #CB1119",
"<@	c #D20F13",
"[@	c #B10D19",
"}@	c #B20E18",
"|@	c #960920",
"1@	c #98656E",
"2@	c #A3939A",
"3@	c #9F9097",
"4@	c #9F9198",
"5@	c #A19298",
"6@	c #A09199",
"7@	c #9F9098",
"8@	c #9F8F97",
"9@	c #A2939A",
"0@	c #96666C",
"a@	c #96081F",
"b@	c #B30E19",
"c@	c #B10E19",
"d@	c #D21013",
"e@	c #CB0F19",
"f@	c #79061B",
"g@	c #A46032",
"h@	c #A36032",
"i@	c #A45F33",
"j@	c #D5783B",
"k@	c #D87A3A",
"l@	c #A96332",
"m@	c #930B1A",
"n@	c #D81312",
"o@	c #D91110",
"p@	c #CF1213",
"q@	c #B20E1A",
"r@	c #8B071D",
"s@	c #820521",
"t@	c #910A1D",
"u@	c #94091D",
"v@	c #93091D",
"w@	c #94091E",
"x@	c #950A1E",
"y@	c #93081D",
"z@	c #95081E",
"A@	c #90091D",
"B@	c #7F0721",
"C@	c #8B081E",
"D@	c #B30E1C",
"E@	c #CF1113",
"F@	c #DD1212",
"G@	c #910A1B",
"H@	c #A46030",
"I@	c #6C371B",
"J@	c #371F12",
"K@	c #9F5F33",
"L@	c #CB743A",
"M@	c #CE7539",
"N@	c #A86332",
"O@	c #C6111A",
"P@	c #DB1311",
"Q@	c #D91212",
"R@	c #D71112",
"S@	c #B00C1B",
"T@	c #7F081F",
"U@	c #7B061E",
"V@	c #B2101A",
"W@	c #BA0F17",
"X@	c #DD1310",
"Y@	c #DA1312",
"Z@	c #B90E17",
"`@	c #B1101A",
" #	c #7C061F",
".#	c #7E081F",
"+#	c #B20D1B",
"@#	c #D71212",
"##	c #C60F1A",
"$#	c #AE6633",
"%#	c #6C361B",
"&#	c #141413",
"*#	c #890D23",
"=#	c #BF0F1E",
"-#	c #C61116",
";#	c #900A1C",
">#	c #8F071E",
",#	c #A70B17",
"'#	c #D11310",
")#	c #DE231F",
"!#	c #E12320",
"~#	c #D72D29",
"{#	c #CC3732",
"]#	c #CC3731",
"^#	c #CC3631",
"/#	c #CB3631",
"(#	c #CB3530",
"_#	c #CB3630",
":#	c #D62E29",
"<#	c #E1221F",
"[#	c #DE221E",
"}#	c #D21411",
"|#	c #A60C18",
"1#	c #90091F",
"2#	c #910B1D",
"3#	c #C71116",
"4#	c #BF0E1D",
"5#	c #8C0E23",
"6#	c #121211",
"7#	c #BB6C35",
"8#	c #A36231",
"9#	c #934F27",
"0#	c #372011",
"a#	c #020201",
"b#	c #040201",
"c#	c #970C25",
"d#	c #A10A28",
"e#	c #B70F21",
"f#	c #B80F21",
"g#	c #930925",
"h#	c #86091E",
"i#	c #CA1112",
"j#	c #DB1D18",
"k#	c #B2231E",
"l#	c #982C2A",
"m#	c #952B28",
"n#	c #712220",
"o#	c #010201",
"p#	c #050201",
"q#	c #050101",
"r#	c #040101",
"s#	c #712422",
"t#	c #952B29",
"u#	c #982D2A",
"v#	c #B5241F",
"w#	c #DD1C18",
"x#	c #CC1112",
"y#	c #85091D",
"z#	c #930A24",
"A#	c #BB0E21",
"B#	c #B80E21",
"C#	c #A00A27",
"D#	c #960E24",
"E#	c #030101",
"F#	c #B66A34",
"G#	c #934F28",
"H#	c #9C6034",
"I#	c #020100",
"J#	c #970C26",
"K#	c #A30A29",
"L#	c #8E091F",
"M#	c #D31413",
"N#	c #CD2823",
"O#	c #C33A30",
"P#	c #78231D",
"Q#	c #432D23",
"R#	c #DA8055",
"S#	c #F38A56",
"T#	c #F28C57",
"U#	c #F38C58",
"V#	c #F38C57",
"W#	c #F38B57",
"X#	c #D88153",
"Y#	c #422A1F",
"Z#	c #78221E",
"`#	c #C2392F",
" $	c #CD2A23",
".$	c #8D091F",
"+$	c #940824",
"@$	c #A30928",
"#$	c #950E25",
"$$	c #020101",
"%$	c #A46232",
"&$	c #945027",
"*$	c #362010",
"=$	c #9C6135",
"-$	c #9F6032",
";$	c #573117",
">$	c #532E15",
",$	c #950D25",
"'$	c #A40A29",
")$	c #A10B26",
"!$	c #7E0820",
"~$	c #A90B18",
"{$	c #C51311",
"]$	c #6C0D11",
"^$	c #170905",
"/$	c #54301F",
"($	c #DC8153",
"_$	c #F58D55",
":$	c #F48B54",
"<$	c #F58A54",
"[$	c #F58B54",
"}$	c #F58C55",
"|$	c #DB8254",
"1$	c #542E1D",
"2$	c #160A06",
"3$	c #6C0D10",
"4$	c #C61311",
"5$	c #A80A17",
"6$	c #7F0720",
"7$	c #A30B28",
"8$	c #A50A29",
"9$	c #930D24",
"0$	c #AC6836",
"a$	c #B26C38",
"b$	c #AA6635",
"c$	c #925027",
"d$	c #381F11",
"e$	c #532F15",
"f$	c #A26231",
"g$	c #030201",
"h$	c #970E25",
"i$	c #A20B28",
"j$	c #950825",
"k$	c #960E19",
"l$	c #290406",
"m$	c #B26846",
"n$	c #AA6647",
"o$	c #9B5C3D",
"p$	c #A15B37",
"q$	c #A05B37",
"r$	c #905333",
"s$	c #010301",
"t$	c #543728",
"u$	c #F48C54",
"v$	c #DC8253",
"w$	c #573727",
"x$	c #010202",
"y$	c #915232",
"z$	c #A15A36",
"A$	c #A05A36",
"B$	c #9C5C3B",
"C$	c #A9674A",
"D$	c #B16A47",
"E$	c #2B0406",
"F$	c #990E18",
"G$	c #7F0820",
"H$	c #960925",
"I$	c #970E24",
"J$	c #D58547",
"K$	c #F29C52",
"L$	c #CB8043",
"M$	c #563016",
"N$	c #A20A28",
"O$	c #A00926",
"P$	c #580713",
"Q$	c #210407",
"R$	c #C57953",
"S$	c #E78756",
"T$	c #624131",
"U$	c #B8714D",
"V$	c #F2915F",
"W$	c #F2A37D",
"X$	c #F4A47E",
"Y$	c #EFA581",
"Z$	c #A97860",
"`$	c #2A1F18",
" %	c #C08E66",
".%	c #F9B57C",
"+%	c #F9B57B",
"@%	c #F9B57A",
"#%	c #C19067",
"$%	c #2A1F1A",
"%%	c #A6765F",
"&%	c #EEA380",
"*%	c #F3A47F",
"=%	c #F1A37E",
"-%	c #B8724F",
";%	c #634335",
">%	c #E78757",
",%	c #C47953",
"'%	c #5A0714",
")%	c #A20A27",
"!%	c #A40B29",
"~%	c #CE8144",
"{%	c #E7934E",
"]%	c #C37A40",
"^%	c #945028",
"/%	c #9C6035",
"(%	c #900A21",
"_%	c #8C0A20",
":%	c #320406",
"<%	c #4C250F",
"[%	c #DB7F50",
"}%	c #F48C55",
"|%	c #C9784E",
"1%	c #DFC3B7",
"2%	c #F5F7F6",
"3%	c #FAFBFB",
"4%	c #E6BFB0",
"5%	c #C18D66",
"6%	c #E0AB7A",
"7%	c #FBBD82",
"8%	c #FBBD83",
"9%	c #E1AC7B",
"0%	c #C08E64",
"a%	c #E6C1B1",
"b%	c #FAFBFA",
"c%	c #F6F7F6",
"d%	c #DDC1B5",
"e%	c #F28B56",
"f%	c #C8774F",
"g%	c #DC8050",
"h%	c #4D260F",
"i%	c #340407",
"j%	c #8E0A21",
"k%	c #910B21",
"l%	c #9F6031",
"m%	c #1D1D1D",
"n%	c #280508",
"o%	c #280608",
"p%	c #582E0E",
"q%	c #663313",
"r%	c #E08F5E",
"s%	c #F3975E",
"t%	c #F59961",
"u%	c #DFB8A8",
"v%	c #F7F8F7",
"w%	c #E2EFF5",
"x%	c #6DA6DD",
"y%	c #6596C7",
"z%	c #6791C4",
"A%	c #E4B894",
"B%	c #FBBE84",
"C%	c #FCBE83",
"D%	c #E5B993",
"E%	c #6693C5",
"F%	c #6A9AC8",
"G%	c #6EA6DD",
"H%	c #E1F0F7",
"I%	c #F6F8F6",
"J%	c #E1B8A9",
"K%	c #F49761",
"L%	c #F49860",
"M%	c #E08F5D",
"N%	c #683412",
"O%	c #592E0F",
"P%	c #280709",
"Q%	c #392012",
"R%	c #9E6031",
"S%	c #AC6735",
"T%	c #AC6835",
"U%	c #BB9168",
"V%	c #C7986C",
"W%	c #4A2212",
"X%	c #633410",
"Y%	c #673413",
"Z%	c #E6B07B",
"`%	c #FBBF83",
" &	c #F8DACC",
".&	c #94BAE2",
"+&	c #2A7ABC",
"@&	c #B8BBBF",
"#&	c #959CA5",
"$&	c #E1B184",
"%&	c #FBBE83",
"&&	c #FCBE84",
"*&	c #FCBF83",
"=&	c #E2B285",
"-&	c #969DA8",
";&	c #B7BBBC",
">&	c #2C7BBD",
",&	c #95BBE3",
"'&	c #F6DACB",
")&	c #FAB579",
"!&	c #E6AF7B",
"~&	c #693513",
"{&	c #643610",
"]&	c #442011",
"^&	c #C6986D",
"/&	c #BC9169",
"(&	c #6D371C",
"_&	c #9B6035",
":&	c #573119",
"<&	c #532F16",
"[&	c #EC9550",
"}&	c #F19951",
"|&	c #C78760",
"1&	c #F6B378",
"2&	c #EEA970",
"3&	c #C7986D",
"4&	c #61330E",
"5&	c #6B3712",
"6&	c #CC9D72",
"7&	c #FBBF86",
"8&	c #F7DACB",
"9&	c #266DA9",
"0&	c #BCBCBB",
"a&	c #999A98",
"b&	c #E1AD79",
"c&	c #9B9C9B",
"d&	c #BBBBB6",
"e&	c #296FAB",
"f&	c #94BBE4",
"g&	c #F6D9CA",
"h&	c #F9B479",
"i&	c #FBBE85",
"j&	c #CD9D70",
"k&	c #6D3812",
"l&	c #60340F",
"m&	c #C7966B",
"n&	c #EDA76E",
"o&	c #F7B479",
"p&	c #C8865E",
"q&	c #532F17",
"r&	c #E7924F",
"s&	c #745943",
"t&	c #F9B97F",
"u&	c #E39059",
"v&	c #DA7942",
"w&	c #B87A4F",
"x&	c #62340E",
"y&	c #713B0E",
"z&	c #8A6047",
"A&	c #FAB57A",
"B&	c #266EAA",
"C&	c #D69A6B",
"D&	c #BB7E57",
"E&	c #BB7F57",
"F&	c #BB7E58",
"G&	c #D69B6B",
"H&	c #E2B07D",
"I&	c #2A6FAC",
"J&	c #94BBE5",
"K&	c #F7D9CA",
"L&	c #FAB47B",
"M&	c #FBBD84",
"N&	c #8B6247",
"O&	c #723C0E",
"P&	c #63340F",
"Q&	c #B8764E",
"R&	c #DB7A42",
"S&	c #E3915A",
"T&	c #FAB87E",
"U&	c #745741",
"V&	c #A36130",
"W&	c #765F49",
"X&	c #FBBC84",
"Y&	c #EBA56E",
"Z&	c #E99760",
"`&	c #AD5F32",
" *	c #65360F",
".*	c #663310",
"+*	c #855D45",
"@*	c #F7D9CB",
"#*	c #95BAE3",
"$*	c #266EAB",
"%*	c #3D1D13",
"&*	c #88462C",
"**	c #C07B54",
"=*	c #C28860",
"-*	c #C2875F",
";*	c #C2865E",
">*	c #C2865D",
",*	c #C17C54",
"'*	c #89482C",
")*	c #3D1E13",
"!*	c #286FAC",
"~*	c #95BBE5",
"{*	c #F7D8CA",
"]*	c #FAB47A",
"^*	c #866046",
"/*	c #673311",
"(*	c #653510",
"_*	c #AC5E33",
":*	c #E99861",
"<*	c #EAA46E",
"[*	c #765C45",
"}*	c #755E47",
"|*	c #FBBD86",
"1*	c #E7955E",
"2*	c #AD5F33",
"3*	c #592E10",
"4*	c #623120",
"5*	c #D48E62",
"6*	c #FABD83",
"7*	c #FAB57B",
"8*	c #F5D1BF",
"9*	c #A5C6E6",
"0*	c #2F85CF",
"a*	c #406BA1",
"b*	c #89472F",
"c*	c #E0A473",
"d*	c #FABC82",
"e*	c #FBC592",
"f*	c #FBC693",
"g*	c #FABA7F",
"h*	c #E2A675",
"i*	c #8B4930",
"j*	c #416BA0",
"k*	c #2F86D0",
"l*	c #A5C8E9",
"m*	c #F4D0BD",
"n*	c #F9B67B",
"o*	c #D59064",
"p*	c #643322",
"q*	c #582F10",
"r*	c #E8955F",
"s*	c #755B44",
"t*	c #9E5F32",
"u*	c #563118",
"v*	c #533016",
"w*	c #735540",
"x*	c #F9B881",
"y*	c #F1AB72",
"z*	c #C87241",
"A*	c #66331F",
"B*	c #AB6F48",
"C*	c #FABC83",
"D*	c #D8A575",
"E*	c #C59669",
"F*	c #F7B178",
"G*	c #F6E0D2",
"H*	c #F9FDFB",
"I*	c #9BADCD",
"J*	c #895456",
"K*	c #DD8C5A",
"L*	c #F9BB7F",
"M*	c #FBD6B0",
"N*	c #FBE2C5",
"O*	c #FBD8B5",
"P*	c #FBC085",
"Q*	c #F9BA7F",
"R*	c #DE8C59",
"S*	c #8B5757",
"T*	c #9DAFCE",
"U*	c #F7DFD2",
"V*	c #F7B279",
"W*	c #C59667",
"X*	c #D6A373",
"Y*	c #F9BB83",
"Z*	c #A86E46",
"`*	c #65331E",
" =	c #C6703F",
".=	c #F2AB72",
"+=	c #F9B981",
"@=	c #74533C",
"#=	c #A26232",
"$=	c #A66331",
"%=	c #A86431",
"&=	c #A56331",
"*=	c #924F27",
"==	c #542F18",
"-=	c #382010",
";=	c #C67F58",
">=	c #F8B277",
",=	c #FBBF87",
"'=	c #D79969",
")=	c #89482B",
"!=	c #EDB27B",
"~=	c #E7B27F",
"{=	c #4F4133",
"]=	c #433124",
"^=	c #C19973",
"/=	c #F5B57E",
"(=	c #F9CB9E",
"_=	c #D7A784",
":=	c #9F5434",
"<=	c #F7A76E",
"[=	c #FBC38E",
"}=	c #FBC694",
"|=	c #FAC187",
"1=	c #A05535",
"2=	c #D9A885",
"3=	c #F9CB9F",
"4=	c #F5B47D",
"5=	c #C0976F",
"6=	c #453224",
"7=	c #4E3F32",
"8=	c #EDB27A",
"9=	c #8C492D",
"0=	c #D89868",
"a=	c #F8B478",
"b=	c #C58159",
"c=	c #A46231",
"d=	c #D38446",
"e=	c #F09A51",
"f=	c #C97D41",
"g=	c #6E371B",
"h=	c #A56131",
"i=	c #76422B",
"j=	c #EA9363",
"k=	c #F7B77F",
"l=	c #D69A68",
"m=	c #924E30",
"n=	c #E2AC79",
"o=	c #693911",
"p=	c #331A09",
"q=	c #9F6A49",
"r=	c #A47D59",
"s=	c #9A6847",
"t=	c #9F5535",
"u=	c #F5955C",
"v=	c #F9BA80",
"w=	c #F9BB80",
"x=	c #F3945C",
"y=	c #A25636",
"z=	c #9C6A49",
"A=	c #A47E58",
"B=	c #9D6845",
"C=	c #6A3711",
"D=	c #E1AC78",
"E=	c #944F32",
"F=	c #D89B69",
"G=	c #F7B67D",
"H=	c #EB9564",
"I=	c #D28346",
"J=	c #F09852",
"K=	c #C97C41",
"L=	c #3B231A",
"M=	c #A7643F",
"N=	c #B66D45",
"O=	c #7F4328",
"P=	c #E2AE7B",
"Q=	c #5B300E",
"R=	c #723C11",
"S=	c #6D3B13",
"T=	c #4C2A0F",
"U=	c #301908",
"V=	c #361C13",
"W=	c #BF6B43",
"X=	c #F4A96F",
"Y=	c #F3AA6F",
"Z=	c #BF6D43",
"`=	c #381E14",
" -	c #301808",
".-	c #4C290E",
"+-	c #6D3A13",
"@-	c #713C11",
"#-	c #5B300D",
"$-	c #E1AD7A",
"%-	c #80432A",
"&-	c #B66E48",
"*-	c #A3613C",
"=-	c #A46130",
"--	c #A56130",
";-	c #A36030",
">-	c #020302",
",-	c #030403",
"'-	c #30190E",
")-	c #F5A36A",
"!-	c #EFB780",
"~-	c #875133",
"{-	c #1D0E05",
"]-	c #4A270C",
"^-	c #703D12",
"/-	c #743E0F",
"(-	c #67380F",
"_-	c #2B1605",
":-	c #4A271A",
"<-	c #DD8352",
"[-	c #F49C65",
"}-	c #F7A169",
"|-	c #F7A26A",
"1-	c #F6A269",
"2-	c #F49D66",
"3-	c #DE8655",
"4-	c #4E2919",
"5-	c #2B1505",
"6-	c #67370F",
"7-	c #703C13",
"8-	c #49270C",
"9-	c #1E0F05",
"0-	c #844B2E",
"a-	c #F0B57F",
"b-	c #F4A169",
"c-	c #A66131",
"d-	c #A56031",
"e-	c #2E170C",
"f-	c #E78A56",
"g-	c #F6AB71",
"h-	c #F7B077",
"i-	c #A76B4B",
"j-	c #613B28",
"k-	c #5F3512",
"l-	c #723D0F",
"m-	c #733F12",
"n-	c #5D3412",
"o-	c #211307",
"p-	c #693724",
"q-	c #8B462A",
"r-	c #8A462A",
"s-	c #89462A",
"t-	c #8B472B",
"u-	c #673624",
"v-	c #221308",
"w-	c #733F11",
"x-	c #613513",
"y-	c #613B29",
"z-	c #A66B4C",
"A-	c #F5AD74",
"B-	c #F6A96F",
"C-	c #E58753",
"D-	c #C37036",
"E-	c #D77939",
"F-	c #A56030",
"G-	c #AF623C",
"H-	c #F6945C",
"I-	c #FBBE82",
"J-	c #F8B37A",
"K-	c #A06440",
"L-	c #160A04",
"M-	c #5F3413",
"N-	c #5B3212",
"O-	c #41250F",
"P-	c #744012",
"Q-	c #633610",
"R-	c #532D15",
"S-	c #452316",
"T-	c #432215",
"U-	c #432216",
"V-	c #452215",
"W-	c #542D16",
"X-	c #5D3314",
"Y-	c #603513",
"Z-	c #160A03",
"`-	c #A05F3E",
" ;	c #F8B079",
".;	c #F7935A",
"+;	c #AC603A",
"@;	c #D67839",
"#;	c #BA6B35",
"$;	c #EB9652",
"%;	c #EF9952",
"&;	c #F09953",
"*;	c #EF9853",
"=;	c #77452F",
"-;	c #EA8D5C",
";;	c #F6A068",
">;	c #FABB7D",
",;	c #F5AD73",
"';	c #815139",
");	c #391E0B",
"!;	c #713D11",
"~;	c #733D11",
"{;	c #4F2C11",
"];	c #020202",
"^;	c #4E2B11",
"/;	c #723D10",
"(;	c #713E11",
"_;	c #381D0A",
":;	c #825239",
"<;	c #F5AD75",
"[;	c #FBBA7E",
"};	c #F69E66",
"|;	c #EA8C57",
"1;	c #78452E",
"2;	c #ED9651",
"3;	c #F29B53",
"4;	c #AB6734",
"5;	c #8B6453",
"6;	c #EA844F",
"7;	c #F49D64",
"8;	c #F9B980",
"9;	c #EBA571",
"0;	c #DC8F61",
"a;	c #DE9162",
"b;	c #CE855A",
"c;	c #4C3325",
"d;	c #2D1909",
"e;	c #331C0B",
"f;	c #321E16",
"g;	c #B96F49",
"h;	c #BA714B",
"i;	c #322016",
"j;	c #2E1A09",
"k;	c #4E3428",
"l;	c #CD8459",
"m;	c #DD9061",
"n;	c #DC8F60",
"o;	c #ECA570",
"p;	c #F8B97F",
"q;	c #F39B63",
"r;	c #E9824D",
"s;	c #8B6351",
"t;	c #6D381C",
"u;	c #A76332",
"v;	c #EB9650",
"w;	c #F09A52",
"x;	c #AD6835",
"y;	c #7B482F",
"z;	c #BE7148",
"A;	c #F4945C",
"B;	c #F8B87D",
"C;	c #FABE82",
"D;	c #F9BA7D",
"E;	c #D99E6E",
"F;	c #B68B61",
"G;	c #B78C64",
"H;	c #C89367",
"I;	c #F8A86F",
"J;	c #F8A86E",
"K;	c #C89467",
"L;	c #B68C64",
"M;	c #B68A61",
"N;	c #D9A06F",
"O;	c #F9BB7D",
"P;	c #FABE81",
"Q;	c #F9B87D",
"R;	c #F4935B",
"S;	c #F58C53",
"T;	c #BC7147",
"U;	c #6E381C",
"V;	c #542F19",
"W;	c #9F6033",
"X;	c #A26032",
"Y;	c #EA9650",
"Z;	c #291B14",
"`;	c #5F4030",
" >	c #986044",
".>	c #F19059",
"+>	c #F9AF74",
"@>	c #FAB87B",
"#>	c #FABF83",
"$>	c #F5AC72",
"%>	c #F49C63",
"&>	c #F5955D",
"*>	c #F5965D",
"=>	c #F6AC72",
"->	c #F8B075",
";>	c #F5945D",
">>	c #5F402F",
",>	c #9D6035",
"'>	c #A86433",
")>	c #A96433",
"!>	c #380408",
"~>	c #4B174A",
"{>	c #3C2E5E",
"]>	c #905335",
"^>	c #B16742",
"/>	c #D07547",
"(>	c #F6975E",
"_>	c #F7A168",
":>	c #FAB97C",
"<>	c #F7AC73",
"[>	c #F8AC72",
"}>	c #FAB87D",
"|>	c #F7A269",
"1>	c #F69960",
"2>	c #CF7346",
"3>	c #AF6641",
"4>	c #905234",
"5>	c #3D2F5D",
"6>	c #4D1748",
"7>	c #380509",
"8>	c #D58647",
"9>	c #EE9851",
"0>	c #C37840",
"a>	c #944F27",
"b>	c #540713",
"c>	c #790B1D",
"d>	c #910F2F",
"e>	c #52216C",
"f>	c #17307C",
"g>	c #0E2052",
"h>	c #111C4D",
"i>	c #3D2743",
"j>	c #AF603A",
"k>	c #C77348",
"l>	c #C57549",
"m>	c #C37449",
"n>	c #C47448",
"o>	c #C47348",
"p>	c #C47449",
"q>	c #C57449",
"r>	c #AF6039",
"s>	c #3F2744",
"t>	c #121C4B",
"u>	c #0E2152",
"v>	c #16317D",
"w>	c #57216C",
"x>	c #930E2F",
"y>	c #770B1C",
"z>	c #550712",
"A>	c #F19A52",
"B>	c #C57A41",
"C>	c #850A0B",
"D>	c #CA1117",
"E>	c #B40D1C",
"F>	c #8B1341",
"G>	c #1C287E",
"H>	c #163C98",
"I>	c #163D98",
"J>	c #183690",
"K>	c #192370",
"L>	c #0E0102",
"M>	c #0E0101",
"N>	c #0F0101",
"O>	c #0F0102",
"P>	c #1A2472",
"Q>	c #19378F",
"R>	c #153D98",
"S>	c #153C98",
"T>	c #1C287F",
"U>	c #8E1342",
"V>	c #B60C1C",
"W>	c #840B0D",
"X>	c #A66332",
"Y>	c #573218",
"Z>	c #020303",
"`>	c #990E17",
" ,	c #DA1513",
".,	c #DC1412",
"+,	c #DB1412",
"@,	c #BB1B39",
"#,	c #1C297E",
"$,	c #2C67D1",
"%,	c #2967D3",
"&,	c #1D45A2",
"*,	c #352573",
"=,	c #9A0B25",
"-,	c #9B0B24",
";,	c #9B0A24",
">,	c #9A0A24",
",,	c #372571",
"',	c #2046A2",
"),	c #2967D4",
"!,	c #2B65D0",
"~,	c #1C297D",
"{,	c #BF1A37",
"],	c #DC1413",
"^,	c #DD1314",
"/,	c #D91513",
"(,	c #960E16",
"_,	c #020403",
":,	c #955128",
"<,	c #6F381C",
"[,	c #7D1012",
"},	c #D41313",
"|,	c #AF0C1F",
"1,	c #B81B3A",
"2,	c #2A64CF",
"3,	c #2967D6",
"4,	c #2454B5",
"5,	c #412670",
"6,	c #CD1317",
"7,	c #CC1216",
"8,	c #CD1216",
"9,	c #CE1317",
"0,	c #D01317",
"a,	c #472570",
"b,	c #2653B3",
"c,	c #2968D7",
"d,	c #2A65CF",
"e,	c #1B287C",
"f,	c #BC1A37",
"g,	c #AF0B1F",
"h,	c #D61312",
"i,	c #DB1312",
"j,	c #D21412",
"k,	c #7C1111",
"l,	c #502F18",
"m,	c #351F10",
"n,	c #58050F",
"o,	c #C91319",
"p,	c #DB1313",
"q,	c #BB1017",
"r,	c #890A1E",
"s,	c #9C183E",
"t,	c #1E2A7B",
"u,	c #AFA390",
"v,	c #B2A390",
"w,	c #8E8787",
"x,	c #322876",
"y,	c #971E54",
"z,	c #981E54",
"A,	c #981E53",
"B,	c #971F54",
"C,	c #981F54",
"D,	c #372777",
"E,	c #8E8788",
"F,	c #B1A38E",
"G,	c #B0A491",
"H,	c #1F297C",
"I,	c #A1173C",
"J,	c #880A1F",
"K,	c #BA1018",
"L,	c #DC1314",
"M,	c #C9131A",
"N,	c #56050F",
"O,	c #171717",
"P,	c #D28245",
"Q,	c #EA924E",
"R,	c #C3773E",
"S,	c #7C0618",
"T,	c #D01316",
"U,	c #D21316",
"V,	c #980C1D",
"W,	c #650E2B",
"X,	c #47226D",
"Y,	c #B59F55",
"Z,	c #FAF5D5",
"`,	c #FADD74",
" '	c #F4CD17",
".'	c #706871",
"+'	c #1D3992",
"@'	c #1E3992",
"#'	c #1D3A92",
"$'	c #1D3A91",
"%'	c #1E3A92",
"&'	c #6F646B",
"*'	c #F1E3AC",
"='	c #F9EAB2",
"-'	c #FCD30F",
";'	c #B39C53",
">'	c #48226D",
",'	c #640D29",
"''	c #980B1D",
")'	c #D11217",
"!'	c #CF1216",
"~'	c #CC1317",
"{'	c #7C0519",
"]'	c #151515",
"^'	c #F29850",
"/'	c #C87A40",
"('	c #72381C",
"_'	c #562F18",
":'	c #3A2111",
"<'	c #010302",
"['	c #A1A9AB",
"}'	c #D6C7C7",
"|'	c #C4A9AB",
"1'	c #966B73",
"2'	c #9D0B25",
"3'	c #6B0917",
"4'	c #131C59",
"5'	c #1C287D",
"6'	c #C8AC4E",
"7'	c #FBE59A",
"8'	c #FCD953",
"9'	c #FAC805",
"0'	c #78667A",
"a'	c #2866D2",
"b'	c #2866D3",
"c'	c #776675",
"d'	c #F8D77D",
"e'	c #FADF81",
"f'	c #FDD303",
"g'	c #C8AB4A",
"h'	c #131C58",
"i'	c #6A0918",
"j'	c #9C0A25",
"k'	c #986D75",
"l'	c #C3ABAD",
"m'	c #D7C8C9",
"n'	c #A96634",
"o'	c #CD8043",
"p'	c #E6914B",
"q'	c #C4793F",
"r'	c #965128",
"s'	c #6F371B",
"t'	c #4B5154",
"u'	c #F7F9F8",
"v'	c #FBFBF9",
"w'	c #F1F3F2",
"x'	c #9A9EA5",
"y'	c #4A4B4E",
"z'	c #132A6B",
"A'	c #193790",
"B'	c #A37C59",
"C'	c #F2A912",
"D'	c #F6A902",
"E'	c #E79E22",
"F'	c #62517A",
"G'	c #61537B",
"H'	c #E49E23",
"I'	c #F5A903",
"J'	c #F3A80E",
"K'	c #A27A54",
"L'	c #193892",
"M'	c #122A6A",
"N'	c #494A4D",
"O'	c #999DA4",
"P'	c #F0F3F2",
"Q'	c #FBFCFA",
"R'	c #F8F9F8",
"S'	c #C5D2D6",
"T'	c #4B5254",
"U'	c #D48546",
"V'	c #512D18",
"W'	c #565959",
"X'	c #A5B3B9",
"Y'	c #E6ECEE",
"Z'	c #F2F5F3",
"`'	c #DDE5E7",
" )	c #BDCFD6",
".)	c #5C6465",
"+)	c #122B6D",
"@)	c #19429F",
"#)	c #2654B3",
"$)	c #96706A",
"%)	c #986C5B",
"&)	c #7C6688",
"*)	c #2558BD",
"=)	c #2456BA",
"-)	c #7B6689",
";)	c #9A6D5A",
">)	c #996F64",
",)	c #2754B4",
"')	c #1942A1",
"))	c #112B6C",
"!)	c #5F6669",
"~)	c #BECFD6",
"{)	c #DCE5E8",
"])	c #F1F4F3",
"^)	c #E7EDEE",
"/)	c #A2B0B5",
"()	c #535757",
"_)	c #B26B37",
":)	c #A96533",
"<)	c #954F28",
"[)	c #72381B",
"})	c #542F16",
"|)	c #929292",
"1)	c #8E9598",
"2)	c #EEF2F4",
"3)	c #FBFDFB",
"4)	c #C4CFD5",
"5)	c #4F5558",
"6)	c #112A6C",
"7)	c #1947A5",
"8)	c #2A67D5",
"9)	c #2147A4",
"0)	c #2246A3",
"a)	c #2554B6",
"b)	c #2865D3",
"c)	c #2454B6",
"d)	c #2246A2",
"e)	c #2A67D3",
"f)	c #1A47A6",
"g)	c #102A6B",
"h)	c #505759",
"i)	c #C4CFD4",
"j)	c #EFF3F4",
"k)	c #8E9698",
"l)	c #522F16",
"m)	c #BDC7CC",
"n)	c #FCFDFC",
"o)	c #F8FAF8",
"p)	c #E8EDEF",
"q)	c #5F6566",
"r)	c #122B6C",
"s)	c #2865CE",
"t)	c #2967D2",
"u)	c #2867D2",
"v)	c #2866D1",
"w)	c #2864CE",
"x)	c #1947A4",
"y)	c #102A6C",
"z)	c #62686B",
"A)	c #E7EDEF",
"B)	c #BCC6CA",
"C)	c #512E17",
"D)	c #351E10",
"E)	c #BEC7CC",
"F)	c #CAD5D8",
"G)	c #9FACB0",
"H)	c #F2F4F3",
"I)	c #122B6E",
"J)	c #163D9B",
"K)	c #153D9A",
"L)	c #163D9A",
"M)	c #102B6D",
"N)	c #61686B",
"O)	c #9EACB0",
"P)	c #BDC8CA",
"Q)	c #B66933",
"R)	c #6F371C",
"S)	c #93A1A7",
"T)	c #E4EBEC",
"U)	c #FEFEFC",
"V)	c #C3CBCD",
"W)	c #9AACB4",
"X)	c #BBC8CD",
"Y)	c #C5D5DA",
"Z)	c #163E9A",
"`)	c #1B46A2",
" !	c #2259BE",
".!	c #2561C9",
"+!	c #2865CF",
"@!	c #2765D0",
"#!	c #2560CB",
"$!	c #1C46A3",
"%!	c #163C9A",
"&!	c #112B6D",
"*!	c #5F676A",
"=!	c #C6D5DB",
"-!	c #BCC8CD",
";!	c #9EAFB6",
">!	c #C4CDCE",
",!	c #FEFEFB",
"'!	c #92A0A5",
")!	c #BB6B34",
"!!	c #372010",
"~!	c #798285",
"{!	c #ACB9C0",
"]!	c #DEE7E8",
"^!	c #AABAC1",
"/!	c #7C8B90",
"(!	c #818D91",
"_!	c #404B6F",
":!	c #1D4496",
"<!	c #2153B3",
"[!	c #163D99",
"}!	c #1F4FAF",
"|!	c #2053B6",
"1!	c #2052B5",
"2!	c #1F52B4",
"3!	c #2053B5",
"4!	c #1F53B5",
"5!	c #1F52B5",
"6!	c #2052B6",
"7!	c #1E4EAF",
"8!	c #153C99",
"9!	c #163C99",
"0!	c #2151B4",
"a!	c #1C4497",
"b!	c #434E72",
"c!	c #818D92",
"d!	c #7A888E",
"e!	c #ACBBC3",
"f!	c #DEE7E9",
"g!	c #DCE5E7",
"h!	c #AEBBC2",
"i!	c #777F82",
"j!	c #A06032",
"k!	c #767D81",
"l!	c #7E8E94",
"m!	c #839298",
"n!	c #7A8B91",
"o!	c #153280",
"p!	c #2256B8",
"q!	c #2867D1",
"r!	c #2560C8",
"s!	c #1A46A6",
"t!	c #18409C",
"u!	c #15398F",
"v!	c #11266A",
"w!	c #16317B",
"x!	c #163683",
"y!	c #163583",
"z!	c #16347F",
"A!	c #163480",
"B!	c #163582",
"C!	c #163178",
"D!	c #10256A",
"E!	c #173890",
"F!	c #173C99",
"G!	c #18409D",
"H!	c #1A47A7",
"I!	c #2765D1",
"J!	c #2155B6",
"K!	c #163280",
"L!	c #798C92",
"M!	c #819297",
"N!	c #7D8D93",
"O!	c #757D81",
"P!	c #153381",
"Q!	c #2156B9",
"R!	c #2968D2",
"S!	c #255FC6",
"T!	c #1F4EAD",
"U!	c #163C97",
"V!	c #173D98",
"W!	c #14327C",
"X!	c #16317A",
"Y!	c #204EAD",
"Z!	c #265FC7",
"`!	c #2155B7",
" ~	c #9E6135",
".~	c #573217",
"+~	c #143484",
"@~	c #2155B8",
"#~	c #2867D4",
"$~	c #2359BF",
"%~	c #163E9B",
"&~	c #173C97",
"*~	c #245AC0",
"=~	c #2865D2",
"-~	c #2867D3",
";~	c #163382",
">~	c #362011",
",~	c #9F6136",
"'~	c #0D1D4A",
")~	c #172E62",
"!~	c #1C3A76",
"~~	c #1B3B77",
"{~	c #1F4AA4",
"]~	c #1E4CAD",
"^~	c #1B46A4",
"/~	c #153D9B",
"(~	c #1C47A6",
"_~	c #1E4DAD",
":~	c #204AA4",
"<~	c #1B3A77",
"[~	c #1B3974",
"}~	c #152C5F",
"|~	c #0D1D49",
"1~	c #99542B",
"2~	c #934A26",
"3~	c #9C582D",
"4~	c #A16132",
"5~	c #47250C",
"6~	c #47250B",
"7~	c #46250B",
"8~	c #45250B",
"9~	c #45250E",
"0~	c #162C6E",
"a~	c #122D72",
"b~	c #143483",
"c~	c #153C9A",
"d~	c #153B99",
"e~	c #0C183C",
"f~	c #153485",
"g~	c #122E74",
"h~	c #172E6E",
"i~	c #46250D",
"j~	c #45240B",
"k~	c #47260B",
"l~	c #47260C",
"m~	c #954E28",
"n~	c #8A3E20",
"o~	c #99532B",
"p~	c #965028",
"q~	c #71381C",
"r~	c #583117",
"s~	c #552F16",
"t~	c #8D4926",
"u~	c #904A25",
"v~	c #2A180C",
"w~	c #5A3214",
"x~	c #7D471A",
"y~	c #804819",
"z~	c #733E0F",
"A~	c #723D0E",
"B~	c #291508",
"C~	c #29170B",
"D~	c #17132C",
"E~	c #191B43",
"F~	c #1B1D48",
"G~	c #1C1D48",
"H~	c #1A1C43",
"I~	c #17132B",
"J~	c #281408",
"K~	c #733D0E",
"L~	c #7F4819",
"M~	c #9F5C2F",
"N~	c #9D592E",
"O~	c #A05E2F",
"P~	c #9E6136",
"Q~	c #833D20",
"R~	c #733E14",
"S~	c #794110",
"T~	c #B67136",
"U~	c #AC6932",
"V~	c #733F10",
"W~	c #5A2A15",
"X~	c #522117",
"Y~	c #502017",
"Z~	c #512117",
"`~	c #522217",
" {	c #733E11",
".{	c #743F10",
"+{	c #AB6732",
"@{	c #B56F36",
"#{	c #78410F",
"${	c #723F13",
"%{	c #70371C",
"&{	c #6E4326",
"*{	c #704324",
"={	c #65351C",
"-{	c #724324",
";{	c #724424",
">{	c #724323",
",{	c #734324",
"'{	c #713C12",
"){	c #733F0F",
"!{	c #804A1B",
"~{	c #713C0E",
"{{	c #6D3A11",
"]{	c #643213",
"^{	c #512116",
"/{	c #502116",
"({	c #522116",
"_{	c #653215",
":{	c #6C3910",
"<{	c #723E0F",
"[{	c #7D4619",
"}{	c #713D12",
"|{	c #724223",
"1{	c #724322",
"2{	c #724423",
"3{	c #6C3C1E",
"4{	c #5D3219",
"5{	c #010001",
"6{	c #502F1A",
"7{	c #734521",
"8{	c #985C27",
"9{	c #985B26",
"0{	c #995B27",
"a{	c #995C27",
"b{	c #60381F",
"c{	c #8C5229",
"d{	c #8C522A",
"e{	c #8B5229",
"f{	c #5F3720",
"g{	c #5E3820",
"h{	c #985B28",
"i{	c #995C28",
"j{	c #985B27",
"k{	c #72441F",
"l{	c #2C1B11",
"m{	c #2D1A0E",
"n{	c #2D1A0F",
"o{	c #5A3A21",
"p{	c #935C2D",
"q{	c #935C2C",
"r{	c #945C2C",
"s{	c #54351F",
"t{	c #5C3A1F",
"u{	c #8F5829",
"v{	c #8F592B",
"w{	c #2E1A0E",
"x{	c #8F582A",
"y{	c #5B3A1D",
"z{	c #583922",
"A{	c #945C2D",
"B{	c #925B2C",
"C{	c #5A3A1F",
"D{	c #2D190E",
"E{	c #1D1009",
"        .                                           +                         . .                   + + .     + + +     + + +   ",
"@ + # $ % & & * = * * * * * & - = * - % - * = + + + + + ; > , ' ) ! > ~ + + + + + { { = * % { * - { - { = = - { & % { - ] ^ /   ",
"@ + ( _ _ : < [ } | 1 | | | 2 2 2 2 3 [ [ + + + 4 5 6 7 8 8 9 9 9 0 a a 7 b c d + + + e } [ 3 } 2 e 2 e 2 2 2 f g h h i j k l   ",
"m + n o p q r s p t t u t t v r w w x y + + + z A 8 B 8 C D E F G H I J K L B M N O + + r q q t P r r v r P P P Q Q s q R S T   ",
"  + U V W X Y Y Y Z Z Z Z Y Y ` Y Y Y + +  ...+.@.#.B $.%.&.*.=.=.-.;.>.,.'.7 ).).!.~.{.+ Y ].Z Y ].Y ^./.Y Y /.(.Y _./.].:.<.  ",
"  + [.V }./.|.1.2.2.3.4.4.4.5.5.5.+ + + 6.7.8.9.B #.0.a.b.c.d.e.f.g.h.i.j.k.).l.m.n.o.p.+ + 5.q.4.5.4.4.r.4.4.4.4.s.t.u.v.w.x.  ",
"  + y.V W /.z.A.3 | | | | 2 B.B.C.+ D.E.#.8.F.m.F.G.H.I.J.K.L.M.N.O.P.Q.R.S.T.U.9.F.F.8 V.W.+ C.| | | | | C.| | | X.Y.Z.`.S  +  ",
"  + [..+++@+#+$+3 | C.| | | | C.+ + %+8.8.7 7 K 8 &+*+e.=+-+;+>+,+'+)+!+e.~+&+7 0 {+F.8.]+^++ + /+(+_+| | | | | | :+<+[+}+|+1+  ",
"+ + [.V W 2+i | | | | | | C.| C.+ 3+4+'.F.U.).a a 5+6+7+8+9+0+a+b+0+c+d+e+f+g+9.h+l.F.F.8 7 i++ j+k+l+| | | m+| | | | n+o+Z p+  ",
"  q+[.V r+s+t+| | | | | u+v+w++ + x+8.y+F.F.8 F.).5+z+A+B+C+f.D+E+f.F+G+H+I+&+9.l.J+l.m.0 0 K++ + L+M+| | | N+C.O+O+B.P+Q+k R+  ",
"  q+[.V }.s+S+| C.C.| N+T+U++ + V+W+@.U.m.m.).9 X+Y+Z+`+ @.@+@+@@@#@$@%@&@*@=@B -@l.l.m.).8 ;@>@+ + m+| | N+,@'@,@| B.P+Q+)@1+  ",
"!@+ [.V ~@^.S+m+{@{@]@^@/@(@+ _@:@7 X+7 l.).L <@[@}@|@1@2@3@4@5@6@7@8@9@0@a@b@c@d@F.).7 ).U.F.e@f@+ | | N+m+m+'@g@| | n+Q+Z  +  ",
"!@q+y.V ~@/.t+| h@i@j@k@l@| + m@n@9.B B o@p@q@r@s@t@u@ .v@w@ .u@w@x@u@y@z@y@A@B@C@D@E@7 U.F@F.4+G@+ + | N+H@m+'@g@| | n+I@)@J@  ",
"  + y.V ~@/.K@| C.{@L@M@N@+ + O@P@Q@@.R@S@T@U@V@W@X@8 4+Y@).U.).).m.8 U.a 8 X@Z@`@ #.#+#@#).7 8.##+ + $#N@N+N+N+N+| | P+%#Z <.  ",
"  + y.V }.2+t+| | | | B.+ &#*#=#y+y+-#;#>#,#'#)#!#~#{#]#^#]#/#]#]#/#(#(#_#/#:#<#[#}#|#1#2#3#'.'.4#5#6#+ 7#| | 8#| | | 9#I@].0#a#",
"  + [.V ~@/.t+B.| | | | + b#c#d#e#f#g#h#i#j#k#l#m#n#o#p#q#r#b#b#r#r#r#p#q#o#s#t#u#v#w#x#y#z#A#B#C#D#E#+ F#| | | | | | G#Q+|+1+  ",
"+ + H#V }.^.t+| | | | | + I#J#K#K#z#L#M#N#O#P#. +   Q#R#S#T#U#V#W#V#V#T#X#Y#      Z#`# $M#.$+$@$K##$$$+ | O+%$| | | | &$o+)@*$. ",
". + =$-$;$>$t+| | h@| | + $$,$'$)$!$~${$]$^$  +   .   /$($_$:$<$[$:$}$|$1$          2$3$4$5$6$7$8$9$$$+ | N+0$a$b$,@| c$I@)@d$  ",
"  + H#V ;$e$t+B.| | f$O++ g$h$i$j$6$k$l$m$n$$$o$p$q$r$s$t$($:$:$u$:$v$w$x$y$z$A$B$a#C$D$E$F$G$H$K#I$g$+ m+| J$K$L$f$B.c$%#)@d$  ",
"  + [.V M$s+t+| | | O+| + + + N$O$P$Q$R$S$T$U$V$W$X$Y$Z$`$ %.%+%@%.%#%$%%%&%*%=%V$-%;%>%,%Q$'%)%!%+ + + m+| ~%{%]%8#%$^%Q+Z x.  ",
"!@+ /%.+r+>$t+| | ,@| | | C.+ (%_%:%<%[%}%|%}%1%2%=.3%4%5%6%7%8%8%7%9%0%a%b%e.c%d%e%f%}%g%h%i%j%k%+ + | | | | 1 | | | n+Q+Z <.o#",
"+ + =$l%}.^.t+| | | | | | | m%n%o%p%q%r%s%t%u%v%w%x%y%z%A%7%8%B%C%C%8%D%E%F%G%H%I%J%K%L%M%N%O%P%n%+ | N+N+| {@| C.| | P+I@)@Q%  ",
"  + =$R%~@@+t+| | | S%T%+ + U%V%W%X%Y%Z%`%@% &=..&+&@&#&$&%&%&C%&&*&`%=&-&;&>&,&=.'&)&`%!&~&{&]&^&/&+ m+m+g@{@C.C.C.| P+(&)@<.  ",
"  + _&l%:&<&t+| | | [&}&+ |&1&2&3&4&5&6&7&@%8&=..&9&0&a&b&B%`%`%`%`%`%b&c&d&e&f&f.g&h&i&j&k&l&m&n&o&p&+ m+N+N+| | | | n+(&Z  +  ",
"@ + _&.+~@q&-$| | h@r&+ s&t&u&v&w&x&y&z&B%A&8&f.,&B&    9%C&D&E&E&F&G&H&o#  I&J&=.K&L&M&N&O&P&Q&R&S&T&U&+ g@g@m+m+| | 9#(&Z 0#o#",
"@ + /%t+~@k -$| | | V&+ W&X&Y&Z&`& *.*+*M&@%@*f.#*$*  %*&***=*-*;*>*,*'*)*. !*~*e.{*]*8%^*/*(*_*:*<*X&[*+ ,@m+m+m+| | 9#Q+)@1+  ",
"!@+ ( .+++q&t+| | | | + }*M&|*1*2*3*4*5*6*7*8*E+9*0*a*b*c*d*e*f*%&`%g*h*i*j*k*l*E+m*n*d*o*p*q*2*r*7&d*s*+ O+| | m+N+| P+Q+Z <.  ",
"  q+n t*u*v*t+| | | | + w*x*8%y*z*A*B*C*D*E*F*G*H*I*J*K*L*M*N*O*P*`%`%Q*R*S*T*H*U*V*W*X*Y*Z*`* =.=7%+=@=+ | | #=$=%=&=*=Q+==-=  ",
"  + ( .+++<&t+| | | | | + ;=>=,='=)=!=~={=]=^=/=(=_=:=<=`%[=}=|=`%`%`%`%<=1=2=3=4=5=6=7=~=8=9=0=7&a=b=+ m+N+c=| d=e=f=9#g=k  +  ",
"  + H#V ++2+t+| C.g@h=g@+ i=j=k=l=m=,=n=  o=p=q=r=s=t=u=v=%&`%`%`%`%`%w=x=y=z=A=B=p=C=a#D=7&E=F=G=H=+ m+m+m+| | I=J=K=^%g=Z <.  ",
"+ + [.V ++2+t+| ,@,@m+N+| + L=M=N=O=a=P=$$Q=R=S=T=U=V=W=X=g*`%`%`%`%g*Y=Z=`= -.-+-@-#-a#$-h&%-&-*-+ + } | m+m+1 =---;-9#I@)@<.  ",
"!@+ /%.+++2+t+| | m+m+| | ,@+ >-,-'-)-!-~-{-]-^-/-(-_-:-<-[-}-|-|-1-2-3-4-5-6-/-7-8-9-0-a-b-+ + + + | | N+c-d-m+| | B.G#o+:.<.  ",
"!@+ /%-$W @+t+| | ,@,@C.| | m+m++ e-f-g-h-i-j-k-l-/-m-n-o-p-q-r-s-t-u-v-k-w-/-l-x-y-z-A-B-C-e-| | | | | D-E-7#N+| | B.n+(&)@0#  ",
"  + /%-$W @+t+| =---h=F-| | | | + + G-H-I-J-K-L-M-N-O-P-Q-R-S-T-U-V-W-Q-P-O-X-Y-Z-`- ;I-.;+;+ m+m+m+| | D-@;#;m+N+| | 9#o+)@<.  ",
"  q+/%-$~@2+t+V&$;%;&;*;_+C.| C.g@+ =;-;;;>;,;';a#o#o#);!;~;{;a#];^;/;(;_;];  >-:;<;[;};|;1;+ m+m+m+m+| N+--N+,@N+| | P+(&Z  +  ",
"  + H#.+;$<&t+;-2;3;}&U+4;1 m+m+m++ + 5;6;7;8;9;0;a;b;c;d;e;f;g;h;i;e;j;k;l;m;n;o;p;q;r;s;+ + 1 N+N+N+| | %$| C.m+| | P+t;)@J@  ",
"  + H#l%;$v*t+| u;N@v;w;x;m+m+m+m+m+m++ y;z;:$A;B;C;D;E;F;G;H;I;J;K;L;M;N;O;P;Q;R;S;T;y;+ + | | f$| | O+| | | | | B.B.n+U;V;<.  ",
"  + /%l%u*q&W;| B.X;Y;k+S%| | | | | | | + Z;`; >.>A;+>@>#>$>%>&>*>%>=>B%@>->;>.> >>>Z;+ m+N+V&V&| | | | N+| 8#f$C.| B.^%U;Z <.];",
"+ + ,>t+:&q&-$B.| | '>)>N+m+| | | | + + + !>~>{>]>^>/>(>_>L&:><>[>}>]*|>1>2>3>4>5>6>7>+ + + 8>9>0>| | ,@,@N+| | | m+| a>o+Z 0#o#",
"@ + /%.+;$<&t+| C.h@m+m+m+N+,@N+g@+ + b>c>d>e>f>g>h>i>j>k>l>m>n>o>p>q>k>r>s>t>u>v>w>x>y>z>+ + A>B>| | g@m+m+N+| | m+| &$o+Z <.  ",
"  + =$-$++q&t+| C.| | ,@,@,@N+m++ + C>D>E>F>G>H>I>J>K>L>M>N>M>N>M>O>N>M>O>P>Q>R>S>T>U>V>$.W>+ + X>O+8#| m+m+g@m+| | | ^%U;S d$  ",
"  + =$-$Y><&t+| | | N+N+,@,@m++ Z>`> ,.,+,@,#,$,%,&,*,=,-,-,;,-,-,-,-,>,=,,,',),!,~,{,],^,/,(,_,+ | | | | | m+,@C.N+O+:,<,Z  +  ",
"@ + /%l%;$<&t+| | | N+N+N+m++ + [,M#+,},|,1,#,2,3,4,5,6,7,7,8,8,8,7,7,9,0,a,b,c,d,e,f,g,h,i,j,k,+ + | | | C.,@C.m+N+| ^%o+l,m,];",
"  + H#.+r+>$t+| | | m+N+N+| + n,o,.,p,q,r,s,t,u,v,w,x,y,z,y,A,A,A,z,B,C,z,D,E,F,G,H,I,J,K,L,J+M,N,O,P,Q,R,| | N+| | | &$g=].-=  ",
"@ q+/%l%;$<&t+| | | m+1 | + + S,6,T,U,V,W,X,Y,Z,`, '.'+'@'#'#'+'+'$'%'#'%'&'*'='-';'>',''')'!'~'{']'+ ^'/'| | | | 2 3 ^%('_':'  ",
"  + =$-$r+2+-$| | N+m+m++ <'['}'|'1'2'3'4'5'6'7'8'9'0'a'a'b'b'b'b'b'b'b'a'c'd'e'f'g'5'h'i'j'k'l'm'['>-+ n'| | | o'p'q'r's'Y T   ",
"  + H#l%r+>$t+| ,@| | | + t'@@u'v'w'x'y'z'A'B'C'D'E'F'a'b'b'b'b'b'b'b'b'b'G'H'I'J'K'L'M'N'O'P'Q'R'S'T'+ | | | | U'K$o':,%#V'T a#",
"  + ,>S+r+>$t+N+N+8#| + W'X'Y'I%Z'`' ).)+)@)#)$)%)&)*)a'b'b'b'b'b'b'b'b'b'=)-);)>),)')))!)~){)])c%^)/)()+ | | | 0$_):)<)[)})-=o#",
"+ + /%-$;$2+-$m+| | + |)1)2)e.f.f.3)4)5)6)7)8)9)0)a)b'b)b)b'b'b'b)b)b'b'b'b)c)d)d)e)f)g)h)i)Q'e.f.f.j)k)+ m+m+| | | | a>s'<&T   ",
"  + /%l%;$l)-$m+1 2 + >-m)e.f.n)o)e.p)q)r)f)s)t)b'b'b'b)b'a'a'b'b'b'b'b'b'b'u)b'v)w)x)y)z)A)D+R'n)=.e.B)>-+ 1 | | | | ^%o+C)D)  ",
"  + /%-$++v*t+g@,@| +   E)e.f.F)G)H)p).)I)J)K)t)a'u)u)b'b'b'b'b'b'b'b'b'b'b'b'b)t)K)L)M)N)A)Z'O)F)e.f.P)o#+ Q)8#f$B.B.X.R)Y <.  ",
"  + [.-$++<&S+g@,@C.+ o#S)T)U)V)W)X)Y).)I)L)Z)`) !.!+!b'a'b'a'b'b'b'a'b'b'@!#! !$!%!J)&!*!=!-!;!>!,!T)'!x$+ )!N+| N+| X.R)Z !!o#",
"  + [.-$:&q&t+C.m+m++ + ~!{!{)]!^!/!(!_!:!<!L)[!%!H>}!|!1!2!3!4!|!5!2!2!6!7!8!L)H>9!0!a!b!c!d!e!f!g!h!i!+ + N@N+m+m+| X.R)Z !!  ",
"+ q+,>j!++<&t+| m+m+m+m++ k!l!m!n!+ + o!p!q!r!s!t![!u!v!w!x!y!z!A!B!y!C!D!E!F!G!H!r!I!J!K!];+ L!M!N!O!+ C.h@| %$N+| | X.<,)@d$. ",
". + =$-$;$v*W;| m+m+m+,@%$+     >-+ + P!Q!b'q!R!S!T!U!V!W!+ + + + + + X!9!U!Y!Z!b'a'u)`!K!o#+ o#    + m+m+g@g@m+m+| 8#:,R))@<.  ",
". +  ~j!.~<&t+B.| N+N+,@,@| N+N+m+N++ +~@~b'#~u)a'$~L)%~[!+ + | m+g@+ &~K)K)*~=~b'-~a'3!;~a#N+=-N+m+m+m+m+m+N+N+| | 8#X.o+` >~o#",
"  q+,~: ;$})t+| | m+m+m+m+m+| | m++ + '~)~!~~~{~]~^~L)[!+ + + | 1 m++ + 9!/~(~_~:~<~[~}~|~x$+ H@m+m+m+m+m+N+N+| 1~2~3~<)s'k !!o#",
"  + ,~4~;$})K@| | N+m+m+m+m+| | + + 5~6~7~8~9~0~a~b~c~d~+ m+m+m+m+m+m+e~9!L)f~g~h~i~j~8~k~l~+ + m+m+N+| | m+1 | m~n~o~p~q~q& +  ",
"!@+  ~: r~s~t~u~3 | | m+m+H@N++ v~w~x~y~z~A~/;B~C~D~E~F~+ m+m+m+m+m+N++ G~H~I~v~J~~;O&K~L~x~+ + + N+N+| | m+m+N+M~N~O~^%g=(.!!  ",
"  + P~4~r~^.Q~Y.N+8#f$| N+N++ E#R~S~T~U~K~O&A~V~w-W~X~Y~+ N+,@N+m+m+| + Z~`~W~ {.{A~A~K~+{@{#{${E#+ N+| | | m+| | | | X.%{)@<.  ",
"  q+&{*{k (.={u.-{;{;{>{>{,{+ $$'{){!{x~~{O&A~l-{{]{^{^{+ R >{>{>{R >{+ /{({_{:{K~<{O&~{[{!{){}{$$+ >{|{1{>{>{2{2{>{>{3{4{)@x.o#",
"  5{6{)@)@k k q&q&q&)@q&q&q&+ $$7{8{9{0{a{a{a{0{b{b{c{d{+ q&q&q&q&q&q&+ P e{f{g{a{0{a{h{i{j{0{k{g$+ @+q&q&q&q&q&q&k k k k Z x.o#",
"    l{m{m{n{n{m{m{m{m{n{n{m{+ + o{p{q{q{r{r{r{r{s{t{u{v{+ n{m{m{m{w{w{+ v{x{y{z{A{A{r{A{p{p{B{C{+ + n{n{m{m{m{m{m{m{m{n{D{m{E{  ",
"                                .                         o#    o#o#o#                            o#o#    o#        o#          "};
