/* XPM */
static char * mario_top_64_xpm[] = {
"64 64 1261 2",
"  	c #010101",
". 	c #000101",
"+ 	c #000000",
"@ 	c #000100",
"# 	c #583A24",
"$ 	c #5A3A23",
"% 	c #5A3923",
"& 	c #5B3923",
"* 	c #5B3A23",
"= 	c #5B3A22",
"- 	c #5B3922",
"; 	c #4A0E0F",
"> 	c #490E0F",
", 	c #4A0E10",
"' 	c #5A3922",
") 	c #462B19",
"! 	c #2B190E",
"~ 	c #1B1008",
"{ 	c #9C5F34",
"] 	c #A15F31",
"^ 	c #A16032",
"/ 	c #A06031",
"( 	c #A16031",
"_ 	c #A26130",
": 	c #A36131",
"< 	c #A36031",
"[ 	c #A26030",
"} 	c #A26031",
"| 	c #A26131",
"1 	c #A36130",
"2 	c #400A0D",
"3 	c #680915",
"4 	c #780F1A",
"5 	c #991C1F",
"6 	c #A6201D",
"7 	c #A5201E",
"8 	c #981B1E",
"9 	c #790F1A",
"0 	c #690915",
"a 	c #41090D",
"b 	c #A16030",
"c 	c #A25F31",
"d 	c #A15F30",
"e 	c #A15E31",
"f 	c #A05E32",
"g 	c #7B4825",
"h 	c #532F18",
"i 	c #382111",
"j 	c #000001",
"k 	c #9C5F35",
"l 	c #A15E32",
"m 	c #8D532C",
"n 	c #8C532C",
"o 	c #8C532B",
"p 	c #8D522B",
"q 	c #8D542B",
"r 	c #8D542C",
"s 	c #8C542B",
"t 	c #8D532B",
"u 	c #8B542B",
"v 	c #8B542C",
"w 	c #231010",
"x 	c #38090D",
"y 	c #540E14",
"z 	c #7A141C",
"A 	c #B21926",
"B 	c #B31A26",
"C 	c #D22729",
"D 	c #E72E27",
"E 	c #E62D28",
"F 	c #E62D27",
"G 	c #D32728",
"H 	c #B31926",
"I 	c #79151C",
"J 	c #530E14",
"K 	c #220E0F",
"L 	c #8C532A",
"M 	c #8C522B",
"N 	c #734323",
"O 	c #533019",
"P 	c #371F10",
"Q 	c #9D5F35",
"R 	c #A05F31",
"S 	c #573018",
"T 	c #532E18",
"U 	c #522E18",
"V 	c #522F19",
"W 	c #522E19",
"X 	c #020202",
"Y 	c #030101",
"Z 	c #5A1416",
"` 	c #8E101E",
" .	c #A31023",
"..	c #B01826",
"+.	c #E62F29",
"@.	c #E62F28",
"#.	c #E62E29",
"$.	c #E72F27",
"%.	c #E62E28",
"&.	c #B01926",
"*.	c #A41023",
"=.	c #5A1317",
"-.	c #030201",
";.	c #522E17",
">.	c #522F18",
",.	c #522E16",
"'.	c #522F17",
").	c #512E16",
"!.	c #532F1A",
"~.	c #371F11",
"{.	c #9D6034",
"].	c #563017",
"^.	c #63341B",
"/.	c #65351B",
"(.	c #6F4123",
"_.	c #704224",
":.	c #704223",
"<.	c #6F4223",
"[.	c #43050C",
"}.	c #970F20",
"|.	c #9A1020",
"1.	c #CC2424",
"2.	c #DD2A25",
"3.	c #DF2B27",
"4.	c #E62F27",
"5.	c #E72E28",
"6.	c #E72F29",
"7.	c #E72F28",
"8.	c #DD2925",
"9.	c #CC2325",
"0.	c #9B1021",
"a.	c #960E1F",
"b.	c #40040A",
"c.	c #6F4224",
"d.	c #704122",
"e.	c #6A3B1E",
"f.	c #66351B",
"g.	c #67351A",
"h.	c #5C311A",
"i.	c #512F19",
"j.	c #351F11",
"k.	c #9D5F34",
"l.	c #803D1F",
"m.	c #853E1E",
"n.	c #A36132",
"o.	c #590A14",
"p.	c #880F1E",
"q.	c #CE2629",
"r.	c #DE2A27",
"s.	c #E62D29",
"t.	c #E72E29",
"u.	c #DE2B27",
"v.	c #CD2628",
"w.	c #A21022",
"x.	c #880E1E",
"y.	c #955028",
"z.	c #883E1E",
"A.	c #853D1E",
"B.	c #6D361B",
"C.	c #361F11",
"D.	c #9F5F31",
"E.	c #573118",
"F.	c #532E17",
"G.	c #8A4825",
"H.	c #8E4825",
"I.	c #010202",
"J.	c #510A12",
"K.	c #83101E",
"L.	c #A91323",
"M.	c #BD1E26",
"N.	c #E62E27",
"O.	c #E72D28",
"P.	c #E52D2A",
"Q.	c #BE1E26",
"R.	c #A81323",
"S.	c #820F1D",
"T.	c #520B13",
"U.	c #020203",
"V.	c #B16B38",
"W.	c #B9713B",
"X.	c #AB6735",
"Y.	c #98542B",
"Z.	c #8E4724",
"`.	c #874221",
" +	c #6B361B",
".+	c #543019",
"++	c #382011",
"@+	c #532E16",
"#+	c #020102",
"$+	c #0D0101",
"%+	c #930F20",
"&+	c #A61022",
"*+	c #B51822",
"=+	c #E72D26",
"-+	c #E72D27",
";+	c #E52D27",
">+	c #B41821",
",+	c #A71022",
"'+	c #921020",
")+	c #0C0101",
"!+	c #020101",
"~+	c #D68647",
"{+	c #EF9951",
"]+	c #C47A40",
"^+	c #A46031",
"/+	c #935028",
"(+	c #6E371C",
"_+	c #361E11",
":+	c #010000",
"<+	c #573017",
"[+	c #522E15",
"}+	c #9F5F32",
"|+	c #B56F39",
"1+	c #B76F3A",
"2+	c #A56333",
"3+	c #1F0203",
"4+	c #9F1224",
"5+	c #A21023",
"6+	c #CC2527",
"7+	c #E52E28",
"8+	c #E52D28",
"9+	c #E42E28",
"0+	c #CA2327",
"a+	c #9E1224",
"b+	c #CA7F43",
"c+	c #E08E4B",
"d+	c #BD743D",
"e+	c #A46131",
"f+	c #A36232",
"g+	c #935027",
"h+	c #6D371B",
"i+	c #381F10",
"j+	c #A05F32",
"k+	c #EB9751",
"l+	c #F09951",
"m+	c #AE6936",
"n+	c #1D0203",
"o+	c #A31124",
"p+	c #CF2628",
"q+	c #E02B28",
"r+	c #CF2627",
"s+	c #1E0102",
"t+	c #A46132",
"u+	c #A46033",
"v+	c #532F19",
"w+	c #010100",
"x+	c #563018",
"y+	c #A36033",
"z+	c #AF6534",
"A+	c #B06633",
"B+	c #E08E4D",
"C+	c #E4904D",
"D+	c #AC6735",
"E+	c #41060D",
"F+	c #750A18",
"G+	c #DB2928",
"H+	c #DA2A27",
"I+	c #A31024",
"J+	c #740A18",
"K+	c #41070C",
"L+	c #A46032",
"M+	c #A36032",
"N+	c #A45F33",
"O+	c #D5783B",
"P+	c #D87A3A",
"Q+	c #A96332",
"R+	c #660D17",
"S+	c #A51023",
"T+	c #B61926",
"U+	c #DD2A27",
"V+	c #B51A25",
"W+	c #650C16",
"X+	c #A46030",
"Y+	c #6C371B",
"Z+	c #371F12",
"`+	c #9F5F33",
" @	c #CB743A",
".@	c #CE7539",
"+@	c #A86332",
"@@	c #4A0D10",
"#@	c #7E121C",
"$@	c #A81222",
"%@	c #7B121B",
"&@	c #4A0C0E",
"*@	c #AA6432",
"=@	c #AE6633",
"-@	c #6C361B",
";@	c #7D0C1B",
">@	c #A21124",
",@	c #A91222",
"'@	c #E52E27",
")@	c #A81223",
"!@	c #A11124",
"~@	c #7C0B1A",
"{@	c #C57036",
"]@	c #D8793A",
"^@	c #BB6C35",
"/@	c #A36231",
"(@	c #934F27",
"_@	c #372011",
":@	c #020201",
"<@	c #810B1B",
"[@	c #A51124",
"}@	c #A91122",
"|@	c #E82D26",
"1@	c #E52D29",
"2@	c #C06E36",
"3@	c #D07639",
"4@	c #B66A34",
"5@	c #934F28",
"6@	c #9C6034",
"7@	c #820C1C",
"8@	c #A51024",
"9@	c #AA1122",
"0@	c #E52C27",
"a@	c #AA1223",
"b@	c #A41124",
"c@	c #A46232",
"d@	c #945027",
"e@	c #362010",
"f@	c #9C6135",
"g@	c #9F6032",
"h@	c #573117",
"i@	c #532E15",
"j@	c #810C1C",
"k@	c #AB1123",
"l@	c #E42D28",
"m@	c #DF2B28",
"n@	c #E02C29",
"o@	c #E02C28",
"p@	c #DF2C29",
"q@	c #DF2C28",
"r@	c #AB1223",
"s@	c #AC6836",
"t@	c #B26C38",
"u@	c #AA6635",
"v@	c #925027",
"w@	c #381F11",
"x@	c #532F15",
"y@	c #A26231",
"z@	c #A81122",
"A@	c #DD2A26",
"B@	c #A41022",
"C@	c #A41024",
"D@	c #A30F23",
"E@	c #DE2C25",
"F@	c #E62E26",
"G@	c #D58547",
"H@	c #F29C52",
"I@	c #CB8043",
"J@	c #563016",
"K@	c #820B1B",
"L@	c #A61124",
"M@	c #DE2C28",
"N@	c #C62226",
"O@	c #B31824",
"P@	c #BA1C25",
"Q@	c #DA2B26",
"R@	c #D92926",
"S@	c #DA2926",
"T@	c #DB2A26",
"U@	c #DB2926",
"V@	c #D92A27",
"W@	c #B81C25",
"X@	c #B31924",
"Y@	c #C72227",
"Z@	c #DE2C27",
"`@	c #B41A25",
" #	c #A61023",
".#	c #820B1A",
"+#	c #CE8144",
"@#	c #E7934E",
"##	c #C37A40",
"$#	c #945028",
"%#	c #9C6035",
"&#	c #640B15",
"*#	c #931120",
"=#	c #C21F25",
"-#	c #D72827",
";#	c #C72023",
">#	c #C72126",
",#	c #C92326",
"'#	c #CF2527",
")#	c #E42D27",
"!#	c #CD2427",
"~#	c #C82226",
"{#	c #C62125",
"]#	c #C22025",
"^#	c #A40F23",
"/#	c #92101F",
"(#	c #630B13",
"_#	c #010201",
":#	c #9F6031",
"<#	c #74111A",
"[#	c #A61024",
"}#	c #C32127",
"|#	c #D92A28",
"1#	c #D82928",
"2#	c #D72925",
"3#	c #D62826",
"4#	c #D82A29",
"5#	c #392012",
"6#	c #9E6031",
"7#	c #AC6835",
"8#	c #600C17",
"9#	c #A61125",
"0#	c #E4302A",
"a#	c #E42F2A",
"b#	c #A41224",
"c#	c #600C15",
"d#	c #6D371C",
"e#	c #9B6035",
"f#	c #573119",
"g#	c #532F16",
"h#	c #EC9550",
"i#	c #F19951",
"j#	c #090302",
"k#	c #240203",
"l#	c #A61123",
"m#	c #C22024",
"n#	c #C11F24",
"o#	c #A70F22",
"p#	c #240103",
"q#	c #080302",
"r#	c #532F17",
"s#	c #E7924F",
"t#	c #EC944F",
"u#	c #AB6634",
"v#	c #A88473",
"w#	c #916246",
"x#	c #120202",
"y#	c #7A131C",
"z#	c #9F1123",
"A#	c #AF1725",
"B#	c #BC1E26",
"C#	c #E02C27",
"D#	c #BD1F27",
"E#	c #BD1E27",
"F#	c #AE1625",
"G#	c #A11122",
"H#	c #78121C",
"I#	c #130102",
"J#	c #8F6145",
"K#	c #A88372",
"L#	c #BA8D6D",
"M#	c #CB956E",
"N#	c #8A6047",
"O#	c #4A0E11",
"P#	c #730E1A",
"Q#	c #85101E",
"R#	c #971020",
"S#	c #C92327",
"T#	c #CE2527",
"U#	c #CF2528",
"V#	c #C82326",
"W#	c #961020",
"X#	c #850F1D",
"Y#	c #750E1B",
"Z#	c #4A0E12",
"`#	c #895E46",
" $	c #CB946E",
".$	c #BB8D6C",
"+$	c #C5A180",
"@$	c #EEB990",
"#$	c #D28F67",
"$$	c #180C08",
"%$	c #441010",
"&$	c #630E15",
"*$	c #950F20",
"=$	c #990F21",
"-$	c #A01023",
";$	c #960F21",
">$	c #620F15",
",$	c #42100F",
"'$	c #160A06",
")$	c #D39068",
"!$	c #EEB98F",
"~$	c #C5A17F",
"{$	c #9E5F32",
"]$	c #563118",
"^$	c #533016",
"/$	c #C5A383",
"($	c #D28D62",
"_$	c #462415",
":$	c #31170C",
"<$	c #840E1D",
"[$	c #A51225",
"}$	c #820D1C",
"|$	c #30160D",
"1$	c #462214",
"2$	c #D28F64",
"3$	c #A26232",
"4$	c #A66331",
"5$	c #A86431",
"6$	c #A56331",
"7$	c #924F27",
"8$	c #542F18",
"9$	c #382010",
"0$	c #C6A384",
"a$	c #EEB78C",
"b$	c #D28D63",
"c$	c #442314",
"d$	c #472414",
"e$	c #462314",
"f$	c #432213",
"g$	c #3E1513",
"h$	c #3F0A10",
"i$	c #400A11",
"j$	c #3F0A0F",
"k$	c #3F0910",
"l$	c #400A10",
"m$	c #400910",
"n$	c #400A0F",
"o$	c #3E0910",
"p$	c #3D1613",
"q$	c #442213",
"r$	c #452314",
"s$	c #482415",
"t$	c #442214",
"u$	c #D38E64",
"v$	c #EEB78D",
"w$	c #A46231",
"x$	c #D38446",
"y$	c #F09A51",
"z$	c #C97D41",
"A$	c #6E371B",
"B$	c #A56131",
"C$	c #B88765",
"D$	c #E4A77C",
"E$	c #65341D",
"F$	c #69371F",
"G$	c #6B3920",
"H$	c #512715",
"I$	c #412115",
"J$	c #3A1D12",
"K$	c #391D13",
"L$	c #381D12",
"M$	c #391C12",
"N$	c #391D12",
"O$	c #391C13",
"P$	c #422215",
"Q$	c #522816",
"R$	c #6C3920",
"S$	c #6A371F",
"T$	c #64331C",
"U$	c #D38F67",
"V$	c #E4A67B",
"W$	c #B88763",
"X$	c #D28346",
"Y$	c #F09852",
"Z$	c #C97C41",
"`$	c #A7816C",
" %	c #C9875E",
".%	c #D48D63",
"+%	c #6E4933",
"@%	c #4F2F20",
"#%	c #5C301B",
"$%	c #763D21",
"%%	c #824424",
"&%	c #5E2F1A",
"*%	c #5C2F1A",
"=%	c #572C19",
"-%	c #4D2617",
";%	c #4D2615",
">%	c #4D2616",
",%	c #4C2516",
"'%	c #562B18",
")%	c #5D301A",
"!%	c #5E301A",
"~%	c #824425",
"{%	c #753D21",
"]%	c #4F3022",
"^%	c #6F4A34",
"/%	c #D58D63",
"(%	c #C9865D",
"_%	c #A7816A",
":%	c #A46130",
"<%	c #A56130",
"[%	c #A36030",
"}%	c #8B624B",
"|%	c #DD966A",
"1%	c #DB9468",
"2%	c #644634",
"3%	c #371C11",
"4%	c #7E4325",
"5%	c #7E4425",
"6%	c #7F4324",
"7%	c #6D391F",
"8%	c #4E2615",
"9%	c #4E2616",
"0%	c #4E2717",
"a%	c #4E2716",
"b%	c #4E2715",
"c%	c #4F2716",
"d%	c #6D3A1F",
"e%	c #804425",
"f%	c #7F4424",
"g%	c #5D311A",
"h%	c #361C10",
"i%	c #644738",
"j%	c #DB9469",
"k%	c #DD956A",
"l%	c #8B624A",
"m%	c #A66131",
"n%	c #A56031",
"o%	c #050201",
"p%	c #030202",
"q%	c #361C0E",
"r%	c #7D4324",
"s%	c #7F4425",
"t%	c #7E4426",
"u%	c #7D4325",
"v%	c #7D4225",
"w%	c #7E4324",
"x%	c #7F4427",
"y%	c #804424",
"z%	c #050302",
"A%	c #C37036",
"B%	c #D77939",
"C%	c #A56030",
"D%	c #2B150C",
"E%	c #4F2815",
"F%	c #7F4323",
"G%	c #814424",
"H%	c #6A371E",
"I%	c #6A371D",
"J%	c #7E4223",
"K%	c #7D4224",
"L%	c #69371E",
"M%	c #4E2816",
"N%	c #2A150C",
"O%	c #D67839",
"P%	c #BA6B35",
"Q%	c #EB9652",
"R%	c #EF9952",
"S%	c #F09953",
"T%	c #EF9853",
"U%	c #361B0F",
"V%	c #65351C",
"W%	c #92502B",
"X%	c #6E391F",
"Y%	c #592E1A",
"Z%	c #5E301B",
"`%	c #6D3A21",
" &	c #7F4223",
".&	c #7D4223",
"+&	c #7A4022",
"@&	c #6C381F",
"#&	c #7B4023",
"$&	c #7E4224",
"%&	c #5E2F1B",
"&&	c #592E1B",
"*&	c #6C391F",
"=&	c #92502C",
"-&	c #65331C",
";&	c #351A0F",
">&	c #ED9651",
",&	c #F29B53",
"'&	c #AB6734",
")&	c #33190F",
"!&	c #61341C",
"~&	c #945530",
"{&	c #4D2515",
"]&	c #492415",
"^&	c #582E1B",
"/&	c #8A4B29",
"(&	c #6B381E",
"_&	c #462213",
":&	c #452114",
"<&	c #6B371E",
"[&	c #7B4122",
"}&	c #814525",
"|&	c #8B4B29",
"1&	c #482414",
"2&	c #492515",
"3&	c #965530",
"4&	c #61341B",
"5&	c #31180D",
"6&	c #6D381C",
"7&	c #A76332",
"8&	c #EB9650",
"9&	c #F09A52",
"0&	c #AD6835",
"a&	c #200D08",
"b&	c #4C2716",
"c&	c #26140C",
"d&	c #653720",
"e&	c #A76136",
"f&	c #854928",
"g&	c #65331B",
"h&	c #412012",
"i&	c #412112",
"j&	c #65341C",
"k&	c #884A28",
"l&	c #A86136",
"m&	c #63371F",
"n&	c #2F170D",
"o&	c #26130D",
"p&	c #4C2715",
"q&	c #1F0E06",
"r&	c #020302",
"s&	c #6E381C",
"t&	c #542F19",
"u&	c #9F6033",
"v&	c #A26032",
"w&	c #EA9650",
"x&	c #882D34",
"y&	c #630712",
"z&	c #080403",
"A&	c #190E08",
"B&	c #190C07",
"C&	c #1E2A64",
"D&	c #222B62",
"E&	c #2C1910",
"F&	c #5D341E",
"G&	c #5A301B",
"H&	c #512917",
"I&	c #3F1F11",
"J&	c #3F1F13",
"K&	c #522918",
"L&	c #5C301C",
"M&	c #5E341E",
"N&	c #2A1810",
"O&	c #1F2B62",
"P&	c #1E2A63",
"Q&	c #1A0D08",
"R&	c #1A0E08",
"S&	c #070403",
"T&	c #620813",
"U&	c #8A2F35",
"V&	c #9D6035",
"W&	c #A86433",
"X&	c #A96433",
"Y&	c #7F0E1D",
"Z&	c #BE2124",
"`&	c #AB1A21",
" *	c #740F1A",
".*	c #1E2C64",
"+*	c #233683",
"@*	c #233780",
"#*	c #1F2A5F",
"$*	c #32190E",
"%*	c #4D1613",
"&*	c #7D0D1B",
"**	c #7C0D1B",
"=*	c #4C1613",
"-*	c #31180E",
";*	c #1E2A60",
">*	c #233681",
",*	c #233781",
"'*	c #1E2D66",
")*	c #010102",
"!*	c #740F1B",
"~*	c #AB1C21",
"{*	c #BD2123",
"]*	c #7C0E1C",
"^*	c #C37840",
"/*	c #944F27",
"(*	c #5E0C13",
"_*	c #C22029",
":*	c #E12E27",
"<*	c #C51F23",
"[*	c #8F1020",
"}*	c #010104",
"|*	c #2F499F",
"1*	c #2B469E",
"2*	c #2A4295",
"3*	c #233782",
"4*	c #520912",
"5*	c #5C0C14",
"6*	c #7A1219",
"7*	c #BE2026",
"8*	c #BF2026",
"9*	c #781119",
"0*	c #5B0C14",
"a*	c #530912",
"b*	c #233582",
"c*	c #2A4397",
"d*	c #2B479D",
"e*	c #2F4A9E",
"f*	c #010103",
"g*	c #901121",
"h*	c #DE2D27",
"i*	c #C12129",
"j*	c #5F0C14",
"k*	c #660A14",
"l*	c #A91120",
"m*	c #E42C27",
"n*	c #E73229",
"o*	c #C42025",
"p*	c #901021",
"q*	c #395DBF",
"r*	c #395CBA",
"s*	c #3854A8",
"t*	c #293778",
"u*	c #020411",
"v*	c #8C1223",
"w*	c #9E1425",
"x*	c #B41F26",
"y*	c #E0332B",
"z*	c #DF322B",
"A*	c #B31E26",
"B*	c #8E1222",
"C*	c #020413",
"D*	c #273677",
"E*	c #3753A7",
"F*	c #395DBB",
"G*	c #385DBC",
"H*	c #8F1222",
"I*	c #C32025",
"J*	c #680B14",
"K*	c #573218",
"L*	c #272827",
"M*	c #C12027",
"N*	c #B51924",
"O*	c #A71024",
"P*	c #395EBC",
"Q*	c #CEC599",
"R*	c #F7D567",
"S*	c #E2B148",
"T*	c #345DC0",
"U*	c #1B284D",
"V*	c #060201",
"W*	c #040100",
"X*	c #060202",
"Y*	c #1B284B",
"Z*	c #345DBF",
"`*	c #E7D782",
" =	c #F7CE56",
".=	c #CCA672",
"+=	c #375DBC",
"@=	c #8F1221",
"#=	c #B61A25",
"$=	c #C22026",
"%=	c #2A292A",
"&=	c #955128",
"*=	c #6F381C",
"==	c #292A2A",
"-=	c #AB1E1D",
";=	c #76181A",
">=	c #830E1D",
",=	c #911121",
"'=	c #395EC0",
")=	c #CBAA77",
"!=	c #F7C33D",
"~=	c #E5B346",
"{=	c #345CC0",
"]=	c #3356B1",
"^=	c #3153AE",
"/=	c #3053AD",
"(=	c #3053AC",
"_=	c #3155B1",
":=	c #325CBF",
"<=	c #E5BC5B",
"[=	c #F9C23B",
"}=	c #CCA26C",
"|=	c #385EBD",
"1=	c #921121",
"2=	c #74181A",
"3=	c #AA1F1D",
"4=	c #2A2A2A",
"5=	c #502F18",
"6=	c #351F10",
"7=	c #6C2127",
"8=	c #C32422",
"9=	c #E32C28",
"0=	c #CB2326",
"a=	c #581213",
"b=	c #641732",
"c=	c #192864",
"d=	c #375CBF",
"e=	c #978289",
"f=	c #B69266",
"g=	c #A98A73",
"h=	c #345CC3",
"i=	c #335CC5",
"j=	c #335CC4",
"k=	c #325CC4",
"l=	c #A98C76",
"m=	c #B79166",
"n=	c #98838A",
"o=	c #365CBD",
"p=	c #192862",
"q=	c #641630",
"r=	c #4F0811",
"s=	c #561414",
"t=	c #CA2426",
"u=	c #E32C29",
"v=	c #6D2126",
"w=	c #C3773E",
"x=	c #626364",
"y=	c #891622",
"z=	c #C32224",
"A=	c #DC2927",
"B=	c #D52826",
"C=	c #910F1F",
"D=	c #38070C",
"E=	c #0D142E",
"F=	c #172555",
"G=	c #29439A",
"H=	c #355CC5",
"I=	c #2E4DAA",
"J=	c #294397",
"K=	c #2C47A0",
"L=	c #335CC6",
"M=	c #294296",
"N=	c #355DC5",
"O=	c #2A4298",
"P=	c #172554",
"Q=	c #0C132D",
"R=	c #37070C",
"S=	c #920F1F",
"T=	c #D42827",
"U=	c #DB2A28",
"V=	c #C12124",
"W=	c #891823",
"X=	c #72381C",
"Y=	c #562F18",
"Z=	c #3A2111",
"`=	c #606062",
" -	c #C7CACD",
".-	c #212222",
"+-	c #850D1C",
"@-	c #981122",
"#-	c #1C2C68",
"$-	c #28439A",
"%-	c #1B2B65",
"&-	c #991223",
"*-	c #840D1B",
"=-	c #262626",
"--	c #5F6061",
";-	c #CD8043",
">-	c #E6914B",
",-	c #C4793F",
"'-	c #965128",
")-	c #6F371B",
"!-	c #7A7A7A",
"~-	c #FBFBFB",
"{-	c #F2F3F2",
"]-	c #9C9999",
"^-	c #200103",
"/-	c #200203",
"(-	c #223272",
"_-	c #2E4CA3",
":-	c #355CC4",
"<-	c #325CC3",
"[-	c #2E4BA1",
"}-	c #243372",
"|-	c #200303",
"1-	c #9C999A",
"2-	c #F2F2F1",
"3-	c #FBFCFC",
"4-	c #7B7B7B",
"5-	c #D48546",
"6-	c #512D18",
"7-	c #9A9C9D",
"8-	c #A8ABAD",
"9-	c #C4C6C7",
"0-	c #F9FAFA",
"a-	c #DFDFDF",
"b-	c #B9BBBB",
"c-	c #959999",
"d-	c #23347A",
"e-	c #2F4FAC",
"f-	c #345CC5",
"g-	c #325BC4",
"h-	c #2F4EAB",
"i-	c #243578",
"j-	c #989B9C",
"k-	c #BABBBB",
"l-	c #DEDEDE",
"m-	c #FAFBFB",
"n-	c #C3C6C8",
"o-	c #9C9D9E",
"p-	c #B26B37",
"q-	c #A96533",
"r-	c #954F28",
"s-	c #72381B",
"t-	c #542F16",
"u-	c #949597",
"v-	c #B2B3B5",
"w-	c #D8DADC",
"x-	c #C4C6C8",
"y-	c #E9EAEB",
"z-	c #EBECED",
"A-	c #D7D9DB",
"B-	c #A7ABAD",
"C-	c #23347D",
"D-	c #304FAB",
"E-	c #335BC5",
"F-	c #304EAA",
"G-	c #24367B",
"H-	c #A9ACAF",
"I-	c #D8DADB",
"J-	c #EBEDED",
"K-	c #EAEBEC",
"L-	c #D9DBDC",
"M-	c #B1B3B3",
"N-	c #959697",
"O-	c #522F16",
"P-	c #B9BCBE",
"Q-	c #E4E6E6",
"R-	c #FFFFFF",
"S-	c #D0D3D4",
"T-	c #C6CACD",
"U-	c #B1B5B8",
"V-	c #888B8F",
"W-	c #22357B",
"X-	c #2F4EA8",
"Y-	c #345BC3",
"Z-	c #345BC2",
"`-	c #2F4DA7",
" ;	c #24357B",
".;	c #8A8D90",
"+;	c #B0B5B7",
"@;	c #C6CACC",
"#;	c #D0D3D5",
"$;	c #E4E5E6",
"%;	c #BABCBD",
"&;	c #512E17",
"*;	c #351E10",
"=;	c #E7E7E7",
"-;	c #FFFFFE",
";;	c #B1B3B4",
">;	c #919498",
",;	c #BDC0C3",
"';	c #23357B",
");	c #263C8D",
"!;	c #28449B",
"~;	c #335DC5",
"{;	c #28449A",
"];	c #253C8D",
"^;	c #BDC2C4",
"/;	c #8B9092",
"(;	c #ADAEAE",
"_;	c #FEFEFE",
":;	c #6F371C",
"<;	c #808080",
"[;	c #9FA2A5",
"};	c #9A9D9F",
"|;	c #263B8C",
"1;	c #273D8F",
"2;	c #284397",
"3;	c #345DC5",
"4;	c #284498",
"5;	c #263E8E",
"6;	c #253B8B",
"7;	c #233579",
"8;	c #5D5F60",
"9;	c #A0A2A4",
"0;	c #372010",
"a;	c #E7E6E6",
"b;	c #F1F1F1",
"c;	c #AFAFAF",
"d;	c #191919",
"e;	c #9C9EA1",
"f;	c #9C9FA1",
"g;	c #21337A",
"h;	c #263C8C",
"i;	c #2D4DA8",
"j;	c #2C4CA8",
"k;	c #2C4DA9",
"l;	c #2D4FAC",
"m;	c #2D4EAD",
"n;	c #2C4CA9",
"o;	c #2E4DA8",
"p;	c #213379",
"q;	c #9DA0A2",
"r;	c #9DA0A1",
"s;	c #171817",
"t;	c #AEAEAE",
"u;	c #A06032",
"v;	c #D5D5D5",
"w;	c #EDEEEE",
"x;	c #E2E2E3",
"y;	c #606163",
"z;	c #454749",
"A;	c #909395",
"B;	c #9FA1A2",
"C;	c #1C2B65",
"D;	c #253C8C",
"E;	c #284193",
"F;	c #3156B7",
"G;	c #3157B8",
"H;	c #3157B9",
"I;	c #3156B8",
"J;	c #3156B9",
"K;	c #3257BA",
"L;	c #3157BA",
"M;	c #3256B7",
"N;	c #294195",
"O;	c #1B2B63",
"P;	c #A0A2A3",
"Q;	c #919395",
"R;	c #606262",
"S;	c #E2E2E2",
"T;	c #EDEEED",
"U;	c #C9CCCE",
"V;	c #909599",
"W;	c #5B5E60",
"X;	c #1C2C65",
"Y;	c #263D8C",
"Z;	c #263B8B",
"`;	c #253C8B",
" >	c #253D8C",
".>	c #263D8D",
"+>	c #253D8D",
"@>	c #1C2A62",
"#>	c #5D5E61",
"$>	c #919599",
"%>	c #C8CCCD",
"&>	c #C9CCCD",
"*>	c #898B8C",
"=>	c #9E6135",
"->	c #573217",
";>	c #090A09",
">>	c #080908",
",>	c #060908",
"'>	c #182A5C",
")>	c #365CC1",
"!>	c #243D8F",
"~>	c #01040D",
"{>	c #22367E",
"]>	c #22367F",
"^>	c #223883",
"/>	c #253D90",
"(>	c #355CC1",
"_>	c #182A5A",
":>	c #070808",
"<>	c #080909",
"[>	c #362011",
"}>	c #9F6136",
"|>	c #17295A",
"1>	c #2F52B4",
"2>	c #2F52B3",
"3>	c #2D4AA3",
"4>	c #253A86",
"5>	c #1E2F70",
"6>	c #1A2551",
"7>	c #16214D",
"8>	c #16224D",
"9>	c #17214D",
"0>	c #16214E",
"a>	c #17214E",
"b>	c #1B2551",
"c>	c #1E3071",
"d>	c #243A88",
"e>	c #2D4AA5",
"f>	c #3053B3",
"g>	c #2E53B3",
"h>	c #172858",
"i>	c #BB723C",
"j>	c #99542B",
"k>	c #934A26",
"l>	c #9C582D",
"m>	c #A16132",
"n>	c #121F42",
"o>	c #2C4998",
"p>	c #3155B7",
"q>	c #2C489F",
"r>	c #263A8B",
"s>	c #2C48A1",
"t>	c #3255B8",
"u>	c #345CC4",
"v>	c #2C4897",
"w>	c #C4773F",
"x>	c #954E28",
"y>	c #8A3E20",
"z>	c #99532B",
"A>	c #965028",
"B>	c #71381C",
"C>	c #583117",
"D>	c #552F16",
"E>	c #8D4926",
"F>	c #904A25",
"G>	c #2B1912",
"H>	c #3455AE",
"I>	c #2F53B0",
"J>	c #3054B3",
"K>	c #2F51AC",
"L>	c #223580",
"M>	c #23367F",
"N>	c #2F51AD",
"O>	c #3154B3",
"P>	c #3054B1",
"Q>	c #2B1913",
"R>	c #2A1910",
"S>	c #9F5C2F",
"T>	c #9D592E",
"U>	c #A05E2F",
"V>	c #9E6136",
"W>	c #833D20",
"X>	c #5C321C",
"Y>	c #7B4224",
"Z>	c #7A4326",
"`>	c #7B4325",
" ,	c #7A4224",
".,	c #5A311C",
"+,	c #70371C",
"@,	c #6E4326",
"#,	c #704324",
"$,	c #724324",
"%,	c #724424",
"&,	c #724323",
"*,	c #734324",
"=,	c #724423",
"-,	c #734424",
";,	c #714D3F",
">,	c #90532F",
",,	c #A05D34",
"',	c #7C4225",
"),	c #6F3C21",
"!,	c #6D3B20",
"~,	c #6D3A20",
"{,	c #6E3B20",
"],	c #6C3A20",
"^,	c #291810",
"/,	c #6C3B20",
"(,	c #6E3B21",
"_,	c #6D3B21",
":,	c #6F3C20",
"<,	c #7C4224",
"[,	c #A15E35",
"},	c #90522D",
"|,	c #714C3E",
"1,	c #734423",
"2,	c #724223",
"3,	c #724322",
"4,	c #6C3C1E",
"5,	c #5D3219",
"6,	c #010001",
"7,	c #502F1A",
"8,	c #6C3B21",
"9,	c #894C2A",
"0,	c #8C4F2C",
"a,	c #794123",
"b,	c #7A4123",
"c,	c #7B4123",
"d,	c #784023",
"e,	c #27150D",
"f,	c #27160F",
"g,	c #64341C",
"h,	c #8C4E2C",
"i,	c #2C1B11",
"j,	c #2D1A0E",
"k,	c #2D1A0F",
"l,	c #2C1A0E",
"m,	c #705044",
"n,	c #66371E",
"o,	c #68381F",
"p,	c #65371E",
"q,	c #67371F",
"r,	c #61341D",
"s,	c #422013",
"t,	c #2E1A0E",
"u,	c #422012",
"v,	c #62351D",
"w,	c #67381F",
"x,	c #65371F",
"y,	c #2D190E",
"z,	c #1D1009",
"        .                                               +           . + +     . .                   + + .     + + +     + + +   ",
"@ + # $ % & & * = * * * * * & - = * - % - * = * = + + + + ; > , ; , , + + + + % & ' ' = * % ' * - ' - ' = = - ' & % ' - ) ! ~   ",
"@ + { ] ] ^ / ( _ : < : : : [ [ [ [ } ( ( | 1 + + + 2 3 4 5 6 7 7 6 8 9 0 a + + + / b b _ ( } _ [ b [ b [ [ [ c d e e f g h i   ",
"j + k l m n o p m q q r q q s o t t u v + + + w x y z A B C D E E F G H A I J x K + + o o n n q L o o s o L L L M M p n N O P   ",
"  + Q R S T U U U V V V V U U W U U U U + X Y Z `  ...+.@.+.#.$.%.E E E E &.*.` =.-.+ + ;.U >.V U >.U ,.;.U U ;.'.U ).;.>.!.~.  ",
"  + {.R ].;.^./.(.(._.:.:.:.<.<.<.:.:.+ + [.}.|.1.2.3.4.$.5.6.7.4.7.%.E E 3.8.9.0.a.b.+ + :.<.c.:.<.:.:.d.:.:.:.:.e.f.g.h.i.j.  ",
"  + k.R S ;.l.m.} : : : : [ | | n.: + + o.p. .q.r.E E E D s.%.#.t.5.%.7.E E F u.v.w.x.o.+ + + n.: : : : : n.: : : y.z.A.B.O C.  ",
"  + {.D.E.F.G.H.} : n.: : : : n.+ + I.J.K.L.M.+.$.N.E O.E E $.7.t.%.%.%.E E %.E P.Q.R.S.T.U.+ + V.W.X.: : : : : : Y.Z.`. +.+++  ",
"+ + {.R S @+f : : : : : : n.: n.+ #+$+%+&+*+7.$.=+E E -+-+-+N.D %.%.E E E E t.E E ;+>+,+'+)+!++ ~+{+]+: : : ^+: : : : /+(+V _+  ",
"  :+{.R <+[+}+: : : : : |+1+2+: + 3+4+5+6+E N.7+8+E E 8+%.E E 8+8+8+E E 8+%.%.F %.7+9+0+5+a+3++ b+c+d+: : : e+n.f+f+| g+h+h i+  ",
"  :+{.R ].[+j+: n.n.: e+k+l+m++ + n+o+p+q+E @.#.E E %.E 8+E E 8+E E E %.8+E E ;+%.%.E q+r+o+s++ + < ^+: : e+t+u+t+: | g+h+v+++  ",
"w++ {.R x+,.j+^+y+y+z+A+B+C+D++ E+F+o+G+E F N.E E E E E E E E E s.s.E E E s.E E E s.E E H+I+J+K++ : : : e+^+^+u+L+: : /+h+V C.  ",
"w+:+k.R x+;.}+: M+N+O+P+Q+: + + R+S+T+U+E E 5.%.E E E E E E 8+D E E 8+E E -+E E s.E E F U+V+*.W++ + : : e+X+^+u+L+: : /+Y+v+Z+  ",
"  + k.R x+;.`+: n.y+ @.@+@: + @@#@$@#.#.8+E s.%.E E E E %.%.E %.%.E =+8+%.8+%.E E %.N.E 8+9+$@%@&@+ *@=@+@e+e+e+e+: : g+-@V ~.  ",
"  + k.R ].@+}+: : : : | | : + ;@>@,@@.7.E E 8+D E E E '@$.%.E %.4.8+E E 8+8+E E %.@.5.E %.9+)@!@~@+ {@]@^@: : /@: : : (@Y+>._@:@",
"  + {.R x+;.}+| : : : : : : + <@[@}@@.s.E E E |@E E E %.E s.E %.8+E E E E E E E E 5.E E E 1@,@ .<@+ 2@3@4@: : : : : : 5@h+.+++  ",
"+ + 6@R ].,.}+: : : : : : : + 7@8@9@1@s.E %.s.E E -+E E 8+8+E E F F 8+%.s.s.0@-+E E E E t.s.a@b@<@+ : : : f+c@: : : : d@(+v+e@. ",
". + f@g@h@i@}+: : M+: : : : + j@8@k@l@;+%.%.#.E E E l@m@n@o@p@m@o@q@q@n@n@'@%.E E E E 7+t.'@r@b@<@+ e+e+: e+s@t@u@t+: v@Y+v+w@  ",
"  + 6@R h@x@}+| : : y@f+/@: + 7@[@z@7+#.#.%.6.%.7+E A@B@*.8@C@D@*.b@8@b@*.E@F@E E %.%.7.N.'@L.b@<@+ : ^+^+: G@H@I@y@| v@-@v+w@  ",
"  + {.R J@[+}+: : : f+: : : + K@b@L@V+M@E t.@.%.N@O@P@Q@R@R@S@T@T@U@H+V@V@W@X@Y@%.7+$.N.Z@`@ # ..#+ : ^+^+: +#@###/@c@$#h+V j.  ",
"w++ %#D.<+i@}+: : t+: : : n.+ &#*#8@C@=#-#N.7+;#>#,#'#8+)#'@N.;+F E N.N.'@!#~#{#;#7+N.-#]#8@^#/#(#+ : : : : : < : : : /+h+V ~._#",
"+ + f@:#].,.}+: : : : : : : + + <#8@[#*.}#|#1#*+2#4.E E N.N.E E 5.E N.$.N.N.)#3#*+4#|#}#*.8@C@<#+ + : e+e+: y+: n.: : g+Y+v+5#  ",
"  + f@6#x+F.}+: : : D+7#/@: : + 8#9#b@[@8@8@*.0#4.7+E %.@.N.#.5.E 7+E N.4.N.4.7+a#*.[@[@8@b@b#c#+ f+: ^+^+L+y+n.n.n.: g+d#v+~.  ",
"  + e#:#f#g#}+: : : h#i#D+^+^++ j#k#>@[@8@8@[@l#,+m#)#8+%.6.t.8+8+E E E $.7+n#o#&+C@8@8@8@>@p#q#+ : ^+^+^+e+e+: : : : /+d#V C.  ",
"@ + e#D.x+r#g@: : M+s#t#u#^++ v#w#x#y#z#C@C@[@8@8@A#B#B#C#;+E 7+E 8+8+o@D#E#F#*.b@8@8@8@G#H#I#J#K#+ : e+L+L+L+^+^+: : (@d#V _@_#",
"@ + %#}+x+h g@: : : 1 1 : e++ L#M#N#O#P#Q#R#C@8@8@8@8@8@S#T#U#T#'#'#T#V#8@8@C@b@C@8@W#X#Y#Z#`# $.$+ : : n.t+^+^+^+: : (@h+v+++  ",
"w++ { D.E.r#}+: : : : : : : + +$@$#$+ $$%$&$*$=$-$8@8@8@8@b@8@8@8@8@8@8@8@[@b@z#=$;$>$,$'$:+)$!$~$+ n.: : f+: : ^+e+: g+h+V ~.  ",
"  :+k {$]$^$}+: : : : : : : + /$!$($  _$:$  !+  <$8@8@C@[@[@8@8@b@[@8@S+8@b@[$}$  :@  |$1$!+2$!$/$+ ^+: : : : 3$4$5$6$7$h+8$9$  ",
"  + { D.E.g#}+: : : : : e+e++ 0$a$b$:@c$d$e$f$f$g$h$h$i$j$j$k$l$h$m$k$n$h$h$o$p$q$f$r$s$t$:@u$v$0$+ ^+e+^+e+w$: x$y$z$(@A$h C.  ",
"  + 6@R E.@+}+: n.L+B$L+L+^++ C$D$#$  t$E$F$G$H$I$J$K$L$M$N$N$O$M$M$M$N$L$N$J$P$Q$R$S$T$f$!+U$V$W$+ ^+^+^+^+: : X$Y$Z$$#A$V ~.  ",
"+ + {.R E.@+}+: t+t+^+e+: ^++ `$ %.%+%@%#%$%%%&%*%=%-%;%>%-%-%-%-%-%-%>%-%,%'%)%!%~%{%#%]%^%/%(%_%+ : _ : ^+^+< :%<%[%(@Y+v+~.  ",
"w++ %#D.E.@+}+: : ^+^+: : t+^++ }%|%1%2%3%*%4%5%6%7%8%9%0%a%9%9%a%a%b%c%a%9%d%e%6%f%g%h%i%j%k%l%+ : : : e+m%n%^+: : | 5@(+!.~.  ",
"w++ %#g@S F.}+: : t+t+n.: : ^+^++ o%Y X p%q%6%f%r%6%s%5%t%u%v%r%u%u%u%w%t%x%t%w%y%5%q%p%X Y z%+ : : : : A%B%^@e+: : | /+d#v+_@  ",
"  + %#g@S F.}+: :%<%B$C%: : : : : + + + D%E%F%G%H%I%w%4%4%4%J%K%K%w%4%w%s%4%H%L%G%s%M%N%+ + + + ^+^+: : A%O%P%^+e+: : (@(+v+~.  ",
"  :+%#g@x+@+}+1 Q%R%S%T%X.n.: n.L+L+: + U%V%W%X%Y%Z%`% &J%.&+&@&@&#&J%$&J%R$%&&&*&=&-&;&+ ^+^+^+^+^+^+: e+<%e+t+e+: : g+d#V C.  ",
"  + 6@D.h@g#}+[%>&,&i#l+'&< ^+^+^+L+^++ )&!&~&{&]&s$^&/&G%+&(&_&:&<&[&}&|&Y%1&2&;%3&4&5&+ ^+^+< e+e+e+: : c@: n.^+: : g+6&v+Z+  ",
"  + 6@:#h@^$}+: 7&+@8&9&0&^+^+^+^+^+^++ X a&b&M%c&5&d&e&f&g&h&    i&j&k&l&m&n&o&c%p&q&r&+ ^+: : y@: : f+: : : : : | | /+s&t&~.  ",
"  + %#:#]$r#u&: | v&w&{+D+: : : : + + x&y&z&A&B&C&D&E&F&G&H&I&    J&K&L&M&N&O&P&Q&R&S&T&U&+ + 1 : : : : e+: /@y@n.: | $#s&V ~.X ",
"+ + V&}+f#r#g@| : : W&X&e+^+: : + + Y&Z&`& *  .*+*@*#*$*n&n&%*&***=*n&n&-*;*>*,*'*)*!*~*{*]*+ + ^*: : t+t+e+: : : ^+: /*(+V _@_#",
"@ + %#D.h@g#}+: n.M+^+^+^+e+t++ + (*_*:*<*[*}*|*1*2*3*  4*5*6*7*8*9*0*a*  b*c*d*e*f*g*<*h*i*j*+ + : : L+^+^+e+: : ^+: d@(+V ~.  ",
"  + f@g@E.r#}+: n.: : t+t+t+e++ k*l*m*n*o*p*}*q*r*s*t*u*v*w*x*y*z*A*w*B*C*D*E*F*G*f*H*I*n*;+l*J*+ f+/@: ^+^+L+^+: : : $#s&O w@  ",
"  + f@g@K*g#}+: : : e+e+t+t+L*7@M*8+m*N*O*g*f*P*Q*R*S*T*U*!+V*W*Y X*Y Y*Z*`* =.=+=f*@=[##=m*)#$=.#%=: : : : ^+t+n.e+f+&=*=V C.  ",
"@ + %#:#h@g#}+: : : e+e+e+^+==-=r.;+F ;=>=,=}*'=)=!=~={=]=^=/=(=(=(=/=_=:=<=[=}=|=f*1=}$2='@8+U+3=4=: : : n.t+n.^+e+: $#(+5=6=X ",
"  + 6@D.<+i@}+: : : ^+e++ + 7=8=m*9=0=a=J.b=c=d=e=f=g=h=i=i=i=i=i=i=j=k=i=l=m=n=o=p=q=r=s=t=u=m*8=v=+ + w=: : e+: : : d@A$>.9$  ",
"@ :+%#:#h@g#}+: : : ^++ + x=y=z=A=B=C=D=E=F=G=H=I=J=K=L=i=i=i=i=i=i=i=i=i=K=M=I=N=O=P=Q=R=S=T=U=V=W=x=+ + : : : : [ } $#X=Y=Z=  ",
"  + f@g@<+@+g@: : e+^++ `= -.-+-[@@-!+)*#-G=j=i=i=i=i=i=j=i=i=i=i=i=i=i=i=i=i=i=i=j=$-%-)*Y &-b@*-=- ---+ : : : ;->-,-'-)-U P   ",
"  + 6@:#<+i@}+: t+: : + !-~-{-]-^-/-:@(-_-:-i=i=i=i=i=i=i=i=i=i=i=i=i=i=i=i=i=i=i=i=<-[-}-  |-3+1-2-3-4-+ : : : 5-H@;-&=-@6-P :@",
"  + V&j+<+i@}+e+e+/@+ 7-8-9-0-a-b-c-I.d-e-f-i=i=j=i=i=i=i=i=i=i=i=i=i=i=i=i=i=i=i=i=g-h-i-)*j-k-l-m-n-8-o-+ : : s@p-q-r-s-t-9$_#",
"+ + %#g@h@@+g@^+: + u-v-w-x-y-z-A-B-  C-D-i=i=E-i=i=i=i=i=i=i=i=i=i=i=i=i=i=i=i=i=E-g-F-G-  H-I-J-K-x-L-M-N-+ : : : : /*)-g#P   ",
"  + %#:#h@O-g@^+< _#P-Q-R-R-S-T-U-V-  W-X-Y-i=i=i=i=i=i=i=i=i=i=i=i=i=i=i=i=i=i=i=i=Z-`- ;  .;+;@;#;R-R-$;%;_#: : : : $#(+&;*;  ",
"  + %#g@E.^$}+L+t+_#=;R-R-R--;;;>;,;_#';);!;i=i=i=i=i=i=i=i=i=i=i=i=i=i=i=i=i=i=i=~;{;];';X ^;/;(;_;-;R-R-=;  /@y@| | y.:;U ~.  ",
"  + {.g@E.g#j+L+t+_#=;R-R--;<;[;};+ X ';|;1;2;3;i=i=i=i=i=i=i=i=i=i=i=i=i=i=i=i=N=4;5;6;7;X 8;};9;<;_;R-R-=;I.e+: e+: y.:;V 0;_#",
"  + {.g@f#r#}+n.^+  a;R-b;c;d;e;f;+ + + g;h;];i;j;k;l;i=i=i=i=i=i=i=i=i=j=m;n;k;o;];];p;+ + + q;r;s;t;b;R-=;  e+^+^+: y.:;V 0;  ",
"+ :+V&u;E.g#}+: ^++ v;w;x;y;z;A;B;+ e++ C;h;D;D;D;D;E;F;G;H;I;J;K;L;G;G;M;N;D;D;D;);h;O;+ ^++ P;Q;z;R;S;T;v;+ c@e+: : y.*=v+w@. ",
". + f@g@h@^$u&: ^+^++ + U; -V;W;+ ^+: + X;h;];D;Y;D;Z;h;`; >D;h; >.>+>Z;h;`; >D;D;D;Y;@>+ X+X++ #>$>%>&>*>+ L+^+^+: /@&=:;v+~.  ",
". + =>u;->g#}+| : e+e++ ;>>>,>+ ^+e+: _ + '>)>!>D;D;3*~>{>);D;D;D;D;D;]>~>^>D;D;/>(>_>+ e+^+e++ + :><><>+ ^+e+e+: : /@y.(+W [>_#",
"  :+}>^ h@t-}+: : ^+^+^++ + + : ^+^+e+^++ |>N=1>2>3>4>5>6>7>8>9>0>a>7>b>c>d>e>f>g>~;h>+ i>^+^+X++ + + + ^+e+e+: j>k>l>r-)-h 0;_#",
"  + }>m>h@t-`+: : e+^+^+^+^+: : : ^+^+^++ n>o>)><-p>q>r>+ + + + + + + + D;s>t>u>(>v>n>+ w>^+^+^+^+^+e+: : ^+< : x>y>z>A>B>r#C.  ",
"w++ =>^ C>D>E>F>} : : ^+^+X+e+: : ^+^++ + N&G>H>I>J>K>L>+ ^+^+^+^+^+e++ M>N>O>P>H>Q>R>+ s@e+^+^+^+e+e+: : ^+^+e+S>T>U>$#A$'.0;  ",
"  + V>m>C>,.W>z.e+/@y@: e+e+^+^+: ^++ + X>Y>Z>X*I.)*  X X e+t+e+^+^+: + X I.  )*X*`> ,.,+ : : n.t+t+e+: : : ^+: : : : y.+,v+~.  ",
"  :+@,#,h '.V%g.$,%,%,&,&,*,N N =,-,+ ;,>,,,',),!,~,{,],^,N &,&,&,N &,+ /,),(,_,:,<,[,},|,+ =,=,1,&,&,2,3,&,&,=,=,&,&,4,5,v+j._#",
"  6,7,v+v+h h r#r#r#v+r#r#r#r#r#r#+ I.8,9,0,r%a,b,c,d,T$e,r#r#r#r#r#r#f,g,d,<,Y> ,<,h,9,_,X + r#r#r#F.r#r#r#r#r#r#h h h h V j._#",
"    i,j,j,k,k,j,j,j,j,k,k,j,l,j,l,j,+ m,n,o,p,q,q,p,r,s,+ k,j,j,j,t,t,+ u,v,w,w,q,x,o,p,m,+ j,j,j,t,k,k,j,j,j,j,j,j,j,k,y,j,z,  ",
"                                    _#+             w+j + _#    _#_#_#  + w+            + _#_#    _#_#    _#        _#          "};
