/* XPM */
static char * tube_red_64_xpm[] = {
"64 64 1024 2",
"  	c #010101",
". 	c #000101",
"+ 	c #010100",
"@ 	c #000000",
"# 	c #000100",
"$ 	c #583A24",
"% 	c #5A3A23",
"& 	c #5A3923",
"* 	c #5B3923",
"= 	c #5B3A23",
"- 	c #5B3A22",
"; 	c #5B3922",
"> 	c #5C3A23",
", 	c #5A3922",
"' 	c #462B19",
") 	c #2B190E",
"! 	c #1B1008",
"~ 	c #9C5F34",
"{ 	c #A15F31",
"] 	c #A16032",
"^ 	c #A06031",
"/ 	c #A16031",
"( 	c #A26130",
"_ 	c #A36131",
": 	c #A36031",
"< 	c #A26030",
"[ 	c #A26031",
"} 	c #A26131",
"| 	c #A36130",
"1 	c #A16030",
"2 	c #A25F31",
"3 	c #A15F30",
"4 	c #A15E31",
"5 	c #A05E32",
"6 	c #7B4825",
"7 	c #532F18",
"8 	c #382111",
"9 	c #000001",
"0 	c #9C5F35",
"a 	c #A15E32",
"b 	c #8D532C",
"c 	c #8C532C",
"d 	c #8C532B",
"e 	c #8D522B",
"f 	c #8D542B",
"g 	c #8D542C",
"h 	c #8C542B",
"i 	c #8D532B",
"j 	c #8B542B",
"k 	c #8B542C",
"l 	c #8D532A",
"m 	c #8C542A",
"n 	c #8C532A",
"o 	c #8B532B",
"p 	c #8C542C",
"q 	c #8C522B",
"r 	c #734323",
"s 	c #533019",
"t 	c #371F10",
"u 	c #9D5F35",
"v 	c #A05F31",
"w 	c #573018",
"x 	c #532E18",
"y 	c #522E18",
"z 	c #522F19",
"A 	c #522E19",
"B 	c #522F18",
"C 	c #522E16",
"D 	c #522F17",
"E 	c #522E17",
"F 	c #512E16",
"G 	c #532F1A",
"H 	c #371F11",
"I 	c #9D6034",
"J 	c #563017",
"K 	c #63341B",
"L 	c #65351B",
"M 	c #6F4123",
"N 	c #704224",
"O 	c #704223",
"P 	c #6F4223",
"Q 	c #6F4222",
"R 	c #704222",
"S 	c #704122",
"T 	c #6F4224",
"U 	c #6A3B1E",
"V 	c #66351B",
"W 	c #67351A",
"X 	c #5C311A",
"Y 	c #512F19",
"Z 	c #351F11",
"` 	c #9D5F34",
" .	c #803D1F",
"..	c #853E1E",
"+.	c #A36132",
"@.	c #955028",
"#.	c #883E1E",
"$.	c #853D1E",
"%.	c #6D361B",
"&.	c #361F11",
"*.	c #9F5F31",
"=.	c #573118",
"-.	c #532E17",
";.	c #8A4825",
">.	c #8E4825",
",.	c #A36033",
"'.	c #A36032",
").	c #B66F3B",
"!.	c #BA723C",
"~.	c #A76433",
"{.	c #A46033",
"].	c #AF6634",
"^.	c #B26834",
"/.	c #A66332",
"(.	c #A46132",
"_.	c #A46131",
":.	c #B16B38",
"<.	c #B9713B",
"[.	c #AB6735",
"}.	c #98542B",
"|.	c #8E4724",
"1.	c #874221",
"2.	c #6B361B",
"3.	c #543019",
"4.	c #382011",
"5.	c #532E16",
"6.	c #E6914D",
"7.	c #F09851",
"8.	c #B36C39",
"9.	c #CD7537",
"0.	c #D77838",
"a.	c #B06633",
"b.	c #D68647",
"c.	c #EF9951",
"d.	c #C47A40",
"e.	c #A46031",
"f.	c #935028",
"g.	c #6E371C",
"h.	c #361E11",
"i.	c #010000",
"j.	c #573017",
"k.	c #522E15",
"l.	c #9F5F32",
"m.	c #B56F39",
"n.	c #B76F3A",
"o.	c #A56333",
"p.	c #D78848",
"q.	c #E08E4B",
"r.	c #AF6B37",
"s.	c #A36231",
"t.	c #B46935",
"u.	c #B76B35",
"v.	c #A76332",
"w.	c #C57137",
"x.	c #CD7438",
"y.	c #AE6633",
"z.	c #A26231",
"A.	c #A26132",
"B.	c #CA7F43",
"C.	c #BD743D",
"D.	c #A36232",
"E.	c #935027",
"F.	c #6D371B",
"G.	c #381F10",
"H.	c #A05F32",
"I.	c #EB9751",
"J.	c #F09951",
"K.	c #AE6936",
"L.	c #532F19",
"M.	c #563018",
"N.	c #AF6534",
"O.	c #E08E4D",
"P.	c #E4904D",
"Q.	c #AC6735",
"R.	c #4E0504",
"S.	c #970C07",
"T.	c #A52420",
"U.	c #A83634",
"V.	c #AA403C",
"W.	c #AC423D",
"X.	c #AB3F3C",
"Y.	c #AC3E3B",
"Z.	c #AC403C",
"`.	c #AB3F3A",
" +	c #A93C37",
".+	c #A5211D",
"++	c #A5201C",
"@+	c #A41F1C",
"#+	c #A41F1B",
"$+	c #A4201C",
"%+	c #A4211D",
"&+	c #A6211E",
"*+	c #A6221F",
"=+	c #981513",
"-+	c #8A0604",
";+	c #910605",
">+	c #6A0807",
",+	c #330404",
"'+	c #A46032",
")+	c #A45F33",
"!+	c #D5783B",
"~+	c #D87A3A",
"{+	c #A96332",
"]+	c #700604",
"^+	c #C60805",
"/+	c #E4322C",
"(+	c #EF4D47",
"_+	c #F3534D",
":+	c #F45651",
"<+	c #FB5B57",
"[+	c #FC5B58",
"}+	c #F65450",
"|+	c #F4554E",
"1+	c #EE4C47",
"2+	c #E12C27",
"3+	c #E32D28",
"4+	c #E32D29",
"5+	c #E32E29",
"6+	c #E22E28",
"7+	c #E32E28",
"8+	c #E32F2A",
"9+	c #D21E1B",
"0+	c #C80804",
"a+	c #C70704",
"b+	c #960607",
"c+	c #500505",
"d+	c #A46030",
"e+	c #6C371B",
"f+	c #371F12",
"g+	c #9F5F33",
"h+	c #CB743A",
"i+	c #CE7539",
"j+	c #A86332",
"k+	c #5A0A09",
"l+	c #910809",
"m+	c #91090A",
"n+	c #CA0903",
"o+	c #D20702",
"p+	c #D82725",
"q+	c #FD5A58",
"r+	c #E02F2C",
"s+	c #D50802",
"t+	c #CA0702",
"u+	c #93090A",
"v+	c #910709",
"w+	c #920709",
"x+	c #92070A",
"y+	c #91070A",
"z+	c #900809",
"A+	c #8F090A",
"B+	c #92080A",
"C+	c #900909",
"D+	c #8E0808",
"E+	c #91080A",
"F+	c #90090A",
"G+	c #910909",
"H+	c #540706",
"I+	c #AA6432",
"J+	c #6C361B",
"K+	c #790705",
"L+	c #CA0602",
"M+	c #E82923",
"N+	c #EF2F2A",
"O+	c #F13B35",
"P+	c #FD5B58",
"Q+	c #FE5B58",
"R+	c #E2312E",
"S+	c #DE1C19",
"T+	c #E92E29",
"U+	c #C80602",
"V+	c #C80502",
"W+	c #C80601",
"X+	c #C90601",
"Y+	c #C90602",
"Z+	c #C90603",
"`+	c #C90702",
" @	c #C80702",
".@	c #C80603",
"+@	c #BA0704",
"@@	c #920707",
"#@	c #C70603",
"$@	c #B00706",
"%@	c #91090B",
"&@	c #920909",
"*@	c #540606",
"=@	c #C57036",
"-@	c #D8793A",
";@	c #BB6C35",
">@	c #934F27",
",@	c #372011",
"'@	c #020201",
")@	c #7A0603",
"!@	c #D30702",
"~@	c #D20701",
"{@	c #ED2D28",
"]@	c #F3322C",
"^@	c #F33D37",
"/@	c #FE5A59",
"(@	c #E0312D",
"_@	c #E0221C",
":@	c #EB312B",
"<@	c #D00602",
"[@	c #D20602",
"}@	c #D10602",
"|@	c #D10601",
"1@	c #D20500",
"2@	c #D10501",
"3@	c #D20501",
"4@	c #BD0604",
"5@	c #930707",
"6@	c #CE0602",
"7@	c #D30602",
"8@	c #B30705",
"9@	c #930808",
"0@	c #550505",
"a@	c #C06E36",
"b@	c #D07639",
"c@	c #B66A34",
"d@	c #934F28",
"e@	c #9C6034",
"f@	c #7B0604",
"g@	c #D10702",
"h@	c #EE2D27",
"i@	c #F4322D",
"j@	c #F33E37",
"k@	c #FD5A56",
"l@	c #FE5958",
"m@	c #DF312E",
"n@	c #DE211B",
"o@	c #EC312C",
"p@	c #D20401",
"q@	c #D10401",
"r@	c #D30401",
"s@	c #D10500",
"t@	c #D30402",
"u@	c #D10502",
"v@	c #BB0704",
"w@	c #940808",
"x@	c #D00603",
"y@	c #930909",
"z@	c #930809",
"A@	c #540605",
"B@	c #A46232",
"C@	c #945027",
"D@	c #362010",
"E@	c #9C6135",
"F@	c #9F6032",
"G@	c #573117",
"H@	c #532E15",
"I@	c #B06B37",
"J@	c #7A0705",
"K@	c #F5322D",
"L@	c #F33D36",
"M@	c #DE312D",
"N@	c #DF221B",
"O@	c #ED312B",
"P@	c #D20601",
"Q@	c #BC0704",
"R@	c #930708",
"S@	c #D00703",
"T@	c #B30706",
"U@	c #93080B",
"V@	c #920808",
"W@	c #AC6836",
"X@	c #B26C38",
"Y@	c #AA6635",
"Z@	c #925027",
"`@	c #381F11",
" #	c #532F15",
".#	c #E8944F",
"+#	c #7A0704",
"@#	c #D00702",
"##	c #ED2D26",
"$#	c #F4332D",
"%#	c #FD5B57",
"&#	c #FD5A57",
"*#	c #DD312C",
"=#	c #D10701",
"-#	c #940707",
";#	c #D00803",
">#	c #920908",
",#	c #540705",
"'#	c #D58547",
")#	c #F29C52",
"!#	c #CB8043",
"~#	c #563016",
"{#	c #790704",
"]#	c #D10802",
"^#	c #D20802",
"/#	c #EE2D26",
"(#	c #F3322B",
"_#	c #F23E36",
":#	c #FC5C58",
"<#	c #ED312A",
"[#	c #D20502",
"}#	c #B20705",
"|#	c #92090A",
"1#	c #CE8144",
"2#	c #E7934E",
"3#	c #C37A40",
"4#	c #945028",
"5#	c #9C6035",
"6#	c #770704",
"7#	c #ED2C26",
"8#	c #FB5C58",
"9#	c #FE5C59",
"0#	c #DE211A",
"a#	c #EE322A",
"b#	c #D20703",
"c#	c #B10705",
"d#	c #94080B",
"e#	c #010201",
"f#	c #9F6031",
"g#	c #780806",
"h#	c #C70904",
"i#	c #BE0807",
"j#	c #DC2923",
"k#	c #E43329",
"l#	c #E23930",
"m#	c #E74F4C",
"n#	c #E8514D",
"o#	c #D5312A",
"p#	c #D4201A",
"q#	c #DA2C25",
"r#	c #C30804",
"s#	c #C30803",
"t#	c #C40803",
"u#	c #C20803",
"v#	c #C20904",
"w#	c #B20905",
"x#	c #C00806",
"y#	c #C20804",
"z#	c #AA0806",
"A#	c #940809",
"B#	c #550606",
"C#	c #392012",
"D#	c #9E6031",
"E#	c #AC6835",
"F#	c #580B09",
"G#	c #8C0909",
"H#	c #8D0A0A",
"I#	c #8E0A0A",
"J#	c #8F0A0A",
"K#	c #900A0A",
"L#	c #8B0A0A",
"M#	c #8E0A09",
"N#	c #920A09",
"O#	c #8E0908",
"P#	c #8D0909",
"Q#	c #900A09",
"R#	c #8F0A09",
"S#	c #8E0B0A",
"T#	c #8D0B09",
"U#	c #920B09",
"V#	c #8F0909",
"W#	c #8D090A",
"X#	c #550907",
"Y#	c #6D371C",
"Z#	c #9B6035",
"`#	c #573119",
" $	c #532F16",
".$	c #EC9550",
"+$	c #F19951",
"@$	c #080302",
"#$	c #160402",
"$$	c #210805",
"%$	c #1B0502",
"&$	c #150201",
"*$	c #190201",
"=$	c #1A0401",
"-$	c #160301",
";$	c #160201",
">$	c #180201",
",$	c #170201",
"'$	c #170301",
")$	c #160302",
"!$	c #180301",
"~$	c #170202",
"{$	c #1A0302",
"]$	c #190301",
"^$	c #1E0301",
"/$	c #1D0803",
"($	c #120302",
"_$	c #070402",
":$	c #532F17",
"<$	c #E7924F",
"[$	c #EC944F",
"}$	c #AB6634",
"|$	c #020202",
"1$	c #3F090A",
"2$	c #48060B",
"3$	c #44060A",
"4$	c #46070A",
"5$	c #4A070A",
"6$	c #47060A",
"7$	c #45060A",
"8$	c #48070A",
"9$	c #47070B",
"0$	c #46060A",
"a$	c #47070A",
"b$	c #460609",
"c$	c #480509",
"d$	c #470509",
"e$	c #470609",
"f$	c #47060B",
"g$	c #490609",
"h$	c #4A060A",
"i$	c #450609",
"j$	c #480609",
"k$	c #3D0808",
"l$	c #050703",
"m$	c #040503",
"n$	c #5C080B",
"o$	c #63070E",
"p$	c #5F070E",
"q$	c #6D080E",
"r$	c #6F080E",
"s$	c #8C1F1D",
"t$	c #942421",
"u$	c #8D211F",
"v$	c #6F090E",
"w$	c #63080D",
"x$	c #60070D",
"y$	c #6E090D",
"z$	c #5B070D",
"A$	c #59060E",
"B$	c #58060E",
"C$	c #5A060E",
"D$	c #66070D",
"E$	c #66070B",
"F$	c #5D070D",
"G$	c #58070E",
"H$	c #5A080E",
"I$	c #4E080B",
"J$	c #070804",
"K$	c #901D16",
"L$	c #7F0F0E",
"M$	c #810D10",
"N$	c #A51B19",
"O$	c #A11A18",
"P$	c #C4332E",
"Q$	c #D8443C",
"R$	c #CE3933",
"S$	c #A01716",
"T$	c #A31817",
"U$	c #8A1010",
"V$	c #7C0B0D",
"W$	c #A31516",
"X$	c #78070B",
"Y$	c #72090C",
"Z$	c #73080C",
"`$	c #77090D",
" %	c #74090D",
".%	c #5C080D",
"+%	c #81090B",
"@%	c #870809",
"#%	c #5E060C",
"$%	c #62080D",
"%%	c #5F070D",
"&%	c #4F080B",
"*%	c #A86231",
"=%	c #A96231",
"-%	c #A56231",
";%	c #9E5F32",
">%	c #563118",
",%	c #533016",
"'%	c #020402",
")%	c #DA3328",
"!%	c #DE2018",
"~%	c #D91712",
"{%	c #F4342C",
"]%	c #F5362C",
"^%	c #F7524D",
"/%	c #FB5F5A",
"(%	c #F85752",
"_%	c #F5332B",
":%	c #E02119",
"<%	c #DA1813",
"[%	c #F4312C",
"}%	c #71090B",
"|%	c #B00806",
"1%	c #B30704",
"2%	c #5C060A",
"3%	c #8B090B",
"4%	c #75080A",
"5%	c #4D080C",
"6%	c #030303",
"7%	c #E9914B",
"8%	c #F1994F",
"9%	c #C47A3F",
"0%	c #A26232",
"a%	c #A66331",
"b%	c #A86431",
"c%	c #A56331",
"d%	c #924F27",
"e%	c #542F18",
"f%	c #382010",
"g%	c #D82C26",
"h%	c #E12019",
"i%	c #DA1611",
"j%	c #F6322A",
"k%	c #F5322B",
"l%	c #F8534E",
"m%	c #F95853",
"n%	c #F6322B",
"o%	c #E01F18",
"p%	c #D91811",
"q%	c #F6322C",
"r%	c #CF0702",
"s%	c #74080A",
"t%	c #AD0807",
"u%	c #B00804",
"v%	c #5D060A",
"w%	c #8C0A0B",
"x%	c #8F090B",
"y%	c #78080B",
"z%	c #4E080C",
"A%	c #030403",
"B%	c #E78F48",
"C%	c #F09850",
"D%	c #C47940",
"E%	c #A46231",
"F%	c #D38446",
"G%	c #F09A51",
"H%	c #C97D41",
"I%	c #6E371B",
"J%	c #A56131",
"K%	c #030402",
"L%	c #D92D27",
"M%	c #DF1F18",
"N%	c #DA1711",
"O%	c #F6312B",
"P%	c #F8534C",
"Q%	c #FC5C59",
"R%	c #F95852",
"S%	c #F7322C",
"T%	c #D81811",
"U%	c #D20801",
"V%	c #73070A",
"W%	c #AC0706",
"X%	c #B00704",
"Y%	c #5F060A",
"Z%	c #8C0A0C",
"`%	c #8E090C",
" &	c #77080B",
".&	c #50090B",
"+&	c #A46130",
"@&	c #D28346",
"#&	c #F09852",
"$&	c #C97C41",
"%&	c #DB2E28",
"&&	c #DF2018",
"*&	c #DB1711",
"=&	c #F7312A",
"-&	c #F63029",
";&	c #F9534B",
">&	c #FE5D5A",
",&	c #F95851",
"'&	c #F7312C",
")&	c #D81711",
"!&	c #CF0603",
"~&	c #72070A",
"{&	c #B10804",
"]&	c #5F050A",
"^&	c #76090B",
"/&	c #4F090C",
"(&	c #A56130",
"_&	c #A36030",
":&	c #020302",
"<&	c #DA2E27",
"[&	c #F63129",
"}&	c #F53129",
"|&	c #F8534B",
"1&	c #F95750",
"2&	c #F7312B",
"3&	c #F7322B",
"4&	c #E12018",
"5&	c #D91711",
"6&	c #D10703",
"7&	c #CF0704",
"8&	c #72080A",
"9&	c #AD0806",
"0&	c #4D080B",
"a&	c #A66131",
"b&	c #A56031",
"c&	c #DA2E28",
"d&	c #F8524A",
"e&	c #FE5A57",
"f&	c #F6312A",
"g&	c #CE0702",
"h&	c #73090A",
"i&	c #AD0907",
"j&	c #5E060A",
"k&	c #8E090A",
"l&	c #75090B",
"m&	c #50090C",
"n&	c #030302",
"o&	c #C37036",
"p&	c #D77939",
"q&	c #A56030",
"r&	c #F73029",
"s&	c #F85249",
"t&	c #F7302B",
"u&	c #E11F18",
"v&	c #CF0703",
"w&	c #73090B",
"x&	c #AC0807",
"y&	c #8B0A0B",
"z&	c #8E090B",
"A&	c #76090A",
"B&	c #4F090B",
"C&	c #D67839",
"D&	c #BA6B35",
"E&	c #EB9652",
"F&	c #EF9952",
"G&	c #F09953",
"H&	c #EF9853",
"I&	c #E02018",
"J&	c #F53029",
"K&	c #FE5C58",
"L&	c #F95751",
"M&	c #F6302A",
"N&	c #F7302A",
"O&	c #D30601",
"P&	c #73080B",
"Q&	c #AC0806",
"R&	c #4E090C",
"S&	c #ED9651",
"T&	c #F29B53",
"U&	c #AB6734",
"V&	c #F5302A",
"W&	c #F8534A",
"X&	c #F62F29",
"Y&	c #CE0703",
"Z&	c #72080B",
"`&	c #AD0906",
" *	c #B10904",
".*	c #5F060B",
"+*	c #8B0A0C",
"@*	c #4E090B",
"#*	c #6D381C",
"$*	c #EB9650",
"%*	c #F09A52",
"&*	c #AD6835",
"**	c #F5312A",
"=*	c #72090B",
"-*	c #8B0B0C",
";*	c #8E0A0C",
">*	c #6E381C",
",*	c #542F19",
"'*	c #9F6033",
")*	c #A26032",
"!*	c #EA9650",
"~*	c #DB2F28",
"{*	c #DA1811",
"]*	c #DB1812",
"^*	c #B00905",
"/*	c #60070B",
"(*	c #8A0B0B",
"_*	c #8D0A0B",
":*	c #020303",
"<*	c #9D6035",
"[*	c #A86433",
"}*	c #A96433",
"|*	c #020301",
"1*	c #FA5751",
"2*	c #AC0906",
"3*	c #60060B",
"4*	c #8C090B",
"5*	c #4F0A0C",
"6*	c #D58647",
"7*	c #EE9851",
"8*	c #C37840",
"9*	c #944F27",
"0*	c #DC2E28",
"a*	c #F62F2A",
"b*	c #E01E18",
"c*	c #B00904",
"d*	c #8D0A0C",
"e*	c #D98848",
"f*	c #F19A52",
"g*	c #C57A41",
"h*	c #DC2F28",
"i*	c #E02118",
"j*	c #CE0803",
"k*	c #890B0B",
"l*	c #760A0C",
"m*	c #A86434",
"n*	c #573218",
"o*	c #DB3028",
"p*	c #FE5C5A",
"q*	c #CE0802",
"r*	c #730A0B",
"s*	c #B10805",
"t*	c #8A0B0A",
"u*	c #8C0A0A",
"v*	c #955128",
"w*	c #6F381C",
"x*	c #DC3029",
"y*	c #F95850",
"z*	c #AF0804",
"A*	c #62070B",
"B*	c #8B0B0B",
"C*	c #502F18",
"D*	c #351F10",
"E*	c #DC302A",
"F*	c #DF2019",
"G*	c #F72F29",
"H*	c #F8524B",
"I*	c #74080B",
"J*	c #AF0904",
"K*	c #60070A",
"L*	c #8C0B0C",
"M*	c #D28245",
"N*	c #EA924E",
"O*	c #C3773E",
"P*	c #010202",
"Q*	c #DC312A",
"R*	c #DF2119",
"S*	c #F62F28",
"T*	c #CF0604",
"U*	c #73080A",
"V*	c #AC0907",
"W*	c #8F0A0B",
"X*	c #770A0B",
"Y*	c #D88647",
"Z*	c #F29850",
"`*	c #C87A40",
" =	c #72381C",
".=	c #562F18",
"+=	c #3A2111",
"@=	c #904925",
"#=	c #8F4624",
"$=	c #F6302B",
"%=	c #71090A",
"&=	c #750A0B",
"*=	c #AD6836",
"==	c #A96634",
"-=	c #CD8043",
";=	c #E6914B",
">=	c #C4793F",
",=	c #965128",
"'=	c #6F371B",
")=	c #8C4322",
"!=	c #8B3F1F",
"~=	c #A15E30",
"{=	c #A56132",
"]=	c #D91710",
"^=	c #FD5C58",
"/=	c #F63028",
"(=	c #8C0B0B",
"_=	c #760A0B",
":=	c #4F0A0B",
"<=	c #D48546",
"[=	c #512D18",
"}=	c #9F5B30",
"|=	c #9F5B2F",
"1=	c #010302",
"2=	c #F8524C",
"3=	c #E11E17",
"4=	c #D10603",
"5=	c #75080B",
"6=	c #B26B37",
"7=	c #A96533",
"8=	c #954F28",
"9=	c #72381B",
"0=	c #542F16",
"a=	c #FD5D58",
"b=	c #F95650",
"c=	c #F72E29",
"d=	c #E11E18",
"e=	c #5F070B",
"f=	c #760A0A",
"g=	c #522F16",
"h=	c #E08E4C",
"i=	c #AA6636",
"j=	c #DC322A",
"k=	c #E02219",
"l=	c #FC5D59",
"m=	c #512E17",
"n=	c #351E10",
"o=	c #AC6736",
"p=	c #A56232",
"q=	c #DD322B",
"r=	c #F7544B",
"s=	c #E01F17",
"t=	c #D20803",
"u=	c #720A0B",
"v=	c #61070B",
"w=	c #77090B",
"x=	c #51080B",
"y=	c #BE6C34",
"z=	c #CE7336",
"A=	c #B66933",
"B=	c #6F371C",
"C=	c #B46E39",
"D=	c #B66F3A",
"E=	c #DD312B",
"F=	c #73090C",
"G=	c #AE0708",
"H=	c #B00805",
"I=	c #78090A",
"J=	c #52090C",
"K=	c #C46F35",
"L=	c #D77937",
"M=	c #BB6B34",
"N=	c #372010",
"O=	c #FD5C59",
"P=	c #D91911",
"Q=	c #D30703",
"R=	c #76080C",
"S=	c #AF0707",
"T=	c #AE0804",
"U=	c #900A0B",
"V=	c #750A0A",
"W=	c #53090C",
"X=	c #AB6433",
"Y=	c #A06032",
"Z=	c #DD322C",
"`=	c #E12119",
" -	c #F8544C",
".-	c #76080B",
"+-	c #AD0707",
"@-	c #60060A",
"#-	c #830A0C",
"$-	c #820A0A",
"%-	c #52080C",
"&-	c #020101",
"*-	c #040502",
"=-	c #DE3730",
"--	c #DB1F1A",
";-	c #D61A12",
">-	c #F4322B",
",-	c #F3312A",
"'-	c #F6544D",
")-	c #F9615C",
"!-	c #F65852",
"~-	c #F33029",
"{-	c #DA2219",
"]-	c #CF1812",
"^-	c #F53930",
"/-	c #CF0B04",
"(-	c #CD0A03",
"_-	c #CD0904",
":-	c #D00904",
"<-	c #CF0905",
"[-	c #6E0B0D",
"}-	c #A9090A",
"|-	c #B70C07",
"1-	c #59080D",
"2-	c #54070C",
"3-	c #5B070E",
"4-	c #5D080E",
"5-	c #030202",
"6-	c #A4602F",
"7-	c #9E6135",
"8-	c #573217",
"9-	c #E9924C",
"0-	c #F49A50",
"a-	c #B56F3A",
"b-	c #362011",
"c-	c #9F6136",
"d-	c #B8703A",
"e-	c #BB723B",
"f-	c #96512A",
"g-	c #914926",
"h-	c #9E5A2E",
"i-	c #CE8043",
"j-	c #E08C49",
"k-	c #BB723C",
"l-	c #99542B",
"m-	c #934A26",
"n-	c #9C582D",
"o-	c #A16132",
"p-	c #914A26",
"q-	c #8B3F20",
"r-	c #9D582D",
"s-	c #A46133",
"t-	c #DB8947",
"u-	c #F2974E",
"v-	c #C4773F",
"w-	c #954E28",
"x-	c #8A3E20",
"y-	c #99532B",
"z-	c #965028",
"A-	c #71381C",
"B-	c #583117",
"C-	c #552F16",
"D-	c #8D4926",
"E-	c #904A25",
"F-	c #9E5B2E",
"G-	c #B56E39",
"H-	c #BD743C",
"I-	c #9F5C2F",
"J-	c #9D592E",
"K-	c #A05E2F",
"L-	c #9E6136",
"M-	c #833D20",
"N-	c #70371C",
"O-	c #6E4326",
"P-	c #704324",
"Q-	c #65351C",
"R-	c #724324",
"S-	c #724424",
"T-	c #724323",
"U-	c #734324",
"V-	c #724423",
"W-	c #734424",
"X-	c #734423",
"Y-	c #724223",
"Z-	c #724322",
"`-	c #6C3C1E",
" ;	c #5D3219",
".;	c #010001",
"+;	c #502F1A",
"@;	c #2C1B11",
"#;	c #2D1A0E",
"$;	c #2D1A0F",
"%;	c #2C1A0E",
"&;	c #2E1A0E",
"*;	c #2E1A0F",
"=;	c #2E190E",
"-;	c #2D190E",
";;	c #1D1009",
"        .                                                         +           . .                   @ @ .     @ @ @     @ @ @   ",
"# @ $ % & * * = - = = = = = * ; - = ; & ; = - = - - > - ; , * ; , ; , , ; * , & * , , - = & , = ; , ; , - - ; , * & , ; ' ) !   ",
"# @ ~ { { ] ^ / ( _ : _ _ _ < < < < [ / / } | ( } _ _ } [ < 1 1 1 1 1 ^ 1 ^ / / 1 ^ 1 1 ( / [ ( < 1 < 1 < < < 2 3 4 4 5 6 7 8   ",
"9 @ 0 a b c d e b f f g f f h d i i j k d f f d d l f i d d h d m j n o d c n h p o n d d c c f n d d h d n n n q q e c r s t   ",
"  @ u v w x y y y z z z z y y A y y y y B B y C C C y y y D y E E E y y y E B B E C C C E y B z y B y C E y y E D y F E B G H   ",
"  @ I v J E K L M M N O O O P P P O O O O O P Q R R O O O O O O Q O O O O O O O Q S R O O O P T O P O O S O O O O U V W X Y Z   ",
"  @ ` v w E  ...[ _ _ _ _ < } } +._ _ _ _ _ _ _ _ _ } _ _ _ +._ _ _ _ _ _ _ _ _ _ _ _ _ _ _ _ +._ _ _ _ _ +._ _ _ @.#.$.%.s &.  ",
"  @ I *.=.-.;.>.[ _ +._ _ _ _ +.,.'.).!.~._ _ +._ ,.{._ +._ ].^./._ '.+._ (._._ _ _ _ _ +._ (._.:.<.[._ _ _ _ _ _ }.|.1.2.3.4.  ",
"@ @ I v w 5.5 _ _ _ _ _ _ +._ +.,.'.6.7.8.} _ _.'.{.{._ _ _.9.0.a.+.,.'._ _ +._ _ _ _ '.,._ _ _ b.c.d._ _ _ e._ _ _ _ f.g.z h.  ",
"  i.I v j.k.l._ _ _ _ _ m.n.o._ (.+.p.q.r.s.e._.'.'.t.u.v._ w.x.y.(.{.+._ z.+._ _ _ _ ,.,._._ A.B.q.C._ _ _ _.+.D.D.} E.F.7 G.  ",
"  i.I v J k.H._ +.+._ _.I.J.K._ @ @ @ @ @ @ @ @ @ @ @ @ @ @ @ @ @ @ @ @ @ @ @ @ @ @ @ @ @ @ @ @ +.: e._ _ _.(.{.(._ } E.F.L.4.  ",
"+ @ I v M.C H.e.,.,.N.a.O.P.Q.@ R.S.T.U.V.W.X.Y.Z.`. +.+++@+#+$+++$+$+$+++$+$+.+%+&+*+=+-+;+>+,+@ _ _ _ _.e.e.{.'+_ _ f.F.z &.  ",
"+ i.` v M.E l._ '.)+!+~+{+_ _ @ ]+^+/+(+_+:+<+[+}+|+1+2+3+3+3+3+3+4+4+4+4+4+5+4+6+7+8+9+0+a+b+c+@ _ _ _ _.d+e.{.'+_ _ f.e+L.f+  ",
"  @ ` v M.E g+_ +.,.h+i+j+_ _ @ k+l+m+n+o+p+[+q+r+s+t+u+m+v+w+w+v+w+x+y+w+w+z+A+B+C+D+l+E+F+G+H+@ _ I+y.j+_._._._._ _ E.J+z H   ",
"  @ ` v J 5.l._ _ _ _ } } _ _ @ K+L+L+M+N+O+P+Q+R+S+T+t+U+V+U+W+X+Y+U+Z+`+ @.@+@@@#@Y+$@%@m+&@*@@ _.=@-@;@_ _ s._ _ _ >@e+B ,@'@",
"  @ I v M.E l.} _ _ _ _ _ _ _ @ )@!@~@{@]@^@P+/@(@_@:@<@[@}@}@|@1@2@3@}@[@}@}@4@5@6@7@8@m+m+9@0@@ '+a@b@c@_ _ _ _ _ _ d@F.3.4.  ",
"@ @ e@v J C l._ _ _ _ _ _ _ _.@ f@g@g@h@i@j@k@l@m@n@o@g@}@p@}@q@r@s@t@}@3@u@}@v@w@x@}@8@G+y@z@A@@ '+_ _ _ D.B@_ _ _ _ C@g.L.D@. ",
". @ E@F@G@H@l._ _ '._ _ _ _ I@@ J@g@g@h@K@L@k@l@M@N@O@}@g@[@P@3@3@P@3@3@3@3@}@Q@R@S@g@T@U@y@V@A@@ _ _._._ _.W@X@Y@(._ Z@e+L.`@  ",
"  @ e@v G@ #l.} _ _ z.D.s._ .#@ +#g@@###$#L@%#&#*#_@O@=#o+P@1@3@|@P@3@1@[@o+g@v@-#;#g@8@&@G+>#,#@ _ _ e.e._ '#)#!#z.} Z@J+L.`@  ",
"  @ I v ~#k.l._ _ _ D._ _ _ q.@ {#]#^#/#(#_#:#Q+*#N@<#=#[@[#3@3@3@s@1@1@}@}@o+v@w@S@}@}#|#u+9@,#@ _ _ e.e._ 1#2#3#s.B@4#F.z Z   ",
"+ @ 5#*.j.H@l._ _ (._ _ _ +.| @ 6#g@!@7#(#_#8#9#M@0#a#[@|@3@1@s@1@s@1@3@2@[@b#v@V@x@7@c#m+d#y@*@@ _ _ _ _ _ _ : _ _ _ f.F.z H e#",
"@ @ E@f#J C l._ _ _ _ _ _ _ _ @ g#h#i#j#k#l#m#n#o#p#q#r#s#t#t#r#s#s#r#u#r#r#v#w#9@x#y#z#F+G+A#B#@ _ _ _._._ ,._ +._ _ E.e+L.C#  ",
"  @ E@D#M.-.l._ _ _ Q.E#s._ _ @ F#G#H#I#J#K#H#L#M#N#O#P#Q#R#J#K#R#S#I#J#J#S#T#J#U#P#L#V#l+W#O#X#@ D._ e.e.'+,.+.+.+._ E.Y#L.H   ",
"  @ Z#f#`# $l._ _ _ .$+$Q.e.e.e.@$#$$$%$&$*$=$-$;$>$,$,$,$;$,$,$'$)$;$!$'$,$~$>${$]$!$*$^$/$($_$A._ e.e.e._._._ _ _ _ f.Y#z &.  ",
"# @ Z#*.M.:$F@_ _ '.<$[$}$e.: _._ @ |$1$2$3$4$5$6$7$8$9$0$0$0$a$b$c$d$e$f$g$h$e$i$j$h$d$k$l$@ : _ _ _ _.'+'+'+e.e._ _ >@Y#z ,@e#",
"# @ 5#l.M.7 F@_ _ _ | | _ _._ _ _ _ m$n$o$p$q$r$s$t$u$r$v$w$x$y$z$A$A$B$A$C$D$E$F$C$G$H$I$e#e.e.'._ _ _ +.(.e.e.e._ _ >@F.L.4.  ",
"+ @ ~ *.=.:$l._ _ _ _ _ _ _ _ _ _ _ J$K$L$M$N$O$P$Q$R$S$T$U$V$W$X$Y$Z$`$ %.%+%@%#%w$$%%%&%|$*%=%-%+.+._ _ D._ _ e._._ E.F.z H   ",
"  i.0 ;%>%,%l._ _ _ _ _ _ _ _ _ _ | '%)%!%~%{%]%^%/%(%_%_%:%<%[%7@g@o+g@S@}%|%1%2%3%A+4%5%6%7%8%9%_ e._ _ _ _ 0%a%b%c%d%F.e%f%  ",
"  @ ~ *.=. $l._ _ _ _ _ _._._ _ _ _ '%g%h%i%j%k%l%8#m%j%n%o%p%q%}@g@o+g@r%s%t%u%v%w%x%y%z%A%B%C%D%_.e._.e._.E%_ F%G%H%>@I%7 &.  ",
"  @ e@v =.5.l._ +.'+J%'+'+e.e.e._._ K%L%M%N%n%O%P%Q%R%S%S%o%T%n%[@b#b#U%S@V%W%X%Y%Z%`% &.&|$+&d+_ _ e.e.e.e._ _ @&#&$&4#I%z H   ",
"@ @ I v =.5.l._ (.(.e._._ e.{.'+e._ |$%&&&*&=&-&;&>&,&'&S%h%)&O%}@o+b#}@!&~&W%{&]&3%x%^&/&|$_ _ _ _ _ ( _ e.e.: +&(&_&>@e+L.H   ",
"+ @ 5#*.=.5.l._ _ e.e._ _ (.e.e.e._ :&<&&&N%[&}&|&9#1&2&3&4&5&O%6&o+o+g@7&8&9&{&]&L#x%^&0&6%_ _ _ _ _ _ _.a&b&e._ _ } d@g.G H   ",
"+ @ 5#F@w -.l._ _ (.(.+._ _ e.e.e.e.'%c&&&N%[&}&d&e&1&=&2&4&5&f&o+~@b#6&g&h&i&{&j&w%k&l&m&n&_ _ _ _ _ _ o&p&;@_._ _ } f.Y#L.,@  ",
"  @ 5#F@w -.l._ +&(&J%q&_ _ _ _ _ _.:&%&M%N%r&}&s&Q+1&=&t&u&5&f&}@[@~@U%v&w&x&{&Y%y&z&A&B&:&_ e.e.e._ _ o&C&D&e._._ _ >@g.L.H   ",
"  i.5#F@M.5.l.| E&F&G&H&[.+._ +.'+'+:&%&I&*&r&J&d&K&L&M&N&o%5&M&[@O&O&~@v&P&Q&u%Y%y&k&^&R&|$e.e.e.e.e._ _.(&_.(._._ _ E.Y#z &.  ",
"  @ e@*.G@ $l._&S&T&+$J.U&: e.e.e.'+|$%&&&N%-&V&W&9#1&X&N&u&5&O%[@~@~@~@Y&Z&`& *.*+*x%l&@*|$e.: _._._._ _ B@_ +.e._ _ E.#*L.f+  ",
"  @ e@f#G@,%l._ v.j+$*%*&*e.e.e.e.e.:&%&&&N%r&**|&9#1&N&N&u&*&O%o+~@~@o+Y&=*i&u%.*-*;*^&/&:&_ _ z._ _ D._ _ _ _ _ } } f.>*,*H   ",
"  @ 5#f#>%:$'*_ } )*!*c.Q._ _ _ _ _ '%~*&&{*[&}&W&9#L&-&N&u&]*f&g@~@o+o+Y&=*Q&^*/*(*_*^&@*:*| | _ _ _ _ _._ s.z.+._ } 4#>*z H |$",
"@ @ <*l.`#:$F@} _ _ [*}*_.e._ _ _ _ |*%&M%{*[&V&|&9#1*N&N&o%{*3&[@P@~@o+v&=*2*^*3*(*4*l&5*|$6*7*8*_ _ (.(._._ _ _ e._ 9*g.z ,@e#",
"# @ 5#*.G@ $l._ +.'.e.e.e._.(._.'+'+'@0*&&{*r&J&W&9#1*X&a*b*{*2&[@O&~@o+Y&w&9&c*3*y&d*l&@*|$e*f*g*_ _ '+e.e._._ _ e._ C@g.z H   ",
"  @ E@F@=.:$l._ +._ _ (.(.(._.e.'+'+:&h*i*5&-&[&W&9#1&X&a*u&{*N&[@o+o+o+j*w&9&u%.*k*H#l*@*|$m*}$/.D.s._ e.e.'+e._ _ _ 4#>*s `@  ",
"  @ E@F@n* $l._ _ _ _._.(.(.e.e.e.'+'%o*&&5&-&[&W&p*1&-&M&o%p%f&o+~@o+b#q*r*`&s*/*t*u*^&B&:&+.A.} _ _ _ _ _ e.(.+._.D.v*w*z &.  ",
"# @ 5#f#G@ $l._ _ _ _._._.e.e._._.+.:&x*&&5&-&-&W&9#y*-&M&o%p%f&g@O&~@U%j*=*Q&z*A*B*u*^&.&:&+.,.+._ _ _ _ +.(.+.e._._ 4#g.C*D*|$",
"  @ e@*.j.H@l._ _ _ e._._._ e._.+.+.|$E*F*5&G*-&H*Q%1&X&a*o%5&f&g@o+o+g@v&I*Q&J*K*L*z&l&B&|$_._ _ e.M*N*O*_ _ _._ _ _ C@I%B f%  ",
"# i.5#f#G@ $l._ _ _ e.: _ _ _ (.'._ P*Q*R*5&r&-&|&8#L&S*X&u&5&M&g@g@g@}@T*U*V*c*.*L#W*X*R&|$e._ e._ Y*Z*`*_ _ _ _ < [ 4# =.=+=  ",
"  @ E@F@j.5.F@_ _ _.e.e.@=#=3 _ (._.|$Q*R*5&r&-&W&Q%1&S*X&u&5&$=g@o+}@}@v&%=V* *Y%B*W*&=B&|$e._ _ _ *=X@==_ _ _ -=;=>=,='=y t   ",
"  @ e@f#j.H@l._ (._ _ _ )=!=~=_.{=B@:&Q*R*]=r&**W&^=1&/=/=o%N%2&6&6&b#o+v&=*i&J*K*(=I#_=:=n&_._ _ _ _ _ _ _ _ _ <=)#-=v*J+[=t '@",
"  @ <*H.j.H@l._._.s._ _ }=|=: _.(._.1=E*&&5&-&V&2=%#1&X&X&3=N%f&4=}@b#b#!&5=x&c*/*B*W*^&:=n&e.e.e.e.e.+._ _ _ _ W@6=7=8=9=0=f%e#",
"@ @ 5#F@G@5.F@e._ _ _ _.,.+._._.e.e.P*E*F*p%-&V&H*a=b=S*c=d=p%f&}@o+g@b#x@P&x&^*e=B*W*f=m&|$e.e.e.'+(.e.e.e.e._ _ _ _ 9*'= $t   ",
"  @ 5#f#G@g=F@e.: < h=P.i=,._.e.e.(.'@j=k=p%r&V&|&l=b=S*N&o%5&O%}@o+7@}@T*Z&i&^*.*L#W*f=.&|$e.e.'+(.B@e.e.d+: _ _ _ _ 4#g.m=n=  ",
"  @ 5#F@=.,%l.'+(._ $*G%o=+._.e.e.p=:&q=R*p%r&}&r=8#1&S*-&s=]=f&g@t=b#b#v&u=V*w#v=t*W*w=x=:&B@_.(._ _ _ y=z=A=s.z.} } @.B=y H   ",
"  @ I F@=. $H.'+(.+.C=D=p=_ e.{.(.p=:&E=R*5&r&M&2=Q%b=-&X&s=5&f&g@b#b#b#v&F=G=H=/*(=W*I=J=6%(._.e._ _ : K=L=M=_._ _._ @.B=z N=e#",
"  @ I F@`#:$l.+.e.e.e.: : _._.(.(.{=|$E=:%5&N&r&H*O=1*X&a*b*P=f&g@o+Q=b#7&R=S=T=K*U=K#V=W=n&e.e.e.e.e._ X=a.j+_.e.e._ @.B=z N=  ",
"@ i.<*Y==. $l._ e.e.e.e.e.(.B@_.e.e.'@Z=`=N%N&N& -l=R%X&X&o%T%M&b#b#b#6&x@.-+-c#@-#-$-=*%-&-e.e.e.e.e._ +.'._ B@_._ _ @.w*L.`@. ",
". @ E@F@G@,%'*_ e.e.e.(.B@+.'.e.e.e.*-=---;->-,-'-)-!-~-{%{-]-^-/-(-_-:-<-[-}-|-1-2-3-4-I$5-d+6-_._._.e.e.'+'+e.e._ s.v*B=L.H   ",
". @ 7-Y=8- $l.} _ _._.(.(._ _._.e._._ ( 9-0-a-_ _.e.e.e.e._._._ e.'+_._ _ _ +._ _.e.e.e._.e._.+&_.e.e.e.e.e._._._ _ s.@.g.A b-e#",
"  i.c-] G@0=l._ _ e.e.e.e.e._ _ e.e._.e.d-e-[*_ _ _._.(._.e.e._ : e.(._ f-g-h-_.'+'+i-j-k-e.e.d+e.e.e.e.e._._._ l-m-n-8='=7 N=e#",
"  @ c-o-G@0=g+_ _ _.e.e.e.e._ _ _ e.e.e.e.: e.e.e.e.e.e.e.e.e.e.e.e.e._ p-q-r-_.{.s-t-u-v-e.e.e.e.e._._ _ e.: _ w-x-y-z-A-:$&.  ",
"+ @ 7-] B-C-D-E-[ _ _ e.e.d+_._ _ e.e.e.e.e.e.e.e.e.e.d+e.e.e.e.e.e._._ F-n-~=_ (.+.G-H-W@_.e.e.e._._._ _ e.e._.I-J-K-4#I%D N=  ",
"  @ L-o-B-C M-#._.s.z._ _._.e.e._ e.e._ _._._._.e.e.d+6-_._.(._.e.e._ _ _ } s.D.(._ _ _ _ _ _ +.(.(._._ _ _ e._ _ _ _ @.N-L.H   ",
"  i.O-P-7 D Q-W R-S-S-T-T-U-r r V-W-W-V-T-T-T-T-T-r r r X-r T-T-T-r T-V-T-V-R-T-T-T-T-T-V-V-V-V-X-T-T-Y-Z-T-T-V-V-T-T-`- ;L.Z e#",
"  .;+;L.L.7 7 :$:$:$L.:$:$:$:$:$:$:$:$:$:$:$:$:$:$:$:$:$:$:$:$:$:$:$:$:$:$:$:$:$:$:$:$:$:$:$:$:$:$:$-.:$:$:$:$:$:$7 7 7 7 z Z e#",
"    @;#;#;$;$;#;#;#;#;$;$;#;%;#;%;#;#;&;&;#;&;#;$;$;#;#;#;$;#;#;#;&;&;#;&;&;*;=;#;#;#;$;$;#;#;#;#;&;$;$;#;#;#;#;#;#;#;$;-;#;;;  ",
"                                    e#e#      e#e#        e#    e#e#e#    e#    e#e#  e#e#e#e#    e#e#    e#        e#          "};
