/* XPM */
static char * tube_yellow_64_xpm[] = {
"64 64 945 2",
"  	c #010101",
". 	c #000101",
"+ 	c #010100",
"@ 	c #000000",
"# 	c #000100",
"$ 	c #583A24",
"% 	c #5A3A23",
"& 	c #5A3923",
"* 	c #5B3923",
"= 	c #5B3A23",
"- 	c #5B3A22",
"; 	c #5B3922",
"> 	c #5C3A23",
", 	c #5A3922",
"' 	c #462B19",
") 	c #2B190E",
"! 	c #1B1008",
"~ 	c #9C5F34",
"{ 	c #A15F31",
"] 	c #A16032",
"^ 	c #A06031",
"/ 	c #A16031",
"( 	c #A26130",
"_ 	c #A36131",
": 	c #A36031",
"< 	c #A26030",
"[ 	c #A26031",
"} 	c #A26131",
"| 	c #A36130",
"1 	c #A16030",
"2 	c #A25F31",
"3 	c #A15F30",
"4 	c #A15E31",
"5 	c #A05E32",
"6 	c #7B4825",
"7 	c #532F18",
"8 	c #382111",
"9 	c #000001",
"0 	c #9C5F35",
"a 	c #A15E32",
"b 	c #8D532C",
"c 	c #8C532C",
"d 	c #8C532B",
"e 	c #8D522B",
"f 	c #8D542B",
"g 	c #8D542C",
"h 	c #8C542B",
"i 	c #8D532B",
"j 	c #8B542B",
"k 	c #8B542C",
"l 	c #8D532A",
"m 	c #8C542A",
"n 	c #8C532A",
"o 	c #8B532B",
"p 	c #8C542C",
"q 	c #8C522B",
"r 	c #734323",
"s 	c #533019",
"t 	c #371F10",
"u 	c #9D5F35",
"v 	c #A05F31",
"w 	c #573018",
"x 	c #532E18",
"y 	c #522E18",
"z 	c #522F19",
"A 	c #522E19",
"B 	c #522F18",
"C 	c #522E16",
"D 	c #522F17",
"E 	c #522E17",
"F 	c #512E16",
"G 	c #532F1A",
"H 	c #371F11",
"I 	c #9D6034",
"J 	c #563017",
"K 	c #63341B",
"L 	c #65351B",
"M 	c #6F4123",
"N 	c #704224",
"O 	c #704223",
"P 	c #6F4223",
"Q 	c #6F4222",
"R 	c #704222",
"S 	c #704122",
"T 	c #6F4224",
"U 	c #6A3B1E",
"V 	c #66351B",
"W 	c #67351A",
"X 	c #5C311A",
"Y 	c #512F19",
"Z 	c #351F11",
"` 	c #9D5F34",
" .	c #803D1F",
"..	c #853E1E",
"+.	c #A36132",
"@.	c #955028",
"#.	c #883E1E",
"$.	c #853D1E",
"%.	c #6D361B",
"&.	c #361F11",
"*.	c #9F5F31",
"=.	c #573118",
"-.	c #532E17",
";.	c #8A4825",
">.	c #8E4825",
",.	c #A36033",
"'.	c #A36032",
").	c #B66F3B",
"!.	c #BA723C",
"~.	c #A76433",
"{.	c #A46033",
"].	c #AF6634",
"^.	c #B26834",
"/.	c #A66332",
"(.	c #A46132",
"_.	c #A46131",
":.	c #B16B38",
"<.	c #B9713B",
"[.	c #AB6735",
"}.	c #98542B",
"|.	c #8E4724",
"1.	c #874221",
"2.	c #6B361B",
"3.	c #543019",
"4.	c #382011",
"5.	c #532E16",
"6.	c #E6914D",
"7.	c #F09851",
"8.	c #B36C39",
"9.	c #CD7537",
"0.	c #D77838",
"a.	c #B06633",
"b.	c #D68647",
"c.	c #EF9951",
"d.	c #C47A40",
"e.	c #A46031",
"f.	c #935028",
"g.	c #6E371C",
"h.	c #361E11",
"i.	c #010000",
"j.	c #573017",
"k.	c #522E15",
"l.	c #9F5F32",
"m.	c #B56F39",
"n.	c #B76F3A",
"o.	c #A56333",
"p.	c #D78848",
"q.	c #E08E4B",
"r.	c #AF6B37",
"s.	c #A36231",
"t.	c #B46935",
"u.	c #B76B35",
"v.	c #A76332",
"w.	c #C57137",
"x.	c #CD7438",
"y.	c #AE6633",
"z.	c #A26231",
"A.	c #A26132",
"B.	c #CA7F43",
"C.	c #BD743D",
"D.	c #A36232",
"E.	c #935027",
"F.	c #6D371B",
"G.	c #381F10",
"H.	c #A05F32",
"I.	c #EB9751",
"J.	c #F09951",
"K.	c #AE6936",
"L.	c #532F19",
"M.	c #563018",
"N.	c #AF6534",
"O.	c #E08E4D",
"P.	c #E4904D",
"Q.	c #AC6735",
"R.	c #695B14",
"S.	c #AD951A",
"T.	c #ADA135",
"U.	c #AFA658",
"V.	c #B0A864",
"W.	c #B1A865",
"X.	c #B1A963",
"Y.	c #B0A862",
"Z.	c #AFA85F",
"`.	c #ADA137",
" +	c #ADA134",
".+	c #ADA133",
"++	c #ACA133",
"@+	c #ACA134",
"#+	c #ACA137",
"$+	c #AA9824",
"%+	c #AB900E",
"&+	c #AD9313",
"*+	c #766108",
"=+	c #3D3308",
"-+	c #A46032",
";+	c #A45F33",
">+	c #D5783B",
",+	c #D87A3A",
"'+	c #A96332",
")+	c #8F7B17",
"!+	c #E9C715",
"~+	c #EDDB41",
"{+	c #F8EA6E",
"]+	c #FBED79",
"^+	c #FBEE7D",
"/+	c #FEF38A",
"(+	c #FFF38B",
"_+	c #FDEF7B",
":+	c #F8EA6F",
"<+	c #EBDA41",
"[+	c #ECDB40",
"}+	c #ECDB41",
"|+	c #EDDB42",
"1+	c #ECDB42",
"2+	c #EACF2D",
"3+	c #EDC80F",
"4+	c #EDC710",
"5+	c #A58702",
"6+	c #5E4F0B",
"7+	c #A46030",
"8+	c #6C371B",
"9+	c #371F12",
"0+	c #9F5F33",
"a+	c #CB743A",
"b+	c #CE7539",
"c+	c #A86332",
"d+	c #69580E",
"e+	c #A18503",
"f+	c #A88B02",
"g+	c #EFCC0F",
"h+	c #FAD405",
"i+	c #FADB3B",
"j+	c #FDF38A",
"k+	c #FADD43",
"l+	c #FAD508",
"m+	c #EFCB0A",
"n+	c #A38702",
"o+	c #A28502",
"p+	c #A28601",
"q+	c #A38602",
"r+	c #A38603",
"s+	c #A28602",
"t+	c #A68902",
"u+	c #A78A02",
"v+	c #A48802",
"w+	c #A18601",
"x+	c #62530C",
"y+	c #AA6432",
"z+	c #6C361B",
"A+	c #957F15",
"B+	c #F3CE09",
"C+	c #F8E63A",
"D+	c #FAE93F",
"E+	c #FAEB58",
"F+	c #FCF38A",
"G+	c #FDF48A",
"H+	c #FADE46",
"I+	c #FADD25",
"J+	c #F7E63A",
"K+	c #F4D00A",
"L+	c #F2CF08",
"M+	c #F2CE07",
"N+	c #F2CE08",
"O+	c #F2CF09",
"P+	c #F2CE09",
"Q+	c #F3CE0A",
"R+	c #DCBA0B",
"S+	c #D9B505",
"T+	c #D9B504",
"U+	c #C0A105",
"V+	c #A38801",
"W+	c #61520B",
"X+	c #C57036",
"Y+	c #D8793A",
"Z+	c #BB6C35",
"`+	c #934F27",
" @	c #372011",
".@	c #020201",
"+@	c #998315",
"@@	c #FBD306",
"#@	c #FCD207",
"$@	c #F8E63D",
"%@	c #FAEB47",
"&@	c #F9ED59",
"*@	c #FADD44",
"=@	c #FADE2D",
"-@	c #F8E742",
";@	c #FAD204",
">@	c #FAD304",
",@	c #F9D304",
"'@	c #F9D204",
")@	c #F9D206",
"!@	c #DEBB09",
"~@	c #A38701",
"{@	c #DEB802",
"]@	c #E0B901",
"^@	c #C2A203",
"/@	c #A48801",
"(@	c #C06E36",
"_@	c #D07639",
":@	c #B66A34",
"<@	c #934F28",
"[@	c #9C6034",
"}@	c #9A8316",
"|@	c #FBD207",
"1@	c #FCD208",
"2@	c #F9E53F",
"3@	c #F9EB47",
"4@	c #F9ED5A",
"5@	c #FEF389",
"6@	c #FADE2E",
"7@	c #F9E744",
"8@	c #FAD104",
"9@	c #FBD204",
"0@	c #FBD104",
"a@	c #FBD205",
"b@	c #FBD206",
"c@	c #FBD105",
"d@	c #DEBC09",
"e@	c #DFB802",
"f@	c #DFB801",
"g@	c #C3A204",
"h@	c #61510A",
"i@	c #A46232",
"j@	c #945027",
"k@	c #362010",
"l@	c #9C6135",
"m@	c #9F6032",
"n@	c #573117",
"o@	c #532E15",
"p@	c #B06B37",
"q@	c #998317",
"r@	c #FBD208",
"s@	c #FBD209",
"t@	c #F9E63F",
"u@	c #F9EC5A",
"v@	c #FADE2C",
"w@	c #F8E743",
"x@	c #FAD305",
"y@	c #FAD205",
"z@	c #F8D306",
"A@	c #C4A304",
"B@	c #A38700",
"C@	c #AC6836",
"D@	c #B26C38",
"E@	c #AA6635",
"F@	c #925027",
"G@	c #381F11",
"H@	c #532F15",
"I@	c #E8944F",
"J@	c #9A8217",
"K@	c #FBD309",
"L@	c #F9E740",
"M@	c #F9EC59",
"N@	c #FADD45",
"O@	c #FADD2C",
"P@	c #F9D306",
"Q@	c #DEB902",
"R@	c #C3A304",
"S@	c #62530B",
"T@	c #D58547",
"U@	c #F29C52",
"V@	c #CB8043",
"W@	c #563016",
"X@	c #998215",
"Y@	c #FCD309",
"Z@	c #FEF48A",
"`@	c #FADD2B",
" #	c #FAD306",
".#	c #FAD206",
"+#	c #DEBC08",
"@#	c #DEBA03",
"##	c #A38800",
"$#	c #61520C",
"%#	c #CE8144",
"&#	c #E7934E",
"*#	c #C37A40",
"=#	c #945028",
"-#	c #9C6035",
";#	c #FAED5B",
">#	c #FDF38B",
",#	c #FBDC44",
"'#	c #F9DD2C",
")#	c #F8E843",
"!#	c #FCD205",
"~#	c #F9D305",
"{#	c #DDB802",
"]#	c #E1B901",
"^#	c #C1A203",
"/#	c #010201",
"(#	c #9F6031",
"_#	c #927D1A",
":#	c #ECC811",
"<#	c #E9C40E",
"[#	c #EAD639",
"}#	c #ECDD42",
"|#	c #EADC4E",
"1#	c #EEE178",
"2#	c #EFE279",
"3#	c #EACE3E",
"4#	c #E9CE28",
"5#	c #E9D83C",
"6#	c #EAC60E",
"7#	c #E9C50D",
"8#	c #EAC50D",
"9#	c #E9C60E",
"0#	c #E9C60D",
"a#	c #EAC60D",
"b#	c #D4B50D",
"c#	c #D1AF06",
"d#	c #D1AF05",
"e#	c #BB9D05",
"f#	c #392012",
"g#	c #9E6031",
"h#	c #AC6835",
"i#	c #645410",
"j#	c #9F8407",
"k#	c #A08507",
"l#	c #A28706",
"m#	c #9F8406",
"n#	c #A18606",
"o#	c #9D8306",
"p#	c #A08506",
"q#	c #9F8505",
"r#	c #9E8406",
"s#	c #9F8506",
"t#	c #9E8506",
"u#	c #9E8405",
"v#	c #A08606",
"w#	c #A08607",
"x#	c #A48906",
"y#	c #A58907",
"z#	c #A08505",
"A#	c #A18605",
"B#	c #60510E",
"C#	c #6D371C",
"D#	c #9B6035",
"E#	c #573119",
"F#	c #532F16",
"G#	c #EC9550",
"H#	c #F19951",
"I#	c #040402",
"J#	c #080602",
"K#	c #0D0C03",
"L#	c #0C0902",
"M#	c #070501",
"N#	c #090701",
"O#	c #0B0902",
"P#	c #090702",
"Q#	c #0A0701",
"R#	c #0A0802",
"S#	c #090802",
"T#	c #0A0702",
"U#	c #0A0801",
"V#	c #090601",
"W#	c #0C0901",
"X#	c #0C0A03",
"Y#	c #080601",
"Z#	c #030302",
"`#	c #532F17",
" $	c #E7924F",
".$	c #EC944F",
"+$	c #AB6634",
"@$	c #776214",
"#$	c #876F0E",
"$$	c #826C0D",
"%$	c #816A0E",
"&$	c #866E0E",
"*$	c #846C0D",
"=$	c #836B0E",
"-$	c #846D0E",
";$	c #826B0E",
">$	c #856D0E",
",$	c #866F0E",
"'$	c #836D0E",
")$	c #876E0E",
"!$	c #856E0E",
"~$	c #856E0F",
"{$	c #866F0F",
"]$	c #836D0D",
"^$	c #756214",
"/$	c #020302",
"($	c #A58813",
"_$	c #AC8E03",
":$	c #A98B02",
"<$	c #B69705",
"[$	c #B79705",
"}$	c #C7AF27",
"|$	c #CAB730",
"1$	c #C6B22A",
"2$	c #BC9C04",
"3$	c #BE9C05",
"4$	c #AD8E03",
"5$	c #A78A03",
"6$	c #B99A06",
"7$	c #A38601",
"8$	c #AE8F04",
"9$	c #B09203",
"0$	c #A18501",
"a$	c #927A0F",
"b$	c #020202",
"c$	c #CFB123",
"d$	c #C2A40F",
"e$	c #BEA00E",
"f$	c #E3C318",
"g$	c #E0C017",
"h$	c #F0DE42",
"i$	c #FAEF56",
"j$	c #F4E64A",
"k$	c #E2C119",
"l$	c #E3C317",
"m$	c #C5A70F",
"n$	c #BFA10F",
"o$	c #B69709",
"p$	c #B39608",
"q$	c #B29607",
"r$	c #B49607",
"s$	c #A48803",
"t$	c #CAA907",
"u$	c #CDAC05",
"v$	c #AD9104",
"w$	c #AB8F04",
"x$	c #A88C03",
"y$	c #937C11",
"z$	c #A86231",
"A$	c #A96231",
"B$	c #A56231",
"C$	c #9E5F32",
"D$	c #563118",
"E$	c #533016",
"F$	c #E3D64B",
"G$	c #F9DD29",
"H$	c #F8D71D",
"I$	c #F9EB46",
"J$	c #F9EC47",
"K$	c #FBF27A",
"L$	c #FCF38B",
"M$	c #FCF283",
"N$	c #FAED49",
"O$	c #F9DD28",
"P$	c #F9DA20",
"Q$	c #FBEC45",
"R$	c #FAD608",
"S$	c #F9D406",
"T$	c #F9D307",
"U$	c #F9D407",
"V$	c #AE9205",
"W$	c #DEBD0D",
"X$	c #DEBE0A",
"Y$	c #DCB802",
"Z$	c #C2A104",
"`$	c #907A11",
" %	c #E9914B",
".%	c #F1994F",
"+%	c #C47A3F",
"@%	c #A26232",
"#%	c #A66331",
"$%	c #A86431",
"%%	c #A56331",
"&%	c #924F27",
"*%	c #542F18",
"=%	c #382010",
"-%	c #E1D44A",
";%	c #F9DD2B",
">%	c #F9D81F",
",%	c #F8EB46",
"'%	c #F9EA46",
")%	c #FBF17C",
"!%	c #FCF281",
"~%	c #F9EB48",
"{%	c #F9DC2B",
"]%	c #FAD921",
"^%	c #FBED47",
"/%	c #F9D408",
"(%	c #F9D208",
"_%	c #F9D308",
":%	c #B19506",
"<%	c #DCBB0A",
"[%	c #DFBD09",
"}%	c #A48901",
"|%	c #DCB703",
"1%	c #DFB702",
"2%	c #917910",
"3%	c #E78F48",
"4%	c #F09850",
"5%	c #C47940",
"6%	c #A46231",
"7%	c #D38446",
"8%	c #F09A51",
"9%	c #C97D41",
"0%	c #6E371B",
"a%	c #A56131",
"b%	c #E2D44B",
"c%	c #F9DC2A",
"d%	c #FAD820",
"e%	c #F9EA47",
"f%	c #FBF178",
"g%	c #FEF38B",
"h%	c #FCF27F",
"i%	c #FAEB48",
"j%	c #FBEC46",
"k%	c #FAD308",
"l%	c #B09306",
"m%	c #DCB803",
"n%	c #DEB602",
"o%	c #C3A104",
"p%	c #937B10",
"q%	c #A46130",
"r%	c #D28346",
"s%	c #F09852",
"t%	c #C97C41",
"u%	c #E3D54C",
"v%	c #FADD2A",
"w%	c #F9EA48",
"x%	c #FCF078",
"y%	c #FAEB49",
"z%	c #F9D920",
"A%	c #FAD30A",
"B%	c #F9D209",
"C%	c #AF9306",
"D%	c #DCBB09",
"E%	c #DFBD08",
"F%	c #DDB703",
"G%	c #DEB702",
"H%	c #927B10",
"I%	c #A56130",
"J%	c #A36030",
"K%	c #E2D54B",
"L%	c #FAD81F",
"M%	c #FCF179",
"N%	c #F9DA21",
"O%	c #FAD309",
"P%	c #927A10",
"Q%	c #A66131",
"R%	c #A56031",
"S%	c #F8EA47",
"T%	c #FDF27F",
"U%	c #F8EA46",
"V%	c #FAD40A",
"W%	c #F9D309",
"X%	c #B09405",
"Y%	c #DCBB08",
"Z%	c #DFBC08",
"`%	c #DDB803",
" &	c #DFB803",
".&	c #C2A204",
"+&	c #917A10",
"@&	c #C37036",
"#&	c #D77939",
"$&	c #A56030",
"%&	c #F9DC2C",
"&&	c #FAD920",
"*&	c #F9D207",
"=&	c #B09406",
"-&	c #DCBA08",
";&	c #C3A105",
">&	c #927A11",
",&	c #D67839",
"'&	c #BA6B35",
")&	c #EB9652",
"!&	c #EF9952",
"~&	c #F09953",
"{&	c #EF9853",
"]&	c #F9DC29",
"^&	c #FCF079",
"/&	c #FADB2A",
"(&	c #FAEC45",
"_&	c #B19306",
":&	c #DCB603",
"<&	c #DFB602",
"[&	c #C3A205",
"}&	c #927A12",
"|&	c #ED9651",
"1&	c #F29B53",
"2&	c #AB6734",
"3&	c #FAD71F",
"4&	c #FCF178",
"5&	c #FDF180",
"6&	c #FADC2A",
"7&	c #FAEB46",
"8&	c #DEBD08",
"9&	c #6D381C",
"0&	c #EB9650",
"a&	c #F09A52",
"b&	c #AD6835",
"c&	c #E2D54A",
"d&	c #F9DD2A",
"e&	c #FDF280",
"f&	c #FAEB45",
"g&	c #6E381C",
"h&	c #542F19",
"i&	c #9F6033",
"j&	c #A26032",
"k&	c #EA9650",
"l&	c #FAD81E",
"m&	c #F9EB45",
"n&	c #FBEC44",
"o&	c #F8D309",
"p&	c #DBBA09",
"q&	c #DFBC09",
"r&	c #9D6035",
"s&	c #A86433",
"t&	c #A96433",
"u&	c #F9EA45",
"v&	c #FCF280",
"w&	c #F9D30A",
"x&	c #A28701",
"y&	c #917A11",
"z&	c #D58647",
"A&	c #EE9851",
"B&	c #C37840",
"C&	c #944F27",
"D&	c #E2D44A",
"E&	c #FAD30B",
"F&	c #DBBA0A",
"G&	c #DDB601",
"H&	c #D98848",
"I&	c #F19A52",
"J&	c #C57A41",
"K&	c #F9D81E",
"L&	c #FFF48A",
"M&	c #937A12",
"N&	c #A86434",
"O&	c #573218",
"P&	c #F8EB45",
"Q&	c #FAD409",
"R&	c #AF9407",
"S&	c #DBBB09",
"T&	c #DFBD0A",
"U&	c #927B12",
"V&	c #955128",
"W&	c #6F381C",
"X&	c #F9D71E",
"Y&	c #F8EA45",
"Z&	c #F9D40A",
"`&	c #DCBA0A",
" *	c #502F18",
".*	c #351F10",
"+*	c #E3D54B",
"@*	c #F8E947",
"#*	c #FCF17E",
"$*	c #F9DB29",
"%*	c #FBEC47",
"&*	c #B19407",
"**	c #DCBA09",
"=*	c #D28245",
"-*	c #EA924E",
";*	c #C3773E",
">*	c #FCF17F",
",*	c #FAD209",
"'*	c #B09307",
")*	c #DBBA08",
"!*	c #DEBD0A",
"~*	c #DDB603",
"{*	c #937A11",
"]*	c #D88647",
"^*	c #F29850",
"/*	c #C87A40",
"(*	c #72381C",
"_*	c #562F18",
":*	c #3A2111",
"<*	c #904925",
"[*	c #8F4624",
"}*	c #E2D64B",
"|*	c #F9D71F",
"1*	c #FCF177",
"2*	c #F9D921",
"3*	c #FAEB44",
"4*	c #FAD408",
"5*	c #FBD308",
"6*	c #B09407",
"7*	c #DFBC0A",
"8*	c #A48701",
"9*	c #AD6836",
"0*	c #A96634",
"a*	c #CD8043",
"b*	c #E6914B",
"c*	c #C4793F",
"d*	c #965128",
"e*	c #6F371B",
"f*	c #8C4322",
"g*	c #8B3F1F",
"h*	c #A15E30",
"i*	c #A56132",
"j*	c #E1D64C",
"k*	c #FDF27E",
"l*	c #FCD308",
"m*	c #D48546",
"n*	c #512D18",
"o*	c #9F5B30",
"p*	c #9F5B2F",
"q*	c #E2D64C",
"r*	c #F9EC48",
"s*	c #C4A205",
"t*	c #937B11",
"u*	c #B26B37",
"v*	c #A96533",
"w*	c #954F28",
"x*	c #72381B",
"y*	c #542F16",
"z*	c #E1D54B",
"A*	c #F9E947",
"B*	c #F8E945",
"C*	c #FAD20A",
"D*	c #B19307",
"E*	c #A48702",
"F*	c #522F16",
"G*	c #E08E4C",
"H*	c #AA6636",
"I*	c #F8E948",
"J*	c #FDF17E",
"K*	c #DBBB0A",
"L*	c #512E17",
"M*	c #351E10",
"N*	c #AC6736",
"O*	c #A56232",
"P*	c #B19507",
"Q*	c #DCBB0B",
"R*	c #A58802",
"S*	c #947B12",
"T*	c #BE6C34",
"U*	c #CE7336",
"V*	c #B66933",
"W*	c #6F371C",
"X*	c #B46E39",
"Y*	c #B66F3A",
"Z*	c #E1D64A",
"`*	c #FCF077",
" =	c #DEB803",
".=	c #DFB701",
"+=	c #937B12",
"@=	c #C46F35",
"#=	c #D77937",
"$=	c #BB6B34",
"%=	c #372010",
"&=	c #B29408",
"*=	c #DEB703",
"==	c #C2A105",
"-=	c #AB6433",
";=	c #A06032",
">=	c #F9D820",
",=	c #FAEA46",
"'=	c #FDF178",
")=	c #FEF387",
"!=	c #FAEA45",
"~=	c #F9D91F",
"{=	c #B39508",
"]=	c #DEBB08",
"^=	c #A68901",
"/=	c #D0AD08",
"(=	c #CFAE06",
"_=	c #BD9F06",
":=	c #947C11",
"<=	c #E1D751",
"[=	c #F8DE30",
"}=	c #F8D823",
"|=	c #F9EB49",
"1=	c #FCF27E",
"2=	c #F9EC4A",
"3=	c #F8DD2B",
"4=	c #F8DA25",
"5=	c #FAED4C",
"6=	c #F8D414",
"7=	c #F9D411",
"8=	c #FAD312",
"9=	c #FAD311",
"0=	c #FAD413",
"a=	c #B2950E",
"b=	c #D8B812",
"c=	c #E0BF13",
"d=	c #A38606",
"e=	c #A28606",
"f=	c #A38706",
"g=	c #A58A07",
"h=	c #957D13",
"i=	c #A4602F",
"j=	c #9E6135",
"k=	c #573217",
"l=	c #E9924C",
"m=	c #F49A50",
"n=	c #B56F3A",
"o=	c #362011",
"p=	c #9F6136",
"q=	c #B8703A",
"r=	c #BB723B",
"s=	c #96512A",
"t=	c #914926",
"u=	c #9E5A2E",
"v=	c #CE8043",
"w=	c #E08C49",
"x=	c #BB723C",
"y=	c #99542B",
"z=	c #934A26",
"A=	c #9C582D",
"B=	c #A16132",
"C=	c #914A26",
"D=	c #8B3F20",
"E=	c #9D582D",
"F=	c #A46133",
"G=	c #DB8947",
"H=	c #F2974E",
"I=	c #C4773F",
"J=	c #954E28",
"K=	c #8A3E20",
"L=	c #99532B",
"M=	c #965028",
"N=	c #71381C",
"O=	c #583117",
"P=	c #552F16",
"Q=	c #8D4926",
"R=	c #904A25",
"S=	c #9E5B2E",
"T=	c #B56E39",
"U=	c #BD743C",
"V=	c #9F5C2F",
"W=	c #9D592E",
"X=	c #A05E2F",
"Y=	c #9E6136",
"Z=	c #833D20",
"`=	c #70371C",
" -	c #6E4326",
".-	c #704324",
"+-	c #65351C",
"@-	c #724324",
"#-	c #724424",
"$-	c #724323",
"%-	c #734324",
"&-	c #724423",
"*-	c #734424",
"=-	c #734423",
"--	c #724223",
";-	c #724322",
">-	c #6C3C1E",
",-	c #5D3219",
"'-	c #010001",
")-	c #502F1A",
"!-	c #2C1B11",
"~-	c #2D1A0E",
"{-	c #2D1A0F",
"]-	c #2C1A0E",
"^-	c #2E1A0E",
"/-	c #2E1A0F",
"(-	c #2E190E",
"_-	c #2D190E",
":-	c #1D1009",
"        .                                                         +           . .                   @ @ .     @ @ @     @ @ @   ",
"# @ $ % & * * = - = = = = = * ; - = ; & ; = - = - - > - ; , * ; , ; , , ; * , & * , , - = & , = ; , ; , - - ; , * & , ; ' ) !   ",
"# @ ~ { { ] ^ / ( _ : _ _ _ < < < < [ / / } | ( } _ _ } [ < 1 1 1 1 1 ^ 1 ^ / / 1 ^ 1 1 ( / [ ( < 1 < 1 < < < 2 3 4 4 5 6 7 8   ",
"9 @ 0 a b c d e b f f g f f h d i i j k d f f d d l f i d d h d m j n o d c n h p o n d d c c f n d d h d n n n q q e c r s t   ",
"  @ u v w x y y y z z z z y y A y y y y B B y C C C y y y D y E E E y y y E B B E C C C E y B z y B y C E y y E D y F E B G H   ",
"  @ I v J E K L M M N O O O P P P O O O O O P Q R R O O O O O O Q O O O O O O O Q S R O O O P T O P O O S O O O O U V W X Y Z   ",
"  @ ` v w E  ...[ _ _ _ _ < } } +._ _ _ _ _ _ _ _ _ } _ _ _ +._ _ _ _ _ _ _ _ _ _ _ _ _ _ _ _ +._ _ _ _ _ +._ _ _ @.#.$.%.s &.  ",
"  @ I *.=.-.;.>.[ _ +._ _ _ _ +.,.'.).!.~._ _ +._ ,.{._ +._ ].^./._ '.+._ (._._ _ _ _ _ +._ (._.:.<.[._ _ _ _ _ _ }.|.1.2.3.4.  ",
"@ @ I v w 5.5 _ _ _ _ _ _ +._ +.,.'.6.7.8.} _ _.'.{.{._ _ _.9.0.a.+.,.'._ _ +._ _ _ _ '.,._ _ _ b.c.d._ _ _ e._ _ _ _ f.g.z h.  ",
"  i.I v j.k.l._ _ _ _ _ m.n.o._ (.+.p.q.r.s.e._.'.'.t.u.v._ w.x.y.(.{.+._ z.+._ _ _ _ ,.,._._ A.B.q.C._ _ _ _.+.D.D.} E.F.7 G.  ",
"  i.I v J k.H._ +.+._ _.I.J.K._ @ @ @ @ @ @ @ @ @ @ @ @ @ @ @ @ @ @ @ @ @ @ @ @ @ @ @ @ @ @ @ @ +.: e._ _ _.(.{.(._ } E.F.L.4.  ",
"+ @ I v M.C H.e.,.,.N.a.O.P.Q.@ R.S.T.U.V.W.X.Y.V.Y.Z.`. +.+++ + + +.+++ + + +T.@+`.#+$+%+&+*+=+@ _ _ _ _.e.e.{.-+_ _ f.F.z &.  ",
"+ i.` v M.E l._ '.;+>+,+'+_ _ @ )+!+~+{+]+^+/+(+_+]+:+<+[+[+[+[+[+[+[+[+[+}+}+}+|+|+1+2+3+4+5+6+@ _ _ _ _.7+e.{.-+_ _ f.8+L.9+  ",
"  @ ` v M.E 0+_ +.,.a+b+c+_ _ @ d+e+f+g+h+i+j+j+k+l+m+n+o+p+o+q+q+o+r+q+s+q+s+n+t+s+s+u+v+w+n+x+@ _ y+y.c+_._._._._ _ E.z+z H   ",
"  @ ` v J 5.l._ _ _ _ } } _ _ @ A+B+B+C+D+E+F+G+H+I+J+K+L+M+M+L+L+B+B+N+O+P+Q+R+w+S+T+U+n+V+V+W+@ _.X+Y+Z+_ _ s._ _ _ `+8+B  @.@",
"  @ I v M.E l.} _ _ _ _ _ _ _ @ +@@@#@$@%@&@F+/+*@=@-@;@>@,@;@,@>@;@'@,@,@,@)@!@~@{@]@^@n+/@n+W+@ -+(@_@:@_ _ _ _ _ _ <@F.3.4.  ",
"@ @ [@v J C l._ _ _ _ _ _ _ _.@ }@|@1@2@3@4@j+5@*@6@7@8@9@9@9@;@0@9@a@,@b@c@)@d@v+e@f@g@n+v+~@h@@ -+_ _ _ D.i@_ _ _ _ j@g.L.k@. ",
". @ l@m@n@o@l._ _ '._ _ _ _ p@@ q@r@s@t@3@u@F+/+k+v@w@9@;@;@;@;@9@9@x@,@y@a@z@d@v+{@f@A@B@B@B@h@@ _ _._._ _.C@D@E@(._ F@8+L.G@  ",
"  @ [@v n@H@l.} _ _ z.D.s._ I@@ J@r@K@L@3@M@F+/+N@O@-@;@9@>@'@9@9@;@>@a@x@b@P@d@v+Q@f@R@~@B@/@S@@ _ _ e.e._ T@U@V@z.} F@z+L.G@  ",
"  @ I v W@k.l._ _ _ D._ _ _ q.@ X@|@Y@t@3@4@F+Z@N@`@-@;@9@9@;@;@9@9@;@a@>@ #.#+#V+@#f@g@n+V+##$#@ _ _ e.e._ %#&#*#s.i@=#F.z Z   ",
"+ @ -#*.j.o@l._ _ (._ _ _ +.| @ q@|@s@t@3@;#>#/+,#'#)#9@0@!#a@;@;@;@,@~#,@ #z@d@n+{#]#^#n+~@B@$#@ _ _ _ _ _ _ : _ _ _ f.F.z H /#",
"@ @ l@(#J C l._ _ _ _ _ _ _ _ @ _#:#<#[#}#|#1#2#3#4#5#6#7#8#8#9#6#0#8#8#a#8#0#b#s+c#d#e#n+B@B@$#@ _ _ _._._ ,._ +._ _ E.8+L.f#  ",
"  @ l@g#M.-.l._ _ _ Q.h#s._ _ @ i#j#k#l#m#n#j#m#n#m#o#m#p#q#r#s#s#t#u#m#v#w#q#s#x#p#r#x#y#z#A#B#@ D._ e.e.-+,.+.+.+._ E.C#L.H   ",
"  @ D#(#E#F#l._ _ _ G#H#Q.e.e.e.I#J#K#L#M#N#O#P#N#Q#N#R#R#P#N#N#S#P#T#T#N#U#R#V#V#R#R#V#W#X#Y#Z#A._ e.e.e._._._ _ _ _ f.C#z &.  ",
"# @ D#*.M.`#m@_ _ '. $.$+$e.: _._ @   @$#$$$%$&$*$=$&$-$;$>$,$'$>$)$!$!$!$-$)$!$'$~${$]$^$/$@ : _ _ _ _.-+-+-+e.e._ _ `+C#z  @/#",
"# @ -#l.M.7 m@_ _ _ | | _ _._ _ _ _ /#($_$:$<$[$}$|$1$2$3$4$5$6$/@~@n+p+7$~@8$9$/@p+0$~@a$9 e.e.'._ _ _ +.(.e.e.e._ _ `+F.L.4.  ",
"+ @ ~ *.=.`#l._ _ _ _ _ _ _ _ _ _ _ b$c$d$e$f$g$h$i$j$k$l$m$n$f$o$p$q$r$p$s$t$u$~@v$w$x$y$. z$A$B$+.+._ _ D._ _ e._._ E.F.z H   ",
"  i.0 C$D$E$l._ _ _ _ _ _ _ _ _ _ | /#F$G$H$I$J$K$L$M$N$I$O$P$Q$R$S$T$P@U$V$W$X$w+Y$e@Z$`$   %.%+%_ e._ _ _ _ @%#%$%%%&%F.*%=%  ",
"  @ ~ *.=.F#l._ _ _ _ _ _._._ _ _ _   -%;%>%,%'%)%L$!%,%~%{%]%^%/%P@(%(%_%:%<%[%}%|%1%g@2%  3%4%5%_.e._.e._.6%_ 7%8%9%`+0%7 &.  ",
"  @ [@v =.5.l._ +.-+a%-+-+e.e.e._._   b%c%d%e%e%f%g%h%3@i%{%]%j%k%P@(%(%_%l%<%[%/@m%n%o%p%  q%7+_ _ e.e.e.e._ _ r%s%t%=#0%z H   ",
"@ @ I v =.5.l._ (.(.e._._ e.{.-+e._   u%v%d%e%w%x%/+h%e%y%;%z%j%A%(%(%B%B%C%D%E%V+F%G%g@H%  _ _ _ _ _ ( _ e.e.: q%I%J%`+8+L.H   ",
"+ @ -#*.=.5.l._ _ e.e._ _ (.e.e.e._   K%v%L%e%~%M%/+h%e%i%;%N%j%O%T$(%B%B%l%D%E%##F%e@g@P%  _ _ _ _ _ _ _.Q%R%e._ _ } <@g.G H   ",
"+ @ -#m@w -.l._ _ (.(.+._ _ e.e.e.e./#K%;%L%S%3@M%/+T%U%~%{%]%j%V%_%(%W%W%X%Y%Z%/@`% &.&+&  _ _ _ _ _ _ @&#&Z+_._ _ } f.C#L. @  ",
"  @ -#m@w -.l._ q%I%a%$&_ _ _ _ _ _.  K%c%L%e%e%M%/+h%3@i%%&&&Q$A%*&(%(%B%=&-&E%/@|%G%;&>&  _ e.e.e._ _ @&,&'&e._._ _ `+g.L.H   ",
"  i.-#m@M.5.l.| )&!&~&{&[.+._ +.-+-+. b%]&L%e%e%^&/+T%e%i%/&&&(&O%(%(%(%B%_&D%[%/@:&<&[&}&  e.e.e.e.e._ _.I%_.(._._ _ E.C#z &.  ",
"  @ [@*.n@F#l.J%|&1&H#J.2&: e.e.e.-+  b%c%3&e%I$4&/+5&e%3@6&d%7&O%O%(%(%B%l%D%8&V+|%G%[&}&  e.: _._._._ _ i@_ +.e._ _ E.9&L.9+  ",
"  @ [@(#n@E$l._ v.c+0&a&b&e.e.e.e.e.  c&d&3&e%I$4&/+e&'%I$;%]%f&A%O%(%(%W%=&D%[%V+m%e@[&>&  _ _ z._ _ D._ _ _ _ _ } } f.g&h&H   ",
"  @ -#(#D$`#i&_ } j&k&c.Q._ _ _ _ _ /#c&v%l&I$m&4&/+e&3@%@;%&&n&V%O%o&W%W%C%p&q&~@m%G%[&>&  | | _ _ _ _ _._ s.z.+._ } =#g&z H b$",
"@ @ r&l.E#`#m@} _ _ s&t&_.e._ _ _ _   c&]&L%'%u&x%/+v&3@3@{%P$Q$A%W%o&o&w&C%p&[%x&F%n%o%y&  z&A&B&_ _ (.(._._ _ _ e._ C&g.z  @/#",
"# @ -#*.n@F#l._ +.'.e.e.e._.(._.-+-+  D&c%>%'%u&x%/+e&3@3@/&]%j%E&W%B%W%B%l%F&d@p+:&G&o%>&  H&I&J&_ _ -+e.e._._ _ e._ j@g.z H   ",
"  @ l@m@=.`#l._ +._ _ (.(.(._.e.-+-+  c&]&K&S%u&4&L&T%'%3@{%&&f&A%O%W%W%W%l%D%d@/@|%G%g@M&  N&+$/.D.s._ e.e.-+e._ _ _ =#g&s G@  ",
"  @ l@m@O&F#l._ _ _ _._.(.(.e.e.e.-+/#c&c%>%S%P&4&/+v&U%3@c%]%n&Q&K@W%O%W%R&S&T&V+`%G%.&U&/#+.A.} _ _ _ _ _ e.(.+._.D.V&W&z &.  ",
"# @ -#(#n@F#l._ _ _ _._._.e.e._._.+.  K%c%X&u&Y&M%5@T%m&3@c%]%Q$Z&O%O%O%w&=&`&[%V+|%G%.&U&/#+.,.+._ _ _ _ +.(.+.e._._ =#g. *.*b$",
"  @ [@*.j.o@l._ _ _ e._._._ e._.+.+.  +*{%>%@*u&x%/+#*u&i%$*&&%*A%O%O%O%w&&***d@/@:&G%Z$}&  _._ _ e.=*-*;*_ _ _._ _ _ j@0%B =%  ",
"# i.-#(#n@F#l._ _ _ e.: _ _ _ (.'._   K%d&L%U%u&x%5@>*Y&'%c%]%f&A%K@O%O%,*'*)*!*v+~*n%g@{*  e._ e._ ]*^*/*_ _ _ _ < [ =#(*_*:*  ",
"  @ l@m@j.5.m@_ _ _.e.e.<*[*3 _ (._.  }*;%|*@*Y&1*5@T%u&m&d&2*3*4*5*O%_%W%6*<%7*8*F%G%g@M&  e._ _ _ 9*D@0*_ _ _ a*b*c*d*e*y t   ",
"  @ [@(#j.o@l._ (._ _ _ f*g*h*_.i*i@/#j*{%>%S%P&4&5@k*I$J${%z%f&Q&l*O%W%w&=&`&q&/@`%{@g@M&/#_._ _ _ _ _ _ _ _ _ m*U@a*V&z+n*t .@",
"  @ r&H.j.o@l._._.s._ _ o*p*: _.(._./#q*{%>%U%u&x%5@#*'%r*c%&&3*Q&Y@O%W%W%&*`&7*}%F%G%s*t*  e.e.e.e.e.+._ _ _ _ C@u*v*w*x*y*=%/#",
"@ @ -#m@n@5.m@e._ _ _ _.,.+._._.e.e.  z*{%|*A*B*x%5@>*'%Y&c%&&3*4*l*Y@K@C*D*`&7*E*~*G%o%M&  e.e.e.-+(.e.e.e.e._ _ _ _ C&e*F#t   ",
"  @ -#(#n@F*m@e.: < G*P.H*,._.e.e.(.  q*'#|*I*u&1*5@J*u&m&c%2*f&Q&Y@K@K@,*_&K*q&8*F%G%[&{*  e.e.-+(.i@e.e.7+: _ _ _ _ =#g.L*M*  ",
"  @ -#m@=.E$l.-+(._ 0&8%N*+._.e.e.O*/#}*;%|*S%P&1*5@J*Y&m&d&z%Q$Q&Y@O%Y@A%P*Q*7*R*`%G%s*S*  i@_.(._ _ _ T*U*V*s.z.} } @.W*y H   ",
"  @ I m@=.F#H.-+(.+.X*Y*O*_ e.{.(.O*/#Z*;%>%Y&P&`*5@k*u&I$/&]%(&Q&Y@Y@K@A%&*R+7*/@ =.=[&+=  (._.e._ _ : @=#=$=_._ _._ @.W*z %=/#",
"  @ I m@E#`#l.+.e.e.e.: : _._.(.(.i*  }*d&>%Y&u&`*/+k*u&u&c%2*Q$A%Y@K@K@C*&=R+d@/@*=1%==+=  e.e.e.e.e._ -=a.c+_.e.e._ @.W*z %=  ",
"@ i.r&;==.F#l._ e.e.e.e.e.(.i@_.e.e.  q*;%>=u&,='=)=T%u&!=v%~=3*A%K@O%Y@C*{=**]=^=/=(=_=:=  e.e.e.e.e._ +.'._ i@_._ _ @.W&L.G@. ",
". @ l@m@n@E$i&_ e.e.e.(.i@+.'.e.e.e.b$<=[=}=|=|=4&j+1=i%2=3=4=5=6=7=8=9=0=a=b=c=d=e=f=g=h=  7+i=_._._.e.e.-+-+e.e._ s.V&W*L.H   ",
". @ j=;=k=F#l.} _ _._.(.(._ _._.e._._ ( l=m=n=_ _.e.e.e.e._._._ e.-+_._ _ _ +._ _.e.e.e._.e._.q%_.e.e.e.e.e._._._ _ s.@.g.A o=/#",
"  i.p=] n@y*l._ _ e.e.e.e.e._ _ e.e._.e.q=r=s&_ _ _._.(._.e.e._ : e.(._ s=t=u=_.-+-+v=w=x=e.e.7+e.e.e.e.e._._._ y=z=A=w*e*7 %=/#",
"  @ p=B=n@y*0+_ _ _.e.e.e.e._ _ _ e.e.e.e.: e.e.e.e.e.e.e.e.e.e.e.e.e._ C=D=E=_.{.F=G=H=I=e.e.e.e.e._._ _ e.: _ J=K=L=M=N=`#&.  ",
"+ @ j=] O=P=Q=R=[ _ _ e.e.7+_._ _ e.e.e.e.e.e.e.e.e.e.7+e.e.e.e.e.e._._ S=A=h*_ (.+.T=U=C@_.e.e.e._._._ _ e.e._.V=W=X==#0%D %=  ",
"  @ Y=B=O=C Z=#._.s.z._ _._.e.e._ e.e._ _._._._.e.e.7+i=_._.(._.e.e._ _ _ } s.D.(._ _ _ _ _ _ +.(.(._._ _ _ e._ _ _ _ @.`=L.H   ",
"  i. -.-7 D +-W @-#-#-$-$-%-r r &-*-*-&-$-$-$-$-$-r r r =-r $-$-$-r $-&-$-&-@-$-$-$-$-$-&-&-&-&-=-$-$---;-$-$-&-&-$-$->-,-L.Z /#",
"  '-)-L.L.7 7 `#`#`#L.`#`#`#`#`#`#`#`#`#`#`#`#`#`#`#`#`#`#`#`#`#`#`#`#`#`#`#`#`#`#`#`#`#`#`#`#`#`#`#-.`#`#`#`#`#`#7 7 7 7 z Z /#",
"    !-~-~-{-{-~-~-~-~-{-{-~-]-~-]-~-~-^-^-~-^-~-{-{-~-~-~-{-~-~-~-^-^-~-^-^-/-(-~-~-~-{-{-~-~-~-~-^-{-{-~-~-~-~-~-~-~-{-_-~-:-  ",
"                                    /#/#      /#/#        /#    /#/#/#    /#    /#/#  /#/#/#/#    /#/#    /#        /#          "};
