/* XPM */
static char * tube_green_64_xpm[] = {
"64 64 1011 2",
"  	c #010101",
". 	c #000101",
"+ 	c #010100",
"@ 	c #000000",
"# 	c #000100",
"$ 	c #583A24",
"% 	c #5A3A23",
"& 	c #5A3923",
"* 	c #5B3923",
"= 	c #5B3A23",
"- 	c #5B3A22",
"; 	c #5B3922",
"> 	c #5C3A23",
", 	c #5A3922",
"' 	c #462B19",
") 	c #2B190E",
"! 	c #1B1008",
"~ 	c #9C5F34",
"{ 	c #A15F31",
"] 	c #A16032",
"^ 	c #A06031",
"/ 	c #A16031",
"( 	c #A26130",
"_ 	c #A36131",
": 	c #A36031",
"< 	c #A26030",
"[ 	c #A26031",
"} 	c #A26131",
"| 	c #A36130",
"1 	c #A16030",
"2 	c #A25F31",
"3 	c #A15F30",
"4 	c #A15E31",
"5 	c #A05E32",
"6 	c #7B4825",
"7 	c #532F18",
"8 	c #382111",
"9 	c #000001",
"0 	c #9C5F35",
"a 	c #A15E32",
"b 	c #8D532C",
"c 	c #8C532C",
"d 	c #8C532B",
"e 	c #8D522B",
"f 	c #8D542B",
"g 	c #8D542C",
"h 	c #8C542B",
"i 	c #8D532B",
"j 	c #8B542B",
"k 	c #8B542C",
"l 	c #8D532A",
"m 	c #8C542A",
"n 	c #8C532A",
"o 	c #8B532B",
"p 	c #8C542C",
"q 	c #8C522B",
"r 	c #734323",
"s 	c #533019",
"t 	c #371F10",
"u 	c #9D5F35",
"v 	c #A05F31",
"w 	c #573018",
"x 	c #532E18",
"y 	c #522E18",
"z 	c #522F19",
"A 	c #522E19",
"B 	c #522F18",
"C 	c #522E16",
"D 	c #522F17",
"E 	c #522E17",
"F 	c #512E16",
"G 	c #532F1A",
"H 	c #371F11",
"I 	c #9D6034",
"J 	c #563017",
"K 	c #63341B",
"L 	c #65351B",
"M 	c #6F4123",
"N 	c #704224",
"O 	c #704223",
"P 	c #6F4223",
"Q 	c #6F4222",
"R 	c #704222",
"S 	c #704122",
"T 	c #6F4224",
"U 	c #6A3B1E",
"V 	c #66351B",
"W 	c #67351A",
"X 	c #5C311A",
"Y 	c #512F19",
"Z 	c #351F11",
"` 	c #9D5F34",
" .	c #803D1F",
"..	c #853E1E",
"+.	c #A36132",
"@.	c #955028",
"#.	c #883E1E",
"$.	c #853D1E",
"%.	c #6D361B",
"&.	c #361F11",
"*.	c #9F5F31",
"=.	c #573118",
"-.	c #532E17",
";.	c #8A4825",
">.	c #8E4825",
",.	c #A36033",
"'.	c #A36032",
").	c #B66F3B",
"!.	c #BA723C",
"~.	c #A76433",
"{.	c #A46033",
"].	c #AF6634",
"^.	c #B26834",
"/.	c #A66332",
"(.	c #A46132",
"_.	c #A46131",
":.	c #B16B38",
"<.	c #B9713B",
"[.	c #AB6735",
"}.	c #98542B",
"|.	c #8E4724",
"1.	c #874221",
"2.	c #6B361B",
"3.	c #543019",
"4.	c #382011",
"5.	c #532E16",
"6.	c #E6914D",
"7.	c #F09851",
"8.	c #B36C39",
"9.	c #CD7537",
"0.	c #D77838",
"a.	c #B06633",
"b.	c #D68647",
"c.	c #EF9951",
"d.	c #C47A40",
"e.	c #A46031",
"f.	c #935028",
"g.	c #6E371C",
"h.	c #361E11",
"i.	c #010000",
"j.	c #573017",
"k.	c #522E15",
"l.	c #9F5F32",
"m.	c #B56F39",
"n.	c #B76F3A",
"o.	c #A56333",
"p.	c #D78848",
"q.	c #E08E4B",
"r.	c #AF6B37",
"s.	c #A36231",
"t.	c #B46935",
"u.	c #B76B35",
"v.	c #A76332",
"w.	c #C57137",
"x.	c #CD7438",
"y.	c #AE6633",
"z.	c #A26231",
"A.	c #A26132",
"B.	c #CA7F43",
"C.	c #BD743D",
"D.	c #A36232",
"E.	c #935027",
"F.	c #6D371B",
"G.	c #381F10",
"H.	c #A05F32",
"I.	c #EB9751",
"J.	c #F09951",
"K.	c #AE6936",
"L.	c #532F19",
"M.	c #563018",
"N.	c #AF6534",
"O.	c #E08E4D",
"P.	c #E4904D",
"Q.	c #AC6735",
"R.	c #14420F",
"S.	c #257615",
"T.	c #348725",
"U.	c #4C983A",
"V.	c #559F42",
"W.	c #54A041",
"X.	c #539E40",
"Y.	c #549F40",
"Z.	c #549E41",
"`.	c #509A3D",
" +	c #388B29",
".+	c #378A27",
"++	c #378B27",
"@+	c #378B28",
"#+	c #388B28",
"$+	c #378C28",
"%+	c #388C28",
"&+	c #388B27",
"*+	c #398C29",
"=+	c #3A8D29",
"-+	c #3B8D2A",
";+	c #3C8D2B",
">+	c #2B7B20",
",+	c #196C13",
"'+	c #1C7415",
")+	c #11540E",
"!+	c #082C07",
"~+	c #A46032",
"{+	c #A45F33",
"]+	c #D5783B",
"^+	c #D87A3A",
"/+	c #A96332",
"(+	c #195816",
"_+	c #2C9B1D",
":+	c #4EBD39",
"<+	c #66D64F",
"[+	c #6EDD54",
"}+	c #71E057",
"|+	c #78E95D",
"1+	c #79E95E",
"2+	c #70E056",
"3+	c #6FE056",
"4+	c #67D74F",
"5+	c #48BE38",
"6+	c #4BBF38",
"7+	c #4BC038",
"8+	c #4BBF37",
"9+	c #4ABF37",
"0+	c #4BC039",
"a+	c #4CC039",
"b+	c #4CC038",
"c+	c #4CC138",
"d+	c #4DC239",
"e+	c #4DC139",
"f+	c #4EC13A",
"g+	c #4FC13A",
"h+	c #3CAD2D",
"i+	c #239B1C",
"j+	c #259C1C",
"k+	c #1A7915",
"l+	c #11450E",
"m+	c #A46030",
"n+	c #6C371B",
"o+	c #371F12",
"p+	c #9F5F33",
"q+	c #CB743A",
"r+	c #CE7539",
"s+	c #A86332",
"t+	c #114711",
"u+	c #186F17",
"v+	c #1E7518",
"w+	c #2AA21B",
"x+	c #24A21C",
"y+	c #40B532",
"z+	c #47BD37",
"A+	c #26A61C",
"B+	c #249D1B",
"C+	c #1C7616",
"D+	c #1B7416",
"E+	c #1A7316",
"F+	c #1B7316",
"G+	c #1B7315",
"H+	c #1B7415",
"I+	c #1C7316",
"J+	c #1A7416",
"K+	c #1A7415",
"L+	c #1C7917",
"M+	c #1A7616",
"N+	c #1C7C17",
"O+	c #1C7918",
"P+	c #1D7717",
"Q+	c #1B7717",
"R+	c #12480E",
"S+	c #AA6432",
"T+	c #6C361B",
"U+	c #196015",
"V+	c #249F1B",
"W+	c #229E1A",
"X+	c #45C135",
"Y+	c #4CC83A",
"Z+	c #54CF3F",
"`+	c #77EA5D",
" @	c #78EA5C",
".@	c #48BD37",
"+@	c #37B22A",
"@@	c #4AC538",
"#@	c #23A01B",
"$@	c #229D1B",
"%@	c #239E1B",
"&@	c #229F1B",
"*@	c #219E1B",
"=@	c #229E1B",
"-@	c #21951A",
";@	c #1A7916",
">@	c #239D1B",
",@	c #208B19",
"'@	c #1D7917",
")@	c #1E7A17",
"!@	c #1B7816",
"~@	c #11450D",
"{@	c #C57036",
"]@	c #D8793A",
"^@	c #BB6C35",
"/@	c #934F27",
"(@	c #372011",
"_@	c #020201",
":@	c #1B6316",
"<@	c #24A51C",
"[@	c #47C537",
"}@	c #4DCD3B",
"|@	c #57D341",
"1@	c #77E95B",
"2@	c #47BC37",
"3@	c #3CB82E",
"4@	c #4DC83B",
"5@	c #24A31B",
"6@	c #25A41B",
"7@	c #25A31B",
"8@	c #24A41C",
"9@	c #23A31B",
"0@	c #24A41B",
"a@	c #24A31C",
"b@	c #219619",
"c@	c #1A7A16",
"d@	c #23A11A",
"e@	c #24A21B",
"f@	c #218E19",
"g@	c #1D7916",
"h@	c #1C7716",
"i@	c #12440E",
"j@	c #C06E36",
"k@	c #D07639",
"l@	c #B66A34",
"m@	c #934F28",
"n@	c #9C6034",
"o@	c #1B6315",
"p@	c #24A11C",
"q@	c #48C538",
"r@	c #4ECD3B",
"s@	c #56D341",
"t@	c #77E85A",
"u@	c #3BB72D",
"v@	c #4DC73A",
"w@	c #219519",
"x@	c #1A7A15",
"y@	c #228E19",
"z@	c #A46232",
"A@	c #945027",
"B@	c #362010",
"C@	c #9C6135",
"D@	c #9F6032",
"E@	c #573117",
"F@	c #532E15",
"G@	c #B06B37",
"H@	c #1B6217",
"I@	c #49C638",
"J@	c #39B62D",
"K@	c #4DC83A",
"L@	c #25A41C",
"M@	c #23A11B",
"N@	c #23A21B",
"O@	c #1C7816",
"P@	c #12450D",
"Q@	c #AC6836",
"R@	c #B26C38",
"S@	c #AA6635",
"T@	c #925027",
"U@	c #381F11",
"V@	c #532F15",
"W@	c #E8944F",
"X@	c #1B6215",
"Y@	c #49C739",
"Z@	c #56D241",
"`@	c #76E95A",
" #	c #77EA5B",
".#	c #46BC36",
"+#	c #3AB62D",
"@#	c #21961A",
"##	c #D58547",
"$#	c #F29C52",
"%#	c #CB8043",
"&#	c #563016",
"*#	c #1B6216",
"=#	c #49C538",
"-#	c #4FCC3B",
";#	c #57D241",
">#	c #218E18",
",#	c #1E7916",
"'#	c #1F7917",
")#	c #CE8144",
"!#	c #E7934E",
"~#	c #C37A40",
"{#	c #945028",
"]#	c #9C6035",
"^#	c #25A31D",
"/#	c #48C437",
"(#	c #4DCC3B",
"_#	c #57D242",
":#	c #75E95A",
"<#	c #76E85A",
"[#	c #47BC36",
"}#	c #39B62C",
"|#	c #23A21A",
"1#	c #24A21A",
"2#	c #218D19",
"3#	c #1E7817",
"4#	c #1F7918",
"5#	c #1D7817",
"6#	c #13450E",
"7#	c #010201",
"8#	c #9F6031",
"9#	c #1B5D16",
"0#	c #269D1D",
"a#	c #23941D",
"b#	c #43B535",
"c#	c #4BC03A",
"d#	c #4FC03B",
"e#	c #6BD554",
"f#	c #6DD655",
"g#	c #42AD34",
"h#	c #38AB2C",
"i#	c #48B837",
"j#	c #239A1C",
"k#	c #229A1B",
"l#	c #229C1B",
"m#	c #229B1B",
"n#	c #239C1B",
"o#	c #249C1B",
"p#	c #229019",
"q#	c #1C7A17",
"r#	c #23971B",
"s#	c #22971A",
"t#	c #218919",
"u#	c #1E7816",
"v#	c #1E7717",
"w#	c #134510",
"x#	c #392012",
"y#	c #9E6031",
"z#	c #AC6835",
"A#	c #164612",
"B#	c #1D7217",
"C#	c #1D7417",
"D#	c #1E7617",
"E#	c #1D7517",
"F#	c #1E7217",
"G#	c #1E7417",
"H#	c #1E7218",
"I#	c #1D7617",
"J#	c #1C7417",
"K#	c #1C7416",
"L#	c #1D7616",
"M#	c #1C7617",
"N#	c #1D7516",
"O#	c #1E7718",
"P#	c #1F7A18",
"Q#	c #1D7518",
"R#	c #144611",
"S#	c #6D371C",
"T#	c #9B6035",
"U#	c #573119",
"V#	c #532F16",
"W#	c #EC9550",
"X#	c #F19951",
"Y#	c #020402",
"Z#	c #020B02",
"`#	c #021303",
" $	c #020F02",
".$	c #010A01",
"+$	c #010C01",
"@$	c #020D02",
"#$	c #010C02",
"$$	c #010B01",
"%$	c #020C02",
"&$	c #010B02",
"*$	c #010D02",
"=$	c #020E02",
"-$	c #041002",
";$	c #010701",
">$	c #020502",
",$	c #532F17",
"'$	c #E7924F",
")$	c #EC944F",
"!$	c #AB6634",
"~$	c #0C3719",
"{$	c #0A3F1B",
"]$	c #093B1A",
"^$	c #093C1A",
"/$	c #093F1B",
"($	c #083C19",
"_$	c #093F1A",
":$	c #093E1A",
"<$	c #093D1A",
"[$	c #093D1B",
"}$	c #0A3D1B",
"|$	c #0A3E1B",
"1$	c #093E1B",
"2$	c #0A3E1A",
"3$	c #0A3517",
"4$	c #020401",
"5$	c #16521C",
"6$	c #0F5520",
"7$	c #0C5221",
"8$	c #145E1B",
"9$	c #145F1C",
"0$	c #2F842D",
"a$	c #358E30",
"b$	c #31882E",
"c$	c #15611D",
"d$	c #145E1C",
"e$	c #105720",
"f$	c #0D5220",
"g$	c #145E1E",
"h$	c #0B4D21",
"i$	c #0B4C22",
"j$	c #0B4D22",
"k$	c #0C4D23",
"l$	c #10561E",
"m$	c #10571E",
"n$	c #0B4E22",
"o$	c #0B4B22",
"p$	c #0C451F",
"q$	c #040602",
"r$	c #307E25",
"s$	c #1C6C1F",
"t$	c #1A6D21",
"u$	c #309021",
"v$	c #2D8C21",
"w$	c #46B937",
"x$	c #58D042",
"y$	c #4DC33B",
"z$	c #2B8A21",
"A$	c #2E8F21",
"B$	c #207320",
"C$	c #1B681F",
"D$	c #308D22",
"E$	c #125F1F",
"F$	c #146021",
"G$	c #146121",
"H$	c #0D5022",
"I$	c #1A6E1B",
"J$	c #1A7319",
"K$	c #0A4E21",
"L$	c #0E5620",
"M$	c #0C5121",
"N$	c #0C441E",
"O$	c #A86231",
"P$	c #A96231",
"Q$	c #A56231",
"R$	c #9E5F32",
"S$	c #563118",
"T$	c #533016",
"U$	c #50B840",
"V$	c #3CB62D",
"W$	c #2FAB24",
"X$	c #51CE3B",
"Y$	c #52CD3C",
"Z$	c #6AE351",
"`$	c #75EC59",
" %	c #6FE653",
".%	c #50CE3C",
"+%	c #4FCE3C",
"@%	c #37B32A",
"#%	c #34B026",
"$%	c #4DCB38",
"%%	c #24A51B",
"&%	c #26A51C",
"*%	c #25A31C",
"=%	c #125C20",
"-%	c #218D1F",
";%	c #1F8D1C",
">%	c #084B1E",
",%	c #1D7D17",
"'%	c #1E8115",
")%	c #17691B",
"!%	c #0C421E",
"~%	c #020202",
"{%	c #E9914B",
"]%	c #F1994F",
"^%	c #C47A3F",
"/%	c #A26232",
"(%	c #A66331",
"_%	c #A86431",
":%	c #A56331",
"<%	c #924F27",
"[%	c #542F18",
"}%	c #382010",
"|%	c #4EB63E",
"1%	c #3DB72E",
"2%	c #31AC24",
"3%	c #4FCE3A",
"4%	c #51CE3D",
"5%	c #6DE354",
"6%	c #74EC58",
"7%	c #70E654",
"8%	c #4FCE3B",
"9%	c #39B52B",
"0%	c #30AC25",
"a%	c #4FCD3C",
"b%	c #25A61C",
"c%	c #126022",
"d%	c #1F8620",
"e%	c #1D891C",
"f%	c #094E1E",
"g%	c #1D7E18",
"h%	c #1D7F16",
"i%	c #17681C",
"j%	c #0D431F",
"k%	c #E78F48",
"l%	c #F09850",
"m%	c #C47940",
"n%	c #A46231",
"o%	c #D38446",
"p%	c #F09A51",
"q%	c #C97D41",
"r%	c #6E371B",
"s%	c #A56131",
"t%	c #4EB53E",
"u%	c #3BB42C",
"v%	c #32AE26",
"w%	c #51CE3C",
"x%	c #50CD3B",
"y%	c #6AE352",
"z%	c #75ED59",
"A%	c #6FE753",
"B%	c #4ECD39",
"C%	c #39B42B",
"D%	c #31AC25",
"E%	c #4FCC3C",
"F%	c #136022",
"G%	c #1F8520",
"H%	c #1C881C",
"I%	c #094F1E",
"J%	c #1E7F18",
"K%	c #1C7D15",
"L%	c #17671C",
"M%	c #0E451F",
"N%	c #A46130",
"O%	c #D28346",
"P%	c #F09852",
"Q%	c #C97C41",
"R%	c #4EB53F",
"S%	c #3BB42B",
"T%	c #32AD26",
"U%	c #74EC59",
"V%	c #4DCC3A",
"W%	c #4FCD3B",
"X%	c #125E21",
"Y%	c #1F871F",
"Z%	c #094E1F",
"`%	c #1D7E15",
" &	c #0C431F",
".&	c #A56130",
"+&	c #A36030",
"@&	c #4DB63E",
"#&	c #3CB52C",
"$&	c #51CD3B",
"%&	c #4ECD3A",
"&&	c #39B52A",
"*&	c #32AB25",
"=&	c #1F881F",
"-&	c #1E8A1C",
";&	c #094C1F",
">&	c #1E7D18",
",&	c #1E7F16",
"'&	c #17691D",
")&	c #0D421F",
"!&	c #A66131",
"~&	c #A56031",
"{&	c #4EB73E",
"]&	c #3BB52C",
"^&	c #32AC25",
"/&	c #50CE3B",
"(&	c #4ECE3B",
"_&	c #25A51B",
":&	c #135F21",
"<&	c #20871F",
"[&	c #1E891C",
"}&	c #1E7E18",
"|&	c #1E7F15",
"1&	c #0D441F",
"2&	c #C37036",
"3&	c #D77939",
"4&	c #A56030",
"5&	c #4FB53E",
"6&	c #3CB52B",
"7&	c #32AD25",
"8&	c #50CC3A",
"9&	c #73EB58",
"0&	c #6FE652",
"a&	c #4DCD39",
"b&	c #39B42A",
"c&	c #32AC26",
"d&	c #135F22",
"e&	c #0D451F",
"f&	c #D67839",
"g&	c #BA6B35",
"h&	c #EB9652",
"i&	c #EF9952",
"j&	c #F09953",
"k&	c #EF9853",
"l&	c #50B43E",
"m&	c #3DB52C",
"n&	c #50CB3A",
"o&	c #6AE250",
"p&	c #74EB57",
"q&	c #6FE552",
"r&	c #4ECC39",
"s&	c #4ECC3B",
"t&	c #4ECC3A",
"u&	c #135E22",
"v&	c #208720",
"w&	c #094D1F",
"x&	c #1D7D15",
"y&	c #17681D",
"z&	c #ED9651",
"A&	c #F29B53",
"B&	c #AB6734",
"C&	c #6AE350",
"D&	c #4DCC39",
"E&	c #4FCC3A",
"F&	c #1F8720",
"G&	c #1D891D",
"H&	c #1E7E15",
"I&	c #18691D",
"J&	c #6D381C",
"K&	c #EB9650",
"L&	c #F09A52",
"M&	c #AD6835",
"N&	c #31AC26",
"O&	c #73EB57",
"P&	c #6EE552",
"Q&	c #4ECE3A",
"R&	c #39B529",
"S&	c #1F8820",
"T&	c #1E8A1D",
"U&	c #0A4D1F",
"V&	c #18691C",
"W&	c #6E381C",
"X&	c #542F19",
"Y&	c #9F6033",
"Z&	c #A26032",
"`&	c #EA9650",
" *	c #32AC24",
".*	c #50CD3A",
"+*	c #74EB56",
"@*	c #25A51C",
"#*	c #208820",
"$*	c #1F891C",
"%*	c #0A4E20",
"&*	c #1E7F17",
"**	c #18681C",
"=*	c #9D6035",
"-*	c #A86433",
";*	c #A96433",
">*	c #4FCD3A",
",*	c #4DCD3A",
"'*	c #31AB25",
")*	c #26A41C",
"!*	c #145E22",
"~*	c #1F8A1D",
"{*	c #0A4E1F",
"]*	c #D58647",
"^*	c #EE9851",
"/*	c #C37840",
"(*	c #944F27",
"_*	c #31AD25",
":*	c #73EB56",
"<*	c #3AB42A",
"[*	c #32AB26",
"}*	c #145E21",
"|*	c #20881F",
"1*	c #1F7F18",
"2*	c #1E7E16",
"3*	c #0E4520",
"4*	c #D98848",
"5*	c #F19A52",
"6*	c #C57A41",
"7*	c #50B63E",
"8*	c #4FCB3A",
"9*	c #6BE350",
"0*	c #6EE551",
"a*	c #145F22",
"b*	c #1F7F16",
"c*	c #19691D",
"d*	c #A86434",
"e*	c #573218",
"f*	c #31AD24",
"g*	c #146022",
"h*	c #208821",
"i*	c #1F8B1C",
"j*	c #955128",
"k*	c #6F381C",
"l*	c #010202",
"m*	c #50B53E",
"n*	c #3CB42C",
"o*	c #218821",
"p*	c #1F8B1D",
"q*	c #19691C",
"r*	c #0D4520",
"s*	c #502F18",
"t*	c #351F10",
"u*	c #51B53F",
"v*	c #3DB42B",
"w*	c #6BE24F",
"x*	c #155F22",
"y*	c #228821",
"z*	c #208A1D",
"A*	c #1F7F19",
"B*	c #1A691D",
"C*	c #0E441F",
"D*	c #D28245",
"E*	c #EA924E",
"F*	c #C3773E",
"G*	c #51B53E",
"H*	c #3DB52B",
"I*	c #6AE24F",
"J*	c #39B429",
"K*	c #33AC26",
"L*	c #4FCB3B",
"M*	c #25A21C",
"N*	c #156022",
"O*	c #0B4E20",
"P*	c #18681D",
"Q*	c #0F4420",
"R*	c #D88647",
"S*	c #F29850",
"T*	c #C87A40",
"U*	c #72381C",
"V*	c #562F18",
"W*	c #3A2111",
"X*	c #904925",
"Y*	c #8F4624",
"Z*	c #69E34F",
"`*	c #218920",
" =	c #208B1E",
".=	c #1F8018",
"+=	c #AD6836",
"@=	c #A96634",
"#=	c #CD8043",
"$=	c #E6914B",
"%=	c #C4793F",
"&=	c #965128",
"*=	c #6F371B",
"==	c #8C4322",
"-=	c #8B3F1F",
";=	c #A15E30",
">=	c #A56132",
",=	c #010301",
"'=	c #4ECB3B",
")=	c #218720",
"!=	c #1F8B1E",
"~=	c #1F8016",
"{=	c #D48546",
"]=	c #512D18",
"^=	c #9F5B30",
"/=	c #9F5B2F",
"(=	c #52B53F",
"_=	c #3CB42B",
":=	c #6EE651",
"<=	c #156122",
"[=	c #1F8A1E",
"}=	c #208018",
"|=	c #1F8017",
"1=	c #1A6A1C",
"2=	c #B26B37",
"3=	c #A96533",
"4=	c #954F28",
"5=	c #72381B",
"6=	c #542F16",
"7=	c #51B43E",
"8=	c #6AE14F",
"9=	c #3AB529",
"0=	c #33AD26",
"a=	c #145F21",
"b=	c #228820",
"c=	c #208A1E",
"d=	c #196A1C",
"e=	c #522F16",
"f=	c #E08E4C",
"g=	c #AA6636",
"h=	c #3AB62A",
"i=	c #4ECB3A",
"j=	c #1F8019",
"k=	c #186A1C",
"l=	c #0E4420",
"m=	c #512E17",
"n=	c #351E10",
"o=	c #AC6736",
"p=	c #A56232",
"q=	c #52B53E",
"r=	c #38B52A",
"s=	c #0A4F1F",
"t=	c #1A6B1D",
"u=	c #BE6C34",
"v=	c #CE7336",
"w=	c #B66933",
"x=	c #6F371C",
"y=	c #B46E39",
"z=	c #B66F3A",
"A=	c #51B43F",
"B=	c #208921",
"C=	c #0A4F1E",
"D=	c #1F8118",
"E=	c #1A6A1D",
"F=	c #C46F35",
"G=	c #D77937",
"H=	c #BB6B34",
"I=	c #372010",
"J=	c #73EB55",
"K=	c #1F881D",
"L=	c #218119",
"M=	c #218017",
"N=	c #AB6433",
"O=	c #A06032",
"P=	c #51B63E",
"Q=	c #33AD25",
"R=	c #50CC39",
"S=	c #6BE34F",
"T=	c #4ECC38",
"U=	c #4CCB39",
"V=	c #0C5120",
"W=	c #1E771C",
"X=	c #1E751A",
"Y=	c #17641E",
"Z=	c #0F4620",
"`=	c #54B741",
" -	c #3DB32D",
".-	c #36AD28",
"+-	c #52CC3C",
"@-	c #50CB39",
"#-	c #76EC59",
"$-	c #51CB3B",
"%-	c #53CC3D",
"&-	c #3CB32C",
"*-	c #31A826",
"=-	c #54CB3E",
"--	c #28A61F",
";-	c #25A21E",
">-	c #26A31F",
",-	c #28A31F",
"'-	c #165D21",
")-	c #218421",
"!-	c #258E20",
"~-	c #0A4B21",
"{-	c #0B491F",
"]-	c #0B4C21",
"^-	c #0C4F22",
"/-	c #A4602F",
"(-	c #9E6135",
"_-	c #573217",
":-	c #E9924C",
"<-	c #F49A50",
"[-	c #B56F3A",
"}-	c #362011",
"|-	c #9F6136",
"1-	c #B8703A",
"2-	c #BB723B",
"3-	c #96512A",
"4-	c #914926",
"5-	c #9E5A2E",
"6-	c #CE8043",
"7-	c #E08C49",
"8-	c #BB723C",
"9-	c #99542B",
"0-	c #934A26",
"a-	c #9C582D",
"b-	c #A16132",
"c-	c #914A26",
"d-	c #8B3F20",
"e-	c #9D582D",
"f-	c #A46133",
"g-	c #DB8947",
"h-	c #F2974E",
"i-	c #C4773F",
"j-	c #954E28",
"k-	c #8A3E20",
"l-	c #99532B",
"m-	c #965028",
"n-	c #71381C",
"o-	c #583117",
"p-	c #552F16",
"q-	c #8D4926",
"r-	c #904A25",
"s-	c #9E5B2E",
"t-	c #B56E39",
"u-	c #BD743C",
"v-	c #9F5C2F",
"w-	c #9D592E",
"x-	c #A05E2F",
"y-	c #9E6136",
"z-	c #833D20",
"A-	c #70371C",
"B-	c #6E4326",
"C-	c #704324",
"D-	c #65351C",
"E-	c #724324",
"F-	c #724424",
"G-	c #724323",
"H-	c #734324",
"I-	c #724423",
"J-	c #734424",
"K-	c #734423",
"L-	c #724223",
"M-	c #724322",
"N-	c #6C3C1E",
"O-	c #5D3219",
"P-	c #010001",
"Q-	c #502F1A",
"R-	c #2C1B11",
"S-	c #2D1A0E",
"T-	c #2D1A0F",
"U-	c #2C1A0E",
"V-	c #2E1A0E",
"W-	c #2E1A0F",
"X-	c #2E190E",
"Y-	c #2D190E",
"Z-	c #1D1009",
"        .                                                         +           . .                   @ @ .     @ @ @     @ @ @   ",
"# @ $ % & * * = - = = = = = * ; - = ; & ; = - = - - > - ; , * ; , ; , , ; * , & * , , - = & , = ; , ; , - - ; , * & , ; ' ) !   ",
"# @ ~ { { ] ^ / ( _ : _ _ _ < < < < [ / / } | ( } _ _ } [ < 1 1 1 1 1 ^ 1 ^ / / 1 ^ 1 1 ( / [ ( < 1 < 1 < < < 2 3 4 4 5 6 7 8   ",
"9 @ 0 a b c d e b f f g f f h d i i j k d f f d d l f i d d h d m j n o d c n h p o n d d c c f n d d h d n n n q q e c r s t   ",
"  @ u v w x y y y z z z z y y A y y y y B B y C C C y y y D y E E E y y y E B B E C C C E y B z y B y C E y y E D y F E B G H   ",
"  @ I v J E K L M M N O O O P P P O O O O O P Q R R O O O O O O Q O O O O O O O Q S R O O O P T O P O O S O O O O U V W X Y Z   ",
"  @ ` v w E  ...[ _ _ _ _ < } } +._ _ _ _ _ _ _ _ _ } _ _ _ +._ _ _ _ _ _ _ _ _ _ _ _ _ _ _ _ +._ _ _ _ _ +._ _ _ @.#.$.%.s &.  ",
"  @ I *.=.-.;.>.[ _ +._ _ _ _ +.,.'.).!.~._ _ +._ ,.{._ +._ ].^./._ '.+._ (._._ _ _ _ _ +._ (._.:.<.[._ _ _ _ _ _ }.|.1.2.3.4.  ",
"@ @ I v w 5.5 _ _ _ _ _ _ +._ +.,.'.6.7.8.} _ _.'.{.{._ _ _.9.0.a.+.,.'._ _ +._ _ _ _ '.,._ _ _ b.c.d._ _ _ e._ _ _ _ f.g.z h.  ",
"  i.I v j.k.l._ _ _ _ _ m.n.o._ (.+.p.q.r.s.e._.'.'.t.u.v._ w.x.y.(.{.+._ z.+._ _ _ _ ,.,._._ A.B.q.C._ _ _ _.+.D.D.} E.F.7 G.  ",
"  i.I v J k.H._ +.+._ _.I.J.K._ @ @ @ @ @ @ @ @ @ @ @ @ @ @ @ @ @ @ @ @ @ @ @ @ @ @ @ @ @ @ @ @ +.: e._ _ _.(.{.(._ } E.F.L.4.  ",
"+ @ I v M.C H.e.,.,.N.a.O.P.Q.@ R.S.T.U.V.W.X.Y.Z.X.`. +.+.+++@+#+#+@+$+%+&+%+*+=+-+;+>+,+'+)+!+@ _ _ _ _.e.e.{.~+_ _ f.F.z &.  ",
"+ i.` v M.E l._ '.{+]+^+/+_ _ @ (+_+:+<+[+}+|+1+2+3+4+5+6+7+8+9+6+0+7+6+a+b+c+d+e+f+g+h+i+j+k+l+@ _ _ _ _.m+e.{.~+_ _ f.n+L.o+  ",
"  @ ` v M.E p+_ +.,.q+r+s+_ _ @ t+u+v+w+x+y+|+|+z+A+B+C+D+E+F+G+D+H+F+I+G+J+K+J+L+M+J+N+O+P+Q+R+@ _ S+y.s+_._._._._ _ E.T+z H   ",
"  @ ` v J 5.l._ _ _ _ } } _ _ @ U+V+W+X+Y+Z+`+ @.@+@@@#@$@%@%@&@*@=@=@=@&@=@=@-@;@>@W+,@'@)@!@~@@ _.{@]@^@_ _ s._ _ _ /@n+B (@_@",
"  @ I v M.E l.} _ _ _ _ _ _ _ @ :@<@x+[@}@|@1@1@2@3@4@5@6@7@8@<@9@9@9@8@0@9@a@b@c@d@e@f@g@'@h@i@@ ~+j@k@l@_ _ _ _ _ _ m@F.3.4.  ",
"@ @ n@v J C l._ _ _ _ _ _ _ _.@ o@5@p@q@r@s@1@t@2@u@v@5@7@7@7@5@9@9@5@8@5@5@7@w@x@d@e@y@g@g@h@~@@ ~+_ _ _ D.z@_ _ _ _ A@g.L.B@. ",
". @ C@D@E@F@l._ _ '._ _ _ _ G@@ H@a@p@I@r@s@1@1@z+J@K@9@5@7@8@8@7@8@0@8@8@7@L@b@k+M@N@f@g@g@O@P@@ _ _._._ _.Q@R@S@(._ T@n+L.U@  ",
"  @ n@v E@V@l.} _ _ z.D.s._ W@@ X@a@a@Y@r@Z@`@ #.#+#v@9@<@7@7@7@7@7@7@7@8@0@L@@#x@N@M@y@g@g@O@l+@ _ _ e.e._ ##$#%#z.} T@T+L.U@  ",
"  @ I v &#k.l._ _ _ D._ _ _ q.@ *#8@a@=#-#;# #`@.#J@Y+5@8@5@7@L@5@7@5@0@0@0@8@w@x@d@N@>#,#'#O@l+@ _ _ e.e._ )#!#~#s.z@{#F.z Z   ",
"+ @ ]#*.j.F@l._ _ (._ _ _ +.| @ H@8@^#/#(#_#:#<#[#}#K@a@5@5@7@5@|#5@9@5@5@5@8@b@x@#@1#2#3#4#5#6#@ _ _ _ _ _ _ : _ _ _ f.F.z H 7#",
"@ @ C@8#J C l._ _ _ _ _ _ _ _ @ 9#0#a#b#c#d#e#f#g#h#i#j#k#l#m#m#k#m#m#m#m#n#o#p#q#r#s#t#u#3#v#w#@ _ _ _._._ ,._ +._ _ E.n+L.x#  ",
"  @ C@y#M.-.l._ _ _ Q.z#s._ _ @ A#B#C#D#E#v+F#F#D#G#H#C#I#J#K#L#M#K#N#L#I#P+P+v#4#v#O#4#P#v+Q#R#@ D._ e.e.~+,.+.+.+._ E.S#L.H   ",
"  @ T#8#U#V#l._ _ _ W#X#Q.e.e.e.Y#Z#`# $.$+$@$#$$$$$$$#$%$&$$$#$#$+$%$+$+$$$#$$$$$*$@$$$=$-$;$>$A._ e.e.e._._._ _ _ _ f.S#z &.  ",
"# @ T#*.M.,$D@_ _ '.'$)$!$e.: _._ @   ~${$]$^$/$^$($_$:$^$<${$[$}${$|$:$1$1$2$_$1$:$:$/$3$>$@ : _ _ _ _.~+~+~+e.e._ _ /@S#z (@7#",
"# @ ]#l.M.7 D@_ _ _ | | _ _._ _ _ _ 4$5$6$7$8$9$0$a$b$c$d$e$f$g$h$i$i$j$j$k$l$m$n$i$o$j$p$  e.e.'._ _ _ +.(.e.e.e._ _ /@F.L.4.  ",
"+ @ ~ *.=.,$l._ _ _ _ _ _ _ _ _ _ _ q$r$s$t$u$v$w$x$y$z$A$B$C$D$E$F$G$G$G$H$I$J$K$L$L$M$N$7#O$P$Q$+.+._ _ D._ _ e._._ E.F.z H   ",
"  i.0 R$S$T$l._ _ _ _ _ _ _ _ _ _ | 7#U$V$W$X$Y$Z$`$ %.%+%@%#%$%%%&%L@L@*%=%-%;%>%,%'%)%!%~%{%]%^%_ e._ _ _ _ /%(%_%:%<%F.[%}%  ",
"  @ ~ *.=.V#l._ _ _ _ _ _._._ _ _ _ 7#|%1%2%3%4%5%6%7%8%r@9%0%a%b%*%7@L@*%c%d%e%f%g%h%i%j%7#k%l%m%_.e._.e._.n%_ o%p%q%/@r%7 &.  ",
"  @ n@v =.5.l._ +.~+s%~+~+e.e.e._._   t%u%v%w%x%y%z%A%B%a%C%D%E%6@5@7@7@*%F%G%H%I%J%K%L%M%7#N%m+_ _ e.e.e.e._ _ O%P%Q%{#r%z H   ",
"@ @ I v =.5.l._ (.(.e._._ e.{.~+e._   R%S%T%4%x%Z$U% %V%W%C%D%-#6@0@7@7@x+X%Y%e%Z%g%`%i% &  _ _ _ _ _ ( _ e.e.: N%.&+&/@n+L.H   ",
"+ @ ]#*.=.5.l._ _ e.e._ _ (.e.e.e._ 7#@&#&D%$&$&Z$U% %%&r@&&*&-#6@0@6@7@*%X%=&-&;&>&,&'&)&7#_ _ _ _ _ _ _.!&~&e._ _ } m@g.G H   ",
"+ @ ]#D@w -.l._ _ (.(.+._ _ e.e.e.e.7#{&]&^&x%/&Z$U% %%&(&&&T%W%_&0@7@7@L@:&<&[&Z%}&|&i%1&7#_ _ _ _ _ _ 2&3&^@_._ _ } f.S#L.(@  ",
"  @ ]#D@w -.l._ N%.&s%4&_ _ _ _ _ _.7#5&6&7&W%8&Z$9&0&a&r@b&c&%&_&7@7@7@*%d&<&e%Z%g%`%i%e&7#_ e.e.e._ _ 2&f&g&e._._ _ /@g.L.H   ",
"  i.]#D@M.5.l.| h&i&j&k&[.+._ +.~+~+7#l&m&^&W%n&o&p&q&r&s&b&D%t&&%5@7@7@*%u&v&e%w&}&x&y&1&  e.e.e.e.e._ _..&_.(._._ _ E.S#z &.  ",
"  @ n@*.E@V#l.+&z&A&X#J.B&: e.e.e.~+7#5&m&D%W%8&C&p&q&D&r@b&^&E&_&0@*%5@a@d&F&G&w&>&H&I&j%  e.: _._._._ _ z@_ +.e._ _ E.J&L.o+  ",
"  @ n@8#E@T$l._ v.s+K&L&M&e.e.e.e.e.7#5&#&N&W%E&C&O&P&a&Q&R&D%s&_&6@8@5@a@:&S&T&U&}&H&V&1&  _ _ z._ _ D._ _ _ _ _ } } f.W&X&H   ",
"  @ ]#8#S$,$Y&_ } Z&`&c.Q._ _ _ _ _ 7#5&#& *8%.*o&+*0&a&%&&&c&V%@*7@8@8@*%d&#*$*%*&*`%**1&  | | _ _ _ _ _._ s.z.+._ } {#W&z H ~%",
"@ @ =*l.U#,$D@} _ _ -*;*_.e._ _ _ _ 7#5&#&7&>*8&o&+*q&,*r@b&'*t&)*7@0@*%*%!*<&~*{*J%`%**1&  ]*^*/*_ _ (.(._._ _ _ e._ (*g.z (@7#",
"# @ ]#*.E@V#l._ +.'.e.e.e._.(._.~+~+7#5&m&_*W%n&o&:*q&t&W%<*[*t&L@7@7@a@^#}*|*~*{*1*2***3*  4*5*6*_ _ ~+e.e._._ _ e._ A@g.z H   ",
"  @ C@D@=.,$l._ +._ _ (.(.(._.e.~+~+7#7*#&D%W%8*9*+*0*r&r@&&c&s&L@8@7@5@^#a*S&T&%*1*b*c*3*  d*!$/.D.s._ e.e.~+e._ _ _ {#W&s U@  ",
"  @ C@D@e*V#l._ _ _ _._.(.(.e.e.e.~+7#7*#&f*r@E&C&:*q&B%B%b&c&s&L@8@8@8@*%g*h*i*{*1*b*c*3*  +.A.} _ _ _ _ _ e.(.+._.D.j*k*z &.  ",
"# @ ]#8#E@V#l._ _ _ _._._.e.e._._.+.l*m*n*D%W%E&o&:*P&B%r@b&c&s&_&8@a@L@*%a*o*p*{*1*b*q*r*7#+.,.+._ _ _ _ +.(.+.e._._ {#g.s*t*~%",
"  @ n@*.j.F@l._ _ _ e._._._ e._.+.+.7#u*v*_*W%n&w*:*0*t&-#b&c&s&)*5@8@L@^#x*y*z*{*A*b*B*C*  _._ _ e.D*E*F*_ _ _._ _ _ A@r%B }%  ",
"# i.]#8#E@V#l._ _ _ e.: _ _ _ (.'._   G*H*D%W%n&I*:*0*V%t&J*K*L*)**%*%*%M*N*#*z*O*A*&*P*Q*  e._ e._ R*S*T*_ _ _ _ < [ {#U*V*W*  ",
"  @ C@D@j.5.D@_ _ _.e.e.X*Y*3 _ (._.7#G*6&2%W%E&Z*:*0*%&t&J*c&s&L@*%5@*%^#F$`* ={*.=&*V&r*7#e._ _ _ +=R@@=_ _ _ #=$=%=&=*=y t   ",
"  @ n@8#j.F@l._ (._ _ _ ==-=;=_.>=z@,=G*S%D%>*E&9*:*P&D&,*b&N&'=@**%7@*%*%g*)=!={*.=~=V&3*~%_._ _ _ _ _ _ _ _ _ {=$##=j*T+]=t _@",
"  @ =*H.j.F@l._._.s._ _ ^=/=: _.(._.7#(=_=_*>*8*I*:*:=V%V%b&c&'=L@L@8@*%^#<=y*[={*}=|=1=3*7#e.e.e.e.e.+._ _ _ _ Q@2=3=4=5=6=}%7#",
"@ @ ]#D@E@5.D@e._ _ _ _.,.+._._.e.e.7#7=6&_*E&n&8=:*0*s&'=9=0='=*%7@7@a@*%a=b=c=U&1*|=d=3*7#e.e.e.~+(.e.e.e.e._ _ _ _ (**=V#t   ",
"  @ ]#8#E@e=D@e.: < f=P.g=,._.e.e.(.7#G*6&D%E&8&I*:*:=r&V%h=^&i=6@7@7@7@*%a=y*z*{*j=|=k=l=7#e.e.~+(.z@e.e.m+: _ _ _ _ {#g.m=n=  ",
"  @ ]#D@=.T$l.~+(._ K&p%o=+._.e.e.p=7#q=_=D%E&E&I*:*0*,*,*r=c&'=6@8@7@*%M*N*o*!=s=.=|=t=M%7#z@_.(._ _ _ u=v=w=s.z.} } @.x=y H   ",
"  @ I D@=.V#H.~+(.+.y=z=p=_ e.{.(.p=7#A=_=D%%&8*I*:*:=D&t&b&_*'=6@7@7@8@^#a*B=p*C=D=|=E=3*7#(._.e._ _ : F=G=H=_._ _._ @.x=z I=7#",
"  @ I D@U#,$l.+.e.e.e.: : _._.(.(.>=  l&_=2%>*8&I*J=:=r&D&R&v%'=7@L@7@8@x+N*o*K=C=L=M=q*3*7#e.e.e.e.e._ N=a.s+_.e.e._ @.x=z I=  ",
"@ i.=*O==.V#l._ e.e.e.e.e.(.z@_.e.e.  P=H*Q=E&R=S=J=0&E&T=h=v%U=L@a@a@8@x+<=)=K=V=W=X=Y=Z=  e.e.e.e.e._ +.'._ z@_._ _ @.k*L.U@. ",
". @ C@D@E@T$Y&_ e.e.e.(.z@+.'.e.e.e.Y#`= -.-+-@-I*#-q&$-%-&-*-=---^#;->-,-'-)-!-~-{-]-^-Q*l*m+/-_._._.e.e.~+~+e.e._ s.j*x=L.H   ",
". @ (-O=_-V#l.} _ _._.(.(._ _._.e._._ ( :-<-[-_ _.e.e.e.e._._._ e.~+_._ _ _ +._ _.e.e.e._.e._.N%_.e.e.e.e.e._._._ _ s.@.g.A }-7#",
"  i.|-] E@6=l._ _ e.e.e.e.e._ _ e.e._.e.1-2--*_ _ _._.(._.e.e._ : e.(._ 3-4-5-_.~+~+6-7-8-e.e.m+e.e.e.e.e._._._ 9-0-a-4=*=7 I=7#",
"  @ |-b-E@6=p+_ _ _.e.e.e.e._ _ _ e.e.e.e.: e.e.e.e.e.e.e.e.e.e.e.e.e._ c-d-e-_.{.f-g-h-i-e.e.e.e.e._._ _ e.: _ j-k-l-m-n-,$&.  ",
"+ @ (-] o-p-q-r-[ _ _ e.e.m+_._ _ e.e.e.e.e.e.e.e.e.e.m+e.e.e.e.e.e._._ s-a-;=_ (.+.t-u-Q@_.e.e.e._._._ _ e.e._.v-w-x-{#r%D I=  ",
"  @ y-b-o-C z-#._.s.z._ _._.e.e._ e.e._ _._._._.e.e.m+/-_._.(._.e.e._ _ _ } s.D.(._ _ _ _ _ _ +.(.(._._ _ _ e._ _ _ _ @.A-L.H   ",
"  i.B-C-7 D D-W E-F-F-G-G-H-r r I-J-J-I-G-G-G-G-G-r r r K-r G-G-G-r G-I-G-I-E-G-G-G-G-G-I-I-I-I-K-G-G-L-M-G-G-I-I-G-G-N-O-L.Z 7#",
"  P-Q-L.L.7 7 ,$,$,$L.,$,$,$,$,$,$,$,$,$,$,$,$,$,$,$,$,$,$,$,$,$,$,$,$,$,$,$,$,$,$,$,$,$,$,$,$,$,$,$-.,$,$,$,$,$,$7 7 7 7 z Z 7#",
"    R-S-S-T-T-S-S-S-S-T-T-S-U-S-U-S-S-V-V-S-V-S-T-T-S-S-S-T-S-S-S-V-V-S-V-V-W-X-S-S-S-T-T-S-S-S-S-V-T-T-S-S-S-S-S-S-S-T-Y-S-Z-  ",
"                                    7#7#      7#7#        7#    7#7#7#    7#    7#7#  7#7#7#7#    7#7#    7#        7#          "};
