/* XPM */
static char * wall_64_xpm[] = {
"64 64 1694 2",
"  	c #CB7C5A",
". 	c #C06B48",
"+ 	c #C06A48",
"@ 	c #BD6B4A",
"# 	c #100402",
"$ 	c #CA7B59",
"% 	c #BF6A48",
"& 	c #C06A47",
"* 	c #913C22",
"= 	c #0E0202",
"- 	c #CA7B58",
"; 	c #BF6947",
"> 	c #BC6948",
", 	c #120503",
"' 	c #CA7C5B",
") 	c #BF6A47",
"! 	c #903922",
"~ 	c #090101",
"{ 	c #CB7B59",
"] 	c #C06B49",
"^ 	c #BC6B4A",
"/ 	c #0F0301",
"( 	c #CA7B5A",
"_ 	c #8B3922",
": 	c #C77A57",
"< 	c #B96848",
"[ 	c #0F0302",
"} 	c #C97C5B",
"| 	c #BE6947",
"1 	c #903B22",
"2 	c #100403",
"3 	c #CC7A59",
"4 	c #A54323",
"5 	c #A54222",
"6 	c #A64222",
"7 	c #A04224",
"8 	c #0C0100",
"9 	c #CB7B5A",
"0 	c #A64423",
"a 	c #A44223",
"b 	c #742317",
"c 	c #C97A57",
"d 	c #A54121",
"e 	c #A44021",
"f 	c #A04123",
"g 	c #0D0100",
"h 	c #C97959",
"i 	c #A44222",
"j 	c #742217",
"k 	c #060000",
"l 	c #CB7857",
"m 	c #A54322",
"n 	c #A04225",
"o 	c #090000",
"p 	c #C87958",
"q 	c #A64322",
"r 	c #722217",
"s 	c #060001",
"t 	c #C67755",
"u 	c #A14325",
"v 	c #C87858",
"w 	c #A34224",
"x 	c #732318",
"y 	c #0B0302",
"z 	c #CC7957",
"A 	c #A34221",
"B 	c #A44221",
"C 	c #9F4124",
"D 	c #CB7A59",
"E 	c #A44121",
"F 	c #A34223",
"G 	c #CA7957",
"H 	c #A34021",
"I 	c #9F4023",
"J 	c #0D0101",
"K 	c #C97858",
"L 	c #A54122",
"M 	c #A34122",
"N 	c #752317",
"O 	c #CB7957",
"P 	c #A54223",
"Q 	c #C87857",
"R 	c #732217",
"S 	c #C67655",
"T 	c #A44322",
"U 	c #A14224",
"V 	c #C97757",
"W 	c #A24223",
"X 	c #BF6A4C",
"Y 	c #983B1E",
"Z 	c #983A1F",
"` 	c #98391E",
" .	c #96391E",
"..	c #95381D",
"+.	c #90381F",
"@.	c #BF6D4E",
"#.	c #973A1F",
"$.	c #95391E",
"%.	c #94391F",
"&.	c #BE6D4C",
"*.	c #973A1E",
"=.	c #96381E",
"-.	c #95381E",
";.	c #943920",
">.	c #0D0201",
",.	c #BE6C4D",
"'.	c #080000",
").	c #BF6C4C",
"!.	c #953A20",
"~.	c #0B0100",
"{.	c #95381F",
"].	c #BE6C4B",
"^.	c #993B1F",
"/.	c #94381E",
"(.	c #94381D",
"_.	c #943A21",
":.	c #0E0201",
"<.	c #BD6C4E",
"[.	c #943A1F",
"}.	c #722318",
"|.	c #813924",
"1.	c #5C1A12",
"2.	c #5F1C14",
"3.	c #601D14",
"4.	c #601C14",
"5.	c #5B1C14",
"6.	c #070101",
"7.	c #7E3825",
"8.	c #5D1B12",
"9.	c #5F1C13",
"0.	c #601C13",
"a.	c #5E1C13",
"b.	c #591C15",
"c.	c #050101",
"d.	c #7E3924",
"e.	c #5F1D13",
"f.	c #5D1D14",
"g.	c #0A0201",
"h.	c #853B26",
"i.	c #611B13",
"j.	c #5D1C13",
"k.	c #5C1C13",
"l.	c #5A1C14",
"m.	c #060101",
"n.	c #833924",
"o.	c #621C13",
"p.	c #5E1B13",
"q.	c #5C1B13",
"r.	c #5B1B13",
"s.	c #5D1B13",
"t.	c #601F15",
"u.	c #0A0401",
"v.	c #833B26",
"w.	c #5F1B12",
"x.	c #080201",
"y.	c #833A24",
"z.	c #591C14",
"A.	c #7C3623",
"B.	c #601D13",
"C.	c #5E1D15",
"D.	c #5A1E16",
"E.	c #070202",
"F.	c #6C4636",
"G.	c #6E4535",
"H.	c #6B4232",
"I.	c #674031",
"J.	c #020000",
"K.	c #684133",
"L.	c #6D4433",
"M.	c #6D4635",
"N.	c #6D4534",
"O.	c #6C4332",
"P.	c #4F2517",
"Q.	c #010000",
"R.	c #684233",
"S.	c #6D4535",
"T.	c #6C4434",
"U.	c #6B4333",
"V.	c #6E4534",
"W.	c #552818",
"X.	c #090402",
"Y.	c #6B4332",
"Z.	c #532719",
"`.	c #6D4737",
" +	c #6B4334",
".+	c #6C4433",
"++	c #562919",
"@+	c #040101",
"#+	c #694435",
"$+	c #6C4333",
"%+	c #4E2517",
"&+	c #6A4535",
"*+	c #6D4634",
"=+	c #6C4534",
"-+	c #542719",
";+	c #694334",
">+	c #6B4434",
",+	c #6C4535",
"'+	c #502517",
")+	c #6B4536",
"!+	c #6A4434",
"~+	c #BF6D4D",
"{+	c #C06D4B",
"]+	c #C26D4C",
"^+	c #B56649",
"/+	c #0A0000",
"(+	c #BB6A4B",
"_+	c #C16D4A",
":+	c #C26E4B",
"<+	c #C36D4B",
"[+	c #953D24",
"}+	c #040000",
"|+	c #C67555",
"1+	c #C06A49",
"2+	c #C26E4C",
"3+	c #C46F4C",
"4+	c #C36F4C",
"5+	c #C16C4A",
"6+	c #913B22",
"7+	c #C06F50",
"8+	c #C26D4A",
"9+	c #913C24",
"0+	c #110100",
"a+	c #C26C4B",
"b+	c #C26D4B",
"c+	c #9A4124",
"d+	c #0F0100",
"e+	c #BE6E4F",
"f+	c #C16B4A",
"g+	c #993F24",
"h+	c #070000",
"i+	c #C57755",
"j+	c #C16C4B",
"k+	c #C16B49",
"l+	c #923C23",
"m+	c #120301",
"n+	c #0F0000",
"o+	c #C77858",
"p+	c #C16E4C",
"q+	c #9F4127",
"r+	c #A24122",
"s+	c #772216",
"t+	c #A14427",
"u+	c #A24121",
"v+	c #A34121",
"w+	c #A64223",
"x+	c #792418",
"y+	c #0B0000",
"z+	c #772316",
"A+	c #110201",
"B+	c #A54527",
"C+	c #782318",
"D+	c #100000",
"E+	c #732116",
"F+	c #0B0101",
"G+	c #A34327",
"H+	c #A64122",
"I+	c #A44122",
"J+	c #752217",
"K+	c #C97958",
"L+	c #A54021",
"M+	c #762317",
"N+	c #100201",
"O+	c #A44427",
"P+	c #A64323",
"Q+	c #0D0000",
"R+	c #C97957",
"S+	c #9A3E24",
"T+	c #9C3C20",
"U+	c #983A20",
"V+	c #6F2015",
"W+	c #953D25",
"X+	c #9C3D20",
"Y+	c #9B3A1F",
"Z+	c #953920",
"`+	c #712117",
" @	c #0E0000",
".@	c #C57554",
"+@	c #9E3E20",
"@@	c #9A3A1F",
"#@	c #97391F",
"$@	c #96391F",
"%@	c #9C3C21",
"&@	c #7C2517",
"*@	c #150302",
"=@	c #943D25",
"-@	c #993A1F",
";@	c #9B3B21",
">@	c #7B2418",
",@	c #130000",
"'@	c #C16F4E",
")@	c #9A3B20",
"!@	c #9B3B20",
"~@	c #9A3B21",
"{@	c #742116",
"]@	c #953C24",
"^@	c #9D3C20",
"/@	c #973A20",
"(@	c #6E2016",
"_@	c #C06F4E",
":@	c #9E3D1F",
"<@	c #993B20",
"[@	c #9D3D20",
"}@	c #782417",
"|@	c #0F0101",
"1@	c #9A3A20",
"2@	c #9B3B1F",
"3@	c #0C0000",
"4@	c #C06E4F",
"5@	c #9B3D20",
"6@	c #9A3C20",
"7@	c #9A3C21",
"8@	c #621F16",
"9@	c #661D14",
"0@	c #5E1C15",
"a@	c #5C1C15",
"b@	c #631B14",
"c@	c #641C14",
"d@	c #661D13",
"e@	c #641C13",
"f@	c #5D1C15",
"g@	c #823923",
"h@	c #641C12",
"i@	c #681E14",
"j@	c #661C14",
"k@	c #601B13",
"l@	c #5E1D14",
"m@	c #0A0101",
"n@	c #611E16",
"o@	c #651C13",
"p@	c #651C14",
"q@	c #5E1E15",
"r@	c #873B23",
"s@	c #641D12",
"t@	c #641D13",
"u@	c #631B13",
"v@	c #621B13",
"w@	c #5F1D14",
"x@	c #0B0201",
"y@	c #5E1F16",
"z@	c #631C13",
"A@	c #651D14",
"B@	c #631E16",
"C@	c #0A0100",
"D@	c #833922",
"E@	c #5E1911",
"F@	c #641B12",
"G@	c #5D1C14",
"H@	c #601E16",
"I@	c #651D13",
"J@	c #080100",
"K@	c #873A23",
"L@	c #651E13",
"M@	c #641E15",
"N@	c #631E15",
"O@	c #5E3E31",
"P@	c #5C3A2D",
"Q@	c #5C392C",
"R@	c #5D3A2C",
"S@	c #5F3D2F",
"T@	c #5F3D30",
"U@	c #4B2618",
"V@	c #030101",
"W@	c #5A3A2E",
"X@	c #5D3A2D",
"Y@	c #5E3C2F",
"Z@	c #5C392D",
"`@	c #472217",
" #	c #090403",
".#	c #603F32",
"+#	c #603E30",
"@#	c #5E3D30",
"##	c #5D3C2F",
"$#	c #5C3B2D",
"%#	c #5F3C2F",
"&#	c #502619",
"*#	c #080403",
"=#	c #5D3B2E",
"-#	c #5F3C2E",
";#	c #482217",
">#	c #030100",
",#	c #5B3B30",
"'#	c #5E3C2E",
")#	c #603D2F",
"!#	c #050201",
"~#	c #5A3B2F",
"{#	c #050202",
"]#	c #5B3A2E",
"^#	c #5E3B2F",
"/#	c #462317",
"(#	c #5C3D31",
"_#	c #5D3C2E",
":#	c #5C3B2E",
"<#	c #5B3A2D",
"[#	c #040202",
"}#	c #CD7E5C",
"|#	c #C77250",
"1#	c #C66F4D",
"2#	c #C56E4C",
"3#	c #C67351",
"4#	c #A64A2A",
"5#	c #100301",
"6#	c #CB7B5B",
"7#	c #C56F4D",
"8#	c #C5704E",
"9#	c #C7714F",
"0#	c #C7704E",
"a#	c #964026",
"b#	c #0D0302",
"c#	c #C87957",
"d#	c #C87351",
"e#	c #C6714E",
"f#	c #C46E4D",
"g#	c #994127",
"h#	c #0E0200",
"i#	c #CC8060",
"j#	c #C6724F",
"k#	c #C5704D",
"l#	c #C56F4E",
"m#	c #C46E4C",
"n#	c #C56E4B",
"o#	c #9B4125",
"p#	c #CB7C5C",
"q#	c #C6704E",
"r#	c #C6704D",
"s#	c #C7724F",
"t#	c #A34628",
"u#	c #0F0202",
"v#	c #CA7E5F",
"w#	c #C6714F",
"x#	c #C97351",
"y#	c #9E4327",
"z#	c #0C0101",
"A#	c #C57655",
"B#	c #C5714E",
"C#	c #C46F4D",
"D#	c #C46E4B",
"E#	c #994226",
"F#	c #CA7D5D",
"G#	c #C4714D",
"H#	c #C4704D",
"I#	c #9B4327",
"J#	c #0F0403",
"K#	c #CA7856",
"L#	c #A74321",
"M#	c #A04022",
"N#	c #702016",
"O#	c #090100",
"P#	c #CE805F",
"Q#	c #A74424",
"R#	c #7A2517",
"S#	c #100202",
"T#	c #A14021",
"U#	c #A64121",
"V#	c #A74423",
"W#	c #712115",
"X#	c #A34020",
"Y#	c #732215",
"Z#	c #CD7A59",
"`#	c #A64422",
" $	c #752216",
".$	c #A23F20",
"+$	c #A24020",
"@$	c #A44123",
"#$	c #772217",
"$$	c #C97A59",
"%$	c #090001",
"&$	c #C97859",
"*$	c #A24323",
"=$	c #712317",
"-$	c #0A0202",
";$	c #C47150",
">$	c #9A3C1F",
",$	c #9B3C1F",
"'$	c #9E3D20",
")$	c #9D3D21",
"!$	c #712116",
"~$	c #C27051",
"{$	c #9E3E21",
"]$	c #983A21",
"^$	c #C57453",
"/$	c #9F3E21",
"($	c #9A3B1F",
"_$	c #9E3F21",
":$	c #762416",
"<$	c #C27152",
"[$	c #983B1F",
"}$	c #6D2016",
"|$	c #050000",
"1$	c #C47050",
"2$	c #9D3D1F",
"3$	c #BF7051",
"4$	c #9E3D21",
"5$	c #993C21",
"6$	c #6C2016",
"7$	c #9A3D20",
"8$	c #722216",
"9$	c #9D3E20",
"0$	c #9B3C20",
"a$	c #983C22",
"b$	c #712218",
"c$	c #8F3F27",
"d$	c #682014",
"e$	c #631D14",
"f$	c #631C15",
"g$	c #641D15",
"h$	c #671E15",
"i$	c #662017",
"j$	c #0C0303",
"k$	c #8F4028",
"l$	c #631D13",
"m$	c #621D14",
"n$	c #641D14",
"o$	c #661E15",
"p$	c #8A3F27",
"q$	c #671F14",
"r$	c #671F15",
"s$	c #661E14",
"t$	c #8E3F28",
"u$	c #6B2015",
"v$	c #631F16",
"w$	c #8B3C25",
"x$	c #641F16",
"y$	c #8B4029",
"z$	c #651E14",
"A$	c #5E1E16",
"B$	c #863B26",
"C$	c #671D15",
"D$	c #651F15",
"E$	c #080101",
"F$	c #873C26",
"G$	c #691F15",
"H$	c #661D15",
"I$	c #651E15",
"J$	c #651E16",
"K$	c #612017",
"L$	c #52352B",
"M$	c #52352A",
"N$	c #523429",
"O$	c #4F3327",
"P$	c #4E3225",
"Q$	c #4D3127",
"R$	c #060302",
"S$	c #51362B",
"T$	c #53352A",
"U$	c #513428",
"V$	c #513328",
"W$	c #503227",
"X$	c #3E1D13",
"Y$	c #53372C",
"Z$	c #503428",
"`$	c #513529",
" %	c #503429",
".%	c #020101",
"+%	c #4F3429",
"@%	c #513429",
"#%	c #3B1C13",
"$%	c #51342A",
"%%	c #523428",
"&%	c #503327",
"*%	c #51362A",
"=%	c #040201",
"-%	c #51352B",
";%	c #513327",
">%	c #3F1D13",
",%	c #060202",
"'%	c #50352A",
")%	c #503529",
"!%	c #050302",
"~%	c #51362C",
"{%	c #503328",
"]%	c #3C1D13",
"^%	c #C67250",
"/%	c #C67350",
"(%	c #C0704F",
"_%	c #0D0202",
":%	c #C87959",
"<%	c #C77350",
"[%	c #903C22",
"}%	c #0E0302",
"|%	c #CA7E5B",
"1%	c #C77451",
"2%	c #C5714F",
"3%	c #C5724F",
"4%	c #C57350",
"5%	c #C27353",
"6%	c #C77351",
"7%	c #953F26",
"8%	c #C07252",
"9%	c #C87C5C",
"0%	c #C57250",
"a%	c #C36E4C",
"b%	c #C87B5B",
"c%	c #130504",
"d%	c #CB7E5F",
"e%	c #C57351",
"f%	c #984227",
"g%	c #110504",
"h%	c #A34120",
"i%	c #A24324",
"j%	c #C97857",
"k%	c #A24021",
"l%	c #A64324",
"m%	c #772317",
"n%	c #C77856",
"o%	c #CC7B5A",
"p%	c #A33F20",
"q%	c #7A2518",
"r%	c #CB7958",
"s%	c #A33F21",
"t%	c #732216",
"u%	c #C67756",
"v%	c #9F4123",
"w%	c #A24123",
"x%	c #702317",
"y%	c #CB7A57",
"z%	c #A24224",
"A%	c #110302",
"B%	c #CD7D5B",
"C%	c #A54123",
"D%	c #7A2419",
"E%	c #A14223",
"F%	c #C97B5A",
"G%	c #742417",
"H%	c #CD7A58",
"I%	c #9E4223",
"J%	c #732317",
"K%	c #A44120",
"L%	c #A04223",
"M%	c #090202",
"N%	c #C47351",
"O%	c #A03F20",
"P%	c #9C3C1F",
"Q%	c #963C22",
"R%	c #0C0201",
"S%	c #C57555",
"T%	c #9F3E20",
"U%	c #9F3D20",
"V%	c #070001",
"W%	c #C47453",
"X%	c #9F3F20",
"Y%	c #983D22",
"Z%	c #9D3E1F",
"`%	c #9D3E21",
" &	c #C67252",
".&	c #A03E20",
"+&	c #9C3D1F",
"@&	c #993E22",
"#&	c #9D3C1F",
"$&	c #9B3D21",
"%&	c #C47353",
"&&	c #C57454",
"*&	c #9C3D21",
"=&	c #9A3D22",
"-&	c #6F2318",
";&	c #90402A",
">&	c #691F16",
",&	c #6B2017",
"'&	c #6D2117",
")&	c #6C2116",
"!&	c #662117",
"~&	c #8C3F2B",
"{&	c #6B2016",
"]&	c #6B1F16",
"^&	c #621F17",
"/&	c #8B3F27",
"(&	c #6A2015",
"_&	c #631F17",
":&	c #91412A",
"<&	c #681F15",
"[&	c #671F16",
"}&	c #662018",
"|&	c #95432B",
"1&	c #682015",
"2&	c #692016",
"3&	c #672117",
"4&	c #8F4029",
"5&	c #691F14",
"6&	c #6A2116",
"7&	c #661E16",
"8&	c #934128",
"9&	c #6A1F16",
"0&	c #661F15",
"a&	c #672017",
"b&	c #914029",
"c&	c #6C2015",
"d&	c #661F17",
"e&	c #672018",
"f&	c #65221A",
"g&	c #080202",
"h&	c #402920",
"i&	c #3F271E",
"j&	c #3F261E",
"k&	c #3E271E",
"l&	c #432A22",
"m&	c #442B21",
"n&	c #452B21",
"o&	c #42291F",
"p&	c #2D140D",
"q&	c #402921",
"r&	c #432A20",
"s&	c #422A21",
"t&	c #422920",
"u&	c #2F150D",
"v&	c #3F2820",
"w&	c #432A21",
"x&	c #30160E",
"y&	c #422B21",
"z&	c #422A20",
"A&	c #41291F",
"B&	c #442A21",
"C&	c #30150D",
"D&	c #40281F",
"E&	c #432920",
"F&	c #412920",
"G&	c #43291F",
"H&	c #33160E",
"I&	c #422B22",
"J&	c #41281F",
"K&	c #402A21",
"L&	c #C97653",
"M&	c #BE7152",
"N&	c #0C0200",
"O&	c #C47758",
"P&	c #C97654",
"Q&	c #CA7855",
"R&	c #CC7855",
"S&	c #9A4328",
"T&	c #C57A59",
"U&	c #C87653",
"V&	c #CA7655",
"W&	c #C97756",
"X&	c #CA7757",
"Y&	c #CA7755",
"Z&	c #994327",
"`&	c #0F0201",
" *	c #C27556",
".*	c #C87553",
"+*	c #CA7857",
"@*	c #984228",
"#*	c #0E0100",
"$*	c #C87D5B",
"%*	c #C97856",
"&*	c #C87754",
"**	c #C87554",
"=*	c #C97554",
"-*	c #CA7756",
";*	c #9F4428",
">*	c #C37657",
",*	c #C87654",
"'*	c #C97755",
")*	c #CB7654",
"!*	c #030000",
"~*	c #C57959",
"{*	c #C87655",
"]*	c #C97754",
"^*	c #C87452",
"/*	c #984126",
"(*	c #120202",
"_*	c #C87B5C",
":*	c #9E4528",
"<*	c #C77B5B",
"[*	c #C77554",
"}*	c #A04426",
"|*	c #A74523",
"1*	c #732315",
"2*	c #A34222",
"3*	c #772516",
"4*	c #CA7C5A",
"5*	c #A54423",
"6*	c #A64728",
"7*	c #130200",
"8*	c #C87956",
"9*	c #A14122",
"0*	c #A44727",
"a*	c #A84423",
"b*	c #7B2618",
"c*	c #C77857",
"d*	c #6F2115",
"e*	c #A14327",
"f*	c #A44323",
"g*	c #9E4226",
"h*	c #9F3F22",
"i*	c #9F4327",
"j*	c #A14022",
"k*	c #A03F21",
"l*	c #9E3F22",
"m*	c #6E2217",
"n*	c #A13F22",
"o*	c #762417",
"p*	c #A13F21",
"q*	c #A03F22",
"r*	c #9C3F22",
"s*	c #702116",
"t*	c #9C4327",
"u*	c #A24022",
"v*	c #9C3E22",
"w*	c #6F2117",
"x*	c #9F4022",
"y*	c #A44224",
"z*	c #792417",
"A*	c #120201",
"B*	c #994027",
"C*	c #732117",
"D*	c #C67554",
"E*	c #9F4122",
"F*	c #A04023",
"G*	c #A04122",
"H*	c #6F231A",
"I*	c #6F2017",
"J*	c #6E1F17",
"K*	c #692118",
"L*	c #6C231A",
"M*	c #702217",
"N*	c #672119",
"O*	c #944229",
"P*	c #6F2116",
"Q*	c #702117",
"R*	c #722117",
"S*	c #692018",
"T*	c #692219",
"U*	c #712217",
"V*	c #6F2217",
"W*	c #934028",
"X*	c #702015",
"Y*	c #702017",
"Z*	c #6E2017",
"`*	c #6E2116",
" =	c #6D2319",
".=	c #110103",
"+=	c #6C2017",
"@=	c #6A2219",
"#=	c #924129",
"$=	c #6E1F15",
"%=	c #6C1F16",
"&=	c #682017",
"*=	c #6E241A",
"==	c #6D2116",
"-=	c #964329",
";=	c #6F2216",
">=	c #6C2117",
",=	c #271813",
"'=	c #251611",
")=	c #241511",
"!=	c #231510",
"~=	c #050102",
"{=	c #261713",
"]=	c #261612",
"^=	c #241510",
"/=	c #261712",
"(=	c #261813",
"_=	c #1B0906",
":=	c #231511",
"<=	c #261611",
"[=	c #221410",
"}=	c #271612",
"|=	c #241611",
"1=	c #251612",
"2=	c #251511",
"3=	c #221510",
"4=	c #23140F",
"5=	c #1A0805",
"6=	c #070201",
"7=	c #1B0B07",
"8=	c #CA7F5E",
"9=	c #CB7A58",
"0=	c #CA7958",
"a=	c #CA7A58",
"b=	c #C7795A",
"c=	c #C87C5D",
"d=	c #CD7F5E",
"e=	c #A1492B",
"f=	c #100302",
"g=	c #C67959",
"h=	c #CA7A57",
"i=	c #130603",
"j=	c #C97C5C",
"k=	c #9B4429",
"l=	c #C77A5B",
"m=	c #C77E5E",
"n=	c #120603",
"o=	c #C87F60",
"p=	c #CA7A59",
"q=	c #964127",
"r=	c #0C0302",
"s=	c #C67A59",
"t=	c #C37555",
"u=	c #100503",
"v=	c #CA8060",
"w=	c #9E482C",
"x=	c #CC7B59",
"y=	c #9E4124",
"z=	c #752316",
"A=	c #A24225",
"B=	c #CF805F",
"C=	c #9F4225",
"D=	c #742316",
"E=	c #A04124",
"F=	c #A34324",
"G=	c #732316",
"H=	c #0A0302",
"I=	c #CC7A58",
"J=	c #A34123",
"K=	c #9E4023",
"L=	c #9E4024",
"M=	c #712318",
"N=	c #A23F22",
"O=	c #CA795A",
"P=	c #C87856",
"Q=	c #A44023",
"R=	c #A44022",
"S=	c #9C4024",
"T=	c #C77656",
"U=	c #C97655",
"V=	c #A34022",
"W=	c #A23F21",
"X=	c #9F4125",
"Y=	c #C67757",
"Z=	c #A24023",
"`=	c #C77655",
" -	c #9C3F24",
".-	c #C97758",
"+-	c #A14124",
"@-	c #9E462C",
"#-	c #722218",
"$-	c #712118",
"%-	c #6F2319",
"&-	c #6D241B",
"*-	c #702216",
"=-	c #702519",
"--	c #0C0202",
";-	c #98432A",
">-	c #6F2016",
",-	c #74251A",
"'-	c #130403",
")-	c #74281D",
"!-	c #702118",
"~-	c #702419",
"{-	c #9E462B",
"]-	c #722317",
"^-	c #702418",
"/-	c #70261B",
"(-	c #6F2118",
"_-	c #9B462C",
":-	c #6D2218",
"<-	c #6D251C",
"[-	c #702219",
"}-	c #6E231A",
"|-	c #090201",
"1-	c #0B0202",
"2-	c #030201",
"3-	c #040302",
"4-	c #050100",
"5-	c #0D0403",
"6-	c #010101",
"7-	c #C47858",
"8-	c #C37A5C",
"9-	c #C77958",
"0-	c #C67A5B",
"a-	c #140604",
"b-	c #C47A5A",
"c-	c #C77756",
"d-	c #BF7254",
"e-	c #110503",
"f-	c #C4785A",
"g-	c #C67654",
"h-	c #BE7254",
"i-	c #0E0505",
"j-	c #C17658",
"k-	c #C17556",
"l-	c #0E0401",
"m-	c #C57C5E",
"n-	c #C07456",
"o-	c #0E0403",
"p-	c #C2795B",
"q-	c #C77757",
"r-	c #C67656",
"s-	c #120704",
"t-	c #C77E60",
"u-	c #C37859",
"v-	c #120705",
"w-	c #CD7B59",
"x-	c #A74425",
"y-	c #9E4325",
"z-	c #CD7C5B",
"A-	c #A74323",
"B-	c #A04326",
"C-	c #C87757",
"D-	c #A54324",
"E-	c #9F4224",
"F-	c #9F4426",
"G-	c #110301",
"H-	c #CF7E5D",
"I-	c #0E0101",
"J-	c #9D4225",
"K-	c #CC7D5C",
"L-	c #A34425",
"M-	c #A14324",
"N-	c #A14424",
"O-	c #A04528",
"P-	c #C67A5C",
"Q-	c #A44627",
"R-	c #A24325",
"S-	c #A34325",
"T-	c #9E4428",
"U-	c #C37758",
"V-	c #A44425",
"W-	c #9F4427",
"X-	c #C97B5C",
"Y-	c #9C4427",
"Z-	c #C67858",
"`-	c #A14425",
" ;	c #A14628",
".;	c #C5795B",
"+;	c #A04325",
"@;	c #9A4327",
"#;	c #C5785A",
"$;	c #A34426",
"%;	c #9D4327",
"&;	c #A44527",
"*;	c #A24425",
"=;	c #9D4429",
"-;	c #0D0402",
";;	c #281713",
">;	c #1F0B07",
",;	c #1D0A06",
"';	c #1E0A06",
");	c #1B0805",
"!;	c #1A0906",
"~;	c #1E0B07",
"{;	c #080302",
"];	c #291814",
"^;	c #1D0906",
"/;	c #1D0A07",
"(;	c #1F0B06",
"_;	c #1F0C08",
":;	c #1B0A07",
"<;	c #200B06",
"[;	c #210D08",
"};	c #230D08",
"|;	c #200B07",
"1;	c #200C07",
"2;	c #1D0B07",
"3;	c #271712",
"4;	c #1B0A06",
"5;	c #220D07",
"6;	c #241612",
"7;	c #1F0A06",
"8;	c #1E0906",
"9;	c #1E0C07",
"0;	c #200A07",
"a;	c #1C0A06",
"b;	c #1C0B07",
"c;	c #271713",
"d;	c #1C0A07",
"e;	c #C67E60",
"f;	c #C67A5A",
"g;	c #954329",
"h;	c #C17C5E",
"i;	c #C67958",
"j;	c #C57756",
"k;	c #C67857",
"l;	c #96432A",
"m;	c #BF775A",
"n;	c #C57858",
"o;	c #C57857",
"p;	c #944328",
"q;	c #110402",
"r;	c #C07658",
"s;	c #C47756",
"t;	c #C47555",
"u;	c #924229",
"v;	c #C47B5C",
"w;	c #C47655",
"x;	c #C77A59",
"y;	c #9D462A",
"z;	c #BF7658",
"A;	c #944128",
"B;	c #BE7658",
"C;	c #C57856",
"D;	c #C57757",
"E;	c #964227",
"F;	c #C27A5C",
"G;	c #C37655",
"H;	c #9B452A",
"I;	c #C0795B",
"J;	c #C47857",
"K;	c #A64A2C",
"L;	c #A74627",
"M;	c #782617",
"N;	c #A0482C",
"O;	c #A84828",
"P;	c #AA4929",
"Q;	c #A94828",
"R;	c #A64627",
"S;	c #762619",
"T;	c #A84728",
"U;	c #A94728",
"V;	c #A94829",
"W;	c #782517",
"X;	c #A1472C",
"Y;	c #A94928",
"Z;	c #762518",
"`;	c #C97855",
" >	c #A84727",
".>	c #A74728",
"+>	c #A6482C",
"@>	c #A84627",
"#>	c #A64526",
"$>	c #A64626",
"%>	c #7F2919",
"&>	c #AA4828",
"*>	c #AB4929",
"=>	c #752417",
"->	c #A74828",
";>	c #772416",
">>	c #A34428",
",>	c #7A2519",
"'>	c #782317",
")>	c #130202",
"!>	c #772318",
"~>	c #752116",
"{>	c #9F4226",
"]>	c #A54221",
"^>	c #A44020",
"/>	c #A14227",
"(>	c #9F4326",
"_>	c #762517",
":>	c #A04327",
"<>	c #100100",
"[>	c #CB7956",
"}>	c #C87756",
"|>	c #A04227",
"1>	c #7F2B1C",
"2>	c #7E2918",
"3>	c #792718",
"4>	c #6A1F17",
"5>	c #71261B",
"6>	c #7B2718",
"7>	c #802A18",
"8>	c #7F2918",
"9>	c #6D2118",
"0>	c #A04A30",
"a>	c #792516",
"b>	c #7D2718",
"c>	c #7E2819",
"d>	c #7D2818",
"e>	c #7C2819",
"f>	c #782618",
"g>	c #6E2117",
"h>	c #74281B",
"i>	c #7C2718",
"j>	c #7E2818",
"k>	c #6E2218",
"l>	c #A04B30",
"m>	c #7A2617",
"n>	c #7A2717",
"o>	c #7A2618",
"p>	c #772517",
"q>	c #792A1B",
"r>	c #772518",
"s>	c #792518",
"t>	c #A44D31",
"u>	c #782416",
"v>	c #792618",
"w>	c #76281B",
"x>	c #792617",
"y>	c #6E2118",
"z>	c #A34B30",
"A>	c #782616",
"B>	c #270B09",
"C>	c #260A07",
"D>	c #210907",
"E>	c #1F0907",
"F>	c #290D09",
"G>	c #270B07",
"H>	c #260B08",
"I>	c #260B07",
"J>	c #220A08",
"K>	c #341811",
"L>	c #240907",
"M>	c #280C07",
"N>	c #280B07",
"O>	c #250A07",
"P>	c #220907",
"Q>	c #200907",
"R>	c #280C09",
"S>	c #270B08",
"T>	c #240A07",
"U>	c #250B08",
"V>	c #321710",
"W>	c #260A08",
"X>	c #230908",
"Y>	c #270A08",
"Z>	c #371A12",
"`>	c #220A07",
" ,	c #020001",
".,	c #250A08",
"+,	c #230A07",
"@,	c #220806",
"#,	c #1F0807",
"$,	c #381B12",
"%,	c #BA7154",
"&,	c #BA6E4F",
"*,	c #BB7152",
"=,	c #BB7354",
"-,	c #BC7254",
";,	c #BA7052",
">,	c #B46D50",
",,	c #B56E53",
"',	c #B96E50",
"),	c #BB7154",
"!,	c #BB7253",
"~,	c #BA7051",
"{,	c #8B3E25",
"],	c #B66F52",
"^,	c #BB7052",
"/,	c #BB7153",
"(,	c #BA7153",
"_,	c #B96F50",
":,	c #B77052",
"<,	c #140806",
"[,	c #B97558",
"},	c #B96F52",
"|,	c #B97052",
"1,	c #BC7252",
"2,	c #8F3E25",
"3,	c #B56E51",
"4,	c #BA6F51",
"5,	c #B77254",
"6,	c #0D0301",
"7,	c #B67256",
"8,	c #B86F50",
"9,	c #BC7152",
"0,	c #924025",
"a,	c #B77255",
"b,	c #B97152",
"c,	c #B97151",
"d,	c #B97051",
"e,	c #0E0503",
"f,	c #B77155",
"g,	c #B97050",
"h,	c #B87052",
"i,	c #8C3F27",
"j,	c #CD7B58",
"k,	c #AC4E2D",
"l,	c #AB4D2E",
"m,	c #AA4D2E",
"n,	c #AB4D2D",
"o,	c #AA4C2D",
"p,	c #A94D30",
"q,	c #170703",
"r,	c #AD5133",
"s,	c #AD4E2E",
"t,	c #AC4D2E",
"u,	c #AF5030",
"v,	c #822D1B",
"w,	c #0C0102",
"x,	c #AE4F30",
"y,	c #AE4F2F",
"z,	c #A64C2F",
"A,	c #AA5134",
"B,	c #AD4E2F",
"C,	c #AD4F2F",
"D,	c #802B1B",
"E,	c #AD4D2D",
"F,	c #AB4C2D",
"G,	c #AD4D2E",
"H,	c #AC5031",
"I,	c #AA5133",
"J,	c #AC4D2D",
"K,	c #AA4B2D",
"L,	c #B04F30",
"M,	c #812C1A",
"N,	c #A94E30",
"O,	c #A74F32",
"P,	c #AC4E2E",
"Q,	c #AB4D2F",
"R,	c #77281A",
"S,	c #CE7E5B",
"T,	c #A54425",
"U,	c #160603",
"V,	c #A34528",
"W,	c #A84524",
"X,	c #140403",
"Y,	c #A04324",
"Z,	c #A14527",
"`,	c #A44E34",
" '	c #7C2618",
".'	c #7E2617",
"+'	c #7F2718",
"@'	c #802818",
"#'	c #7A2819",
"$'	c #73261B",
"%'	c #7E2618",
"&'	c #7F2619",
"*'	c #7D2618",
"='	c #6D1F15",
"-'	c #A54F32",
";'	c #812917",
">'	c #7E2717",
",'	c #7B2517",
"''	c #7B2617",
")'	c #7C2617",
"!'	c #7D2617",
"~'	c #7E2718",
"{'	c #A44B31",
"]'	c #7F2818",
"^'	c #802718",
"/'	c #772619",
"('	c #74261B",
"_'	c #6A1E15",
":'	c #A24D33",
"<'	c #7D2518",
"['	c #752719",
"}'	c #78291C",
"|'	c #7A2718",
"1'	c #7B2719",
"2'	c #3C1C13",
"3'	c #280A07",
"4'	c #2D0C08",
"5'	c #2E0C08",
"6'	c #2B0C08",
"7'	c #2A0C08",
"8'	c #270C09",
"9'	c #2C0B08",
"0'	c #2B0B09",
"a'	c #2B0B08",
"b'	c #2A0B08",
"c'	c #2A0D09",
"d'	c #050303",
"e'	c #3D1C13",
"f'	c #2D0C09",
"g'	c #2B0D09",
"h'	c #290B08",
"i'	c #290A08",
"j'	c #2C0D09",
"k'	c #401C13",
"l'	c #290C08",
"m'	c #2B0A08",
"n'	c #2A0D0A",
"o'	c #290B09",
"p'	c #3A1B12",
"q'	c #290B07",
"r'	c #2C0C08",
"s'	c #2C0C09",
"t'	c #260C08",
"u'	c #280B08",
"v'	c #2A0C09",
"w'	c #020201",
"x'	c #B76F51",
"y'	c #B56E50",
"z'	c #B66E50",
"A'	c #B26E52",
"B'	c #130705",
"C'	c #B67056",
"D'	c #B76E50",
"E'	c #B66F51",
"F'	c #B06C4F",
"G'	c #0A0303",
"H'	c #B37257",
"I'	c #B77053",
"J'	c #B66E51",
"K'	c #B57154",
"L'	c #110604",
"M'	c #B26E53",
"N'	c #B56D4F",
"O'	c #B76F52",
"P'	c #B56D50",
"Q'	c #B06B4F",
"R'	c #0C0503",
"S'	c #B46F54",
"T'	c #B76E51",
"U'	c #B36E52",
"V'	c #0C0301",
"W'	c #B47156",
"X'	c #B67052",
"Y'	c #B46F53",
"Z'	c #B47358",
"`'	c #B56F51",
" )	c #B67459",
".)	c #B77153",
"+)	c #B37055",
"@)	c #0D0504",
"#)	c #AC4F30",
"$)	c #AD4F30",
"%)	c #AE5031",
"&)	c #AF5031",
"*)	c #A95033",
"=)	c #AE5030",
"-)	c #AE5131",
";)	c #AF5131",
">)	c #A84F31",
",)	c #C97B59",
"')	c #AE5032",
"))	c #AD5030",
"!)	c #AD5334",
"~)	c #A95032",
"{)	c #0F0402",
"])	c #C97A58",
"^)	c #A84F32",
"/)	c #CB7C5B",
"()	c #AF5232",
"_)	c #AD5031",
":)	c #AC5030",
"<)	c #A75033",
"[)	c #CD7B5A",
"})	c #CE7E5C",
"|)	c #CB7856",
"1)	c #CA7858",
"2)	c #5D3A2E",
"3)	c #461F13",
"4)	c #471F14",
"5)	c #4A2014",
"6)	c #4A2115",
"7)	c #472015",
"8)	c #5C3A2E",
"9)	c #4B2015",
"0)	c #4B2014",
"a)	c #452015",
"b)	c #4B2115",
"c)	c #491F14",
"d)	c #481F14",
"e)	c #492015",
"f)	c #5E3C30",
"g)	c #482014",
"h)	c #4A1F15",
"i)	c #451F14",
"j)	c #4A1F14",
"k)	c #492115",
"l)	c #472014",
"m)	c #481F13",
"n)	c #491F13",
"o)	c #451F15",
"p)	c #5C3B2F",
"q)	c #441F14",
"r)	c #5D3C30",
"s)	c #462014",
"t)	c #462015",
"u)	c #030202",
"v)	c #B06E52",
"w)	c #B16C4E",
"x)	c #B06B4C",
"y)	c #843A22",
"z)	c #A8674D",
"A)	c #AF694C",
"B)	c #B06B4E",
"C)	c #AF694B",
"D)	c #000000",
"E)	c #A8684D",
"F)	c #B06A4C",
"G)	c #B16B4E",
"H)	c #AF6A4C",
"I)	c #AE684A",
"J)	c #AF684B",
"K)	c #8E3F25",
"L)	c #AC6C51",
"M)	c #AE694C",
"N)	c #AE684B",
"O)	c #AC6C50",
"P)	c #AF6A4D",
"Q)	c #8B3E24",
"R)	c #AB6A4F",
"S)	c #AE694B",
"T)	c #B06B4D",
"U)	c #B26C4E",
"V)	c #893D24",
"W)	c #B06A4D",
"X)	c #873A22",
"Y)	c #A9674E",
"Z)	c #AF6B4D",
"`)	c #AE6749",
" !	c #863B23",
".!	c #AB6B51",
"+!	c #AF6C4E",
"@!	c #AD6B4F",
"#!	c #B15839",
"$!	c #B05534",
"%!	c #AC5132",
"&!	c #7B2A1A",
"*!	c #AC5437",
"=!	c #B05333",
"-!	c #AF5333",
";!	c #B25534",
">!	c #84301C",
",!	c #AF5233",
"'!	c #B15333",
")!	c #B15434",
"!!	c #B15433",
"~!	c #7E2C1A",
"{!	c #AE5739",
"]!	c #B05334",
"^!	c #802E1C",
"/!	c #CC7C58",
"(!	c #B05433",
"_!	c #AF5132",
":!	c #B05232",
"<!	c #B25435",
"[!	c #822E1B",
"}!	c #AC5638",
"|!	c #AE5132",
"1!	c #85301D",
"2!	c #AF5332",
"3!	c #AE5232",
"4!	c #802B1A",
"5!	c #AF5538",
"6!	c #B05332",
"7!	c #7F2C1C",
"8!	c #AE5434",
"9!	c #B05434",
"0!	c #782518",
"a!	c #CC7D5B",
"b!	c #A74422",
"c!	c #7C2416",
"d!	c #A34527",
"e!	c #792316",
"f!	c #110101",
"g!	c #A34427",
"h!	c #A74222",
"i!	c #772418",
"j!	c #170B0B",
"k!	c #7E2C1C",
"l!	c #852C1A",
"m!	c #842D1A",
"n!	c #7B2C1D",
"o!	c #822C1A",
"p!	c #852E1A",
"q!	c #852D1A",
"r!	c #842C1A",
"s!	c #6D1F17",
"t!	c #A95539",
"u!	c #862D19",
"v!	c #832C1A",
"w!	c #812B19",
"x!	c #802B19",
"y!	c #7E2D1D",
"z!	c #812B1A",
"A!	c #822C19",
"B!	c #AB5437",
"C!	c #7F2A18",
"D!	c #822B19",
"E!	c #7E2D1E",
"F!	c #AA5639",
"G!	c #822B1A",
"H!	c #832C19",
"I!	c #A85438",
"J!	c #842E1B",
"K!	c #832E1A",
"L!	c #3B130D",
"M!	c #3C110B",
"N!	c #39110A",
"O!	c #35100B",
"P!	c #37110C",
"Q!	c #3C120C",
"R!	c #3B120C",
"S!	c #3B110B",
"T!	c #34100C",
"U!	c #4E2417",
"V!	c #3E120B",
"W!	c #3D120C",
"X!	c #3B100B",
"Y!	c #3A100B",
"Z!	c #360F0A",
"`!	c #3A120C",
" ~	c #39110B",
".~	c #3A110B",
"+~	c #3A110D",
"@~	c #060102",
"#~	c #542718",
"$~	c #3D120B",
"%~	c #38100B",
"&~	c #38100A",
"*~	c #37100B",
"=~	c #36100B",
"-~	c #3C110C",
";~	c #3C130D",
">~	c #350E09",
",~	c #37100A",
"'~	c #34100B",
")~	c #3B120D",
"!~	c #3B110C",
"~~	c #3B120B",
"{~	c #3E1610",
"]~	c #3A110C",
"^~	c #A96A4F",
"/~	c #AA684C",
"(~	c #AA674B",
"_~	c #A9674B",
":~	c #A7684E",
"<~	c #120805",
"[~	c #A6684F",
"}~	c #A9674A",
"|~	c #A9684B",
"1~	c #A9684C",
"2~	c #A8654A",
"3~	c #7F3923",
"4~	c #A6684E",
"5~	c #AA684B",
"6~	c #A9664A",
"7~	c #130805",
"8~	c #A86A51",
"9~	c #A9674C",
"0~	c #A8664A",
"a~	c #813923",
"b~	c #A86950",
"c~	c #A9664B",
"d~	c #A8694F",
"e~	c #100604",
"f~	c #A86B52",
"g~	c #AA684D",
"h~	c #AC694E",
"i~	c #7E3822",
"j~	c #A5664C",
"k~	c #AA674C",
"l~	c #A5654B",
"m~	c #0F0503",
"n~	c #A5684F",
"o~	c #A9684D",
"p~	c #7F3924",
"q~	c #0B0303",
"r~	c #B35838",
"s~	c #B45838",
"t~	c #B35737",
"u~	c #AE583A",
"v~	c #130503",
"w~	c #AE593C",
"x~	c #B35938",
"y~	c #B25738",
"z~	c #81301E",
"A~	c #C67856",
"B~	c #B45939",
"C~	c #AE5738",
"D~	c #AF5A3E",
"E~	c #B25737",
"F~	c #B15737",
"G~	c #812F1D",
"H~	c #B15C3F",
"I~	c #B25839",
"J~	c #83301C",
"K~	c #B25637",
"L~	c #B25736",
"M~	c #B05839",
"N~	c #B15B3D",
"O~	c #B25838",
"P~	c #83311E",
"Q~	c #A24427",
"R~	c #9F4227",
"S~	c #9D4226",
"T~	c #A44528",
"U~	c #130302",
"V~	c #843120",
"W~	c #852F1C",
"X~	c #732418",
"Y~	c #120302",
"Z~	c #863220",
"`~	c #842F1C",
" {	c #852F1B",
".{	c #81301F",
"+{	c #862F1C",
"@{	c #872F1C",
"#{	c #87301C",
"${	c #050001",
"%{	c #9D4123",
"&{	c #80301F",
"*{	c #702318",
"={	c #754938",
"-{	c #5B2818",
";{	c #5A2717",
">{	c #5B2717",
",{	c #5A2617",
"'{	c #592718",
"){	c #060201",
"!{	c #3D1510",
"~{	c #3F130D",
"{{	c #3F130E",
"]{	c #3E130E",
"^{	c #3D140E",
"/{	c #724838",
"({	c #5B2718",
"_{	c #5A2718",
":{	c #3F1510",
"<{	c #3C140F",
"[{	c #734837",
"}{	c #5B2817",
"|{	c #582718",
"1{	c #3E140F",
"2{	c #3F140D",
"3{	c #3C130E",
"4{	c #724736",
"5{	c #572718",
"6{	c #3D150F",
"7{	c #3E140E",
"8{	c #3E130D",
"9{	c #3D140F",
"  . . . . + @ # $ % + + & + * = - . . . + ; > , ' % ) & ; ; ! ~ { ] + + + + ^ / ( . . + & ) _ ~ : ] . % ) ; < [ } ] . + ) | 1 2 ",
"3 4 5 6 5 5 7 8 9 0 5 5 5 a b ~ c 4 5 5 d e f g h 4 5 5 d i j k l 4 m 5 5 5 n o p m 5 5 q 4 r s t 4 5 5 6 6 u g v 4 5 5 i w x y ",
"z 4 5 i A B C 8 D m E B i F r ~ G 4 5 5 E H I J K 5 5 L e M N k O 4 5 5 5 P 7 o Q 5 5 5 5 P R s S T i i i i U g V 4 i i i W x y ",
"X Y Z `  ...+.J @.#. .$.$.%.r ~ &.*.=.-.....;.>.,. .=.=.-.-.N '.).#. .$.-.=.!.~.,. .$.$.-.{.j ~ ].^. ./.(.(._.:.<.Z -.$.$.[.}.y ",
"|.1.2.3.4.4.5.6.7.8.9.3.0.a.b.c.d.0.4.e.e.a.f.g.h.i.j.j.k.j.l.m.n.o.p.q.r.s.t.u.v.w.s.s.s.a.f.x.y.a.j.9.9.2.z.6.A.B.4.3.C.f.D.E.",
"F.G.H.I.J.K.L.M.N.O.P.Q.R.S.N.T.T.U.V.W.X.F.Y.U.T.V.Z.m.`.S.T.T. +.+V.++@+#+Y.$+$+$+%+Q.&+*+=+T.$+$+V.-+E.;+>+,+T..+'+c.)+,+>+!+",
"~+{+]+^+/+(+. _+:+<+[+}+|+1+2+3+4+5+% 6+:.7+<+:+8+] 9+0+{ <+a+b+b+5+b+c+d+e+] 1+f+<+g+h+i+] j+a+b+5+k+l+m+,.b+2+b++ l+n+o+]+p+~+",
"q+r+P s+J t+i u+v+w+x+y+( E H d 5 w+5 z+A+B+d E E w+C+D+G 6 d 5 5 5 P E+F+G+H+L I+M J+/+K+E e L+H+6 4 M+N+O+L I+d P+M+Q+R+P i i ",
"S+T+U+V+h+W+X+T+Y+Z+`+ @.@+@@@#@$@#@%@&@*@=@#.Z -@;@>@,@'@#.)@!@)@)@~@{@F+]@!@^@T+/@(@h+_@:@@@Z -@<@[@}@|@[+Z 1@2@T+R 3@4@5@6@7@",
"8@9@9@0@6.a@b@c@d@e@f@}+g@h@i@j@d@o.k@l@m@n@o@p@p@9@q@~.r@s@t@e@u@u@v@w@x@y@o.z@A@9@B@C@D@E@z@e@F@z@v@G@~ H@I@c@e@i.C.J@K@L@M@N@",
"O@P@Q@R@S@T@U@V@W@X@S@T@Y@Z@`@ #.#+#@###$#%#&#*#O@=#=###=#-#;#>#,###'#'#Y@)#&#!#~#P@##Y@Y@'#`@{#]#^#Y@Y@##$#/#{#(#Y@=#_#:#<#/#[#",
"}#|#1#2#3+3#4#5#6#1#7#8#9#0#a#b#c#|#d#d#e#f#g#h#i#j#k#l#m#n#o#>.p#e#q#r#r#s#t#u#v#e#8#8#w#x#y#z#A#8#B#8#C#D#E#>.F#s#q#8#G#H#I#J#",
"K#i L#L#B M#N#O#P#Q#E H H i R#S#R+T#E U#q V#W#h+9 P+e H X#L Y#~ Z#`#e H e I+ $'.' q H .$+$@$#$~ $$i +$H H w+M+%$&$M E i i *$=$-$",
";$>$,$X+'$)$!$k ~$5@+@{$X+]$(@m@^$/$!@($,$_$:$F+<$[$^@'$+@X+}$|$1$T+[@2$'$6@!$J@3$5@'$[@4$5$6$m.3$7$T+T+^@)$8$o <$9$0$0$6@a$b$-$",
"c$d$e$f$g$h$i$j$k$l$m$n$o$o$H@m.p$q$r$s$n$m$0@~ t$u$o$g$g$M@v$~ w$A@o$r$o$o$x$6.y$z$o$o$h$o$A$c.B$s$h$C$h$D$H@E$F$G$H$I$I$J$K$E.",
"L$M$M$N$O$P$Q$R$S$T$U$V$W$W$X${#Y$N$V$V$Z$`$ %.%+%V$@%`$N$W$#%.%$%%%Z$&%Z$U$*%=%-%V$&%W$W$;%>%,%'%Z$&%O$&%&%)%!%~%@%&%{%@%M$]%[#",
"D ^%3#/%j#e#(%_%:%|#<%|#j#C#[%}%|%1%2%8#3%4%5%# ' B#3%^%6%s#7%~ K j#^%^%3%2%8%8 9%0%3%B#8#a%[+S#b%3%B#3%B#2%5%c%d%6%2%2%2%e%f%g%",
"O u+h%B B P+i%>.j%k%E 5 i l%m%m@n%k%E E E H f J o%5 p%.$X#5 q%m@r%v+p%s%H e 7 y+c#v+X#H H P t%k u%A X#H H H v%g p E E E v+w%x%-$",
"y%A +$+$+$H z%A%B%B +$+$+$C%D%F+j%v+H v+H X#E%J F%B e E X#M G%~ H%E X#X#X#E I%O#Q E X#X#X#M J%E$n%A X#X#X#K%L%:.v v+H H v+E%x%M%",
"N%u+O%:@P%,$Q%R%S%O%T%U%:@6@(@V%W%X%T%:@2$T+Y%>.S 9$2$[@Z%`%J%h+ &T%.&2$+&P%@&>.W%[@2$#&+&$&=$E$%&T%P%X++&P%@&:.&&+@[@)$*&=&-&M%",
";&H$>&,&'&)&!&6.~&H${&6$]&r$^&M%/&z$(&}$6${&_&k :&(&>&<&[&h$}&m@|&G$1&1&1&2&3&E$4&5&2&6&2&7&^&6.8&}$9&[&0&0&a&F+b&c&h$J$d&e&f&g&",
"h&i&j&k&V@l&m&n&n&o&p&Q.q&m&m&r&s&t&o&u&c.v&r&m&w&i&x&m.y&z&A&A&t&w&B&C&J.v&t&z&z&D&p&J.h&E&t&F&D&D&G&H&6.I&F&D&J&A&u&.%K&F&F&s&",
":%L&<%M&N&O&P&K#Q&R&S&}+T&U&V&W&X&Y&P&Z&`& *.*j%+*Y&@*#*$*%*K#&***=*-*;*#*>*,*'*Q&)*@*!*~*{*-*Q&]*^*d#/*(*_*P&P&,*L&:*/+<*'***[*",
"}*4 |*1*F+y#5 i 2*0 3*J 4*2*v+5 5 m 5*3**@6*i k%u+4 3*7*8*u+m 4 m i 9*j A+0*A u+M a*b*Q+c*u+T m 4 P+Q#d*z#e*i T T F 8$Q+K+2*T f*",
"g*h*I R ~.i*M#j*k*l*m*'.j%P n*k*k*k*w%o*(*t+j*p*q*r*}$0+G I+k*n*n*j*h*s*~ t*u*u*q*v*w*#*- E h*l*h*x*y*z*A*B*h*q*q*w%C*o D*E*F*G*",
"H*I*J*K*'.L*M*'&6$6$N*|$O*V+P*Q*`+R*w*S*F+T*M*U*=$V*S*g W*X*Y*Z*}$'&`* =.=L*+=Z*`+Q*@=h+#=$=r Q*Z*6$%=&=z#*=w*(@==}$T*3@-=;===>=",
",='=)='='=)=!=~={=]=^=!=/=(=_=V@!=:='=<=]=]=:=!*[=^=}=/=/=|=_=!#1=2=)=^=)=<=,=!#3=4=2=)=)=!=5=6='=]='=)=:=^=}=~=/=|=)=|='='=7=@+",
"8={ 9=0=a=G b=, c=$ 9=K#{ d=e=f=g=%*h=9=a=a=<*i=j='*G D a=G k=R%l=0=G K#%*R+m=n=o=K#K#p=D O q=r=s=9=3 r%G W&t=u=v=  O G j%K+w=g%",
"x=v+E E H I+y=/ p=2*E m 5 F z=R%{ v+v+H H H A=A+B=5 +$+$+$5 m%F+9=v+e e E v+C=~.p#P+H H i P+D=~ v i H H e E E=>.p=5 E E 2*F=G=H=",
"I=v+H e H e E=:.{ P+H H H J=U*E$9=P E H s%s%K=J B%5 H X#p%p*Q*V%I=i H e H H L=~.v I+E L I+u*(@V%K i H H H H C :.j%I+e E i z%M=-$",
"z M N=p*u*u*C N+O=J=N=u*T#l*P*m@P=j*Q=I+R=u*S=z#T=j*@$C%L F*}$|$U=F I+V=V=W=X=#*Y=j*u*J=V=Z=(@k `=F V=V=u*p* -:..-@$H V=w%+-r -$",
"@-P*U*#-b$$-%-R%&-$-w*P**-J%=---;->-w*`*`*Q*,-'-)-!-Z*I*I*s*~-[ {-s*w*U*r ]-^->./-`+Q*w*!-(- =R%_-`*w*`+U*U*:-R%<-Q*w*Q*b$[-}-g&",
"|$6.|-g.g.1--$2-m.m.E$|-R%}%--V@g.E$g&M%-$y r=3-O#E$6.E$E$M%1-2-4-~ E$E$E$-$y 3-b#E$E$|-M%H=H=.%m.E$6.x.x.y 5-2-k m.6.~ -$-$g&6-",
"m=n%A#S |+S 7-, 8-9-S .@D*`=0-a-b-c-u%c-T=S%d-e-f-D*n%c*c-g-h-i-j-S `=S S .@k-l-m-S u%c-u%S n-o-p-c*q-u%r-A# *s-t-p u%u%Y=c-u-v-",
"w-4 5 5 i 5 C=5#9 x-P+P i M y-}%a=4 5 P 5 5 n g z-4 P I+I+I+n = O f*i i 5 A-B-C@C-4 q 5 i I+n z#v D-4 5 5 5 E-J K 4 m 4 4 f*F-}%",
"H%M E T T i C J K P+5 E E E y=_%P=w+L+E E X#i%G-H-5 e H e E E->.O 5 E E e e 7 g p=5 E E e e 7 R%c*i E E E E z%I-j%i I+5 5 i J-b#",
"K-L-M-N-u u O-/ P-Q-M-M-R-S-T-_%U-E-i%L-L-V-W-:.X-E-S-S-R-i%Y-b#Z-`-U U U S- ;>..;+;R-R-R-U @;m@#;$;S-u U 7 %;:.X-&;R-R-R-*;=;-;",
";;>;,;';);!;~;{;];>;^;_=/;(;_;,%|=:;~;<;[;};~;!#1=~;|;>;1;>;2;*#3;2;4;^;';5;1;!#6;~;7;8;>;9;7={#6;~;0;7;a;,;b;R$c;1;';d;2;~;~;R$",
"e;f;r-g;o h;i;A#j;k;l;J.m;n;k;k;Z-o;t=p;q;r;s;o;o;t;u; @v;i;w;w;w;s;x;y;#*z;t;~*Z-A#A;}+B;C;g=k;D;t;.@E;`&F;D;G;w;A#H;D+I;J;s; *",
"K;L;L;M;m@N;O;P;Q;R;S;|$$$T;Q;U;O;Q;V;W;:.X;U;Y;P;P;Z;Q+`; >U;T;T; >.>W;|@+>@>#>$>V;%>/+$$L;L;@>U;&>*>=>~ X; > >U;T;Z;o K+O;O;->",
"C=H P ;>`&>>E H H w+,>o { 5 d d d E C%'>)>&;d I+I+I+!>,@Q&E E d B 5 I+~>~.{>E E ]>i M*h+j%d d ^>e E P J+F+/>e e E I+r '.R+5 i i ",
"(>B a M+J i*v+E E 5 _>/+{ 5 E I+E E a ;>N+:>I+I+d M U*<>[>5 v+M E E C%~>C@y#i I+I+J=Q*|$}>E I+E E H M R F+|>E v+v+u*r o R+2*2*F ",
"1>2>3>4>J@5>6>7>8>6>9>h+0>a>b>c>d>e>f>g>>.h>i>d>j>e>k>#*l>m>n>o>o>W;p>M*|@q>M;p>r>s>}.d+t>u>p>f>v>o>R#w*z#w>n>x>M;W;y>3@z>A>v>f>",
"B>C>D>E>!#F>G>H>I>C>J>.%K>L>G>M>N>O>P>Q>V@R>S>H>O>T>U>@+V>L>C>W>C>T>D>E>J.U>L>X>L>Y>H>>#Z>L>P>T>L>C>L>`> ,.,T>+,@,@,#,Q.$,C>.,U>",
"%,&,*,=,-,;,>,v-,,',*,),!,~,{,g.],^,/,(,;,_,:,<,[,},|,;,;,1,2,1-3,4,;,~,~,4,5,6,7,8,_,;,;,9,0,z#a,~,~,b,c,d,],e,f,~,_,g,h,d,i,5-",
"j,k,l,m,n,o,p,q,r,s,t,t,l,u,v,w,`=o,x,u,y,s,z,5#A,B,t,l,n,C,D,_%3 E,F,G,s,s,H,/ I,J,K,o,F,L,M,C@$ B,F,F,F,F,N,q;O,n,t,t,P,Q,R,-$",
"S,T k%T#H L T,U,V,v+X#H H P N z#h=q v+v+E 6 W,X,:>H I+5 5 i >-V%z q 5 q m B Y,>.i*I+e I+E a 8$E$p=i e e H X#i%G-Z,H E E i F U*M%",
"`,u> '.'+'@'#'R%$'m>%'&'+'*'='~ -';'>'R#,','e>N+1>*''')'!'~'Y*E${')'j>]'^' '/'h+('*'^'@'+' '_'}+:')'<'!'*')'['F+}' 'b*|'1'|'y>M%",
"2'3'4'5'6'7'H>=%8'9'0'a'b'b'c'd'e'3'a'f'9'b'H>J.g'4'a'h'i'i'j'!%k'l'h'a'm'a'g'[#n'a'7'h'a'f'o'.%p'q'r'r's'6't'.%U>Y>u'7'6'v'8'w'",
"[,x'y'y'y'z'A'B'C'D'z'z'E'z'F'G'H'I'J'J'z'z'K'L'M'N'z'O'O'P'Q'R'S'T'T'E'E'P'U'V'W'E'X'X'E'z'Y'r=Z':,E'`'`'J'Y'u= ).)E'E'],X'+)@)",
"x=#)$)%)%)&)*)[ V =)-);)=)C,>)[ ,)')))))))=)!)f=z-C,$)$)$)=)~){)+*x,x,%)=)=)~)J ,)$)$)))))$)O,~ ])-)))$)$)C,^):./)()=)))_):)<)J#",
"z B E E I+5 R-G-[)P+E i L 5 $;f=t i 5 5 5 E U `&})]>E E e E E=_%z ]>E E E E u 8 $$L L L ]>E +;m@q-5 d d d d U >.r%5 d d 5 i y-b#",
"|)M H I+5 P+*;`&j%a 5 w+L I++;}%Q m i I+I+H +-5#9 v+E E E H y=>.G A E 5 I+L u ~.v i 5 5 I+M y=F+Q P E 5 i E C 8 1)P+d I+i 2*y-b#",
"2)3)4)5)5)6)7)V@8)4)9)0)5)4)a)V@T@b)c)d)d)c)e)@+f)g)5)c)c)h)i)@+^#e)c)d)d)j)k)!*:#l)m)n)c)d)o)@+p)e)g)g)d)d)q)J.r)b)c)d)l)s)t)u)",
"v)w)x)y)h+z)A)B)B)C)g@D)E)F)G)G)H)I)J)K)'-L)M)M)N)J)i,o O)P)H)F)C)C)F)Q)/+R)S)F)T)U)V)'.R)A)W)P)F)H)C)X)O#Y)P)B)Z)`) !/+.!F'+!@!",
"#!$!%!&!8 *!=!-!=!;!>!h+c#-),!'!)!!!()~!`&{!)!]!();)^!n+/!(!()()_!:!<![!g }!()|!_!]!1! @P=()2!2!=!-!3!4!I-5!]!-!-!6!7!Q+R+8!9!8!",
"C=M 5  $I-t+i M M r+0! @a!E X#H i 6 b!c!)>:>e e E 6 0!D+'*L d d E d a ;='.d!A-6 6 j*'&'.8*q L E e e 5 e!f!g!E E E h!i!j!R+5 i i ",
"k!l!m!>-y+n!o!p!q!r!s!h+t!u!u!v!w!x!4!{@(*y!z!w!A!m!#-Q+B!C!D!v!v!o!M,!$z#E!o!o!v!M,x%o F!D!G!A!D!H!m!s*F+n!A!q!q!m!x%D)I!p!J!K!",
"L!M!N!O!V@P!Q!R!M!S!T!Q.U!S!V!W!X!Y!Z!O!c.`!S! ~.~Y!+~@~#~$~ ~%~&~%~Y! ~@+P!*~=~Y!-~;~@+U!>~ ~S!S!.~,~'~~=)~M!!~.~~~~~~~~~{~~~]~",
"^~/~(~(~(~_~:~<~[~}~|~/~1~2~3~-$4~/~/~5~}~6~E)7~8~9~0~_~_~/~a~g&b~(~6~6~c~(~d~e~f~0~c~9~g~h~i~4-j~_~k~k~k~6~l~m~n~k~k~k~k~o~p~q~",
"x=r~s~s~t~t~u~v~w~x~x~r~r~y~z~F+A~x~B~x~r~t~C~, D~r~r~x~E~F~G~~ 0=y~t~t~E~E~u~[ H~s~r~y~y~I~J~6.j%r~t~K~E~L~M~v~N~r~N~N~O~B~P~r=",
"I=i L d E H 7 A%Q~E u+v+v+V=b F+u%T i 5 E E E-5#(>A v+E E M `+m.%*E E E E E y=m@R~E E M M r+N#m.}>5 E E E E 7 f=S~u+u+T~2*F ]--$",
"z i B A v+v+U U~V~J!J!J!J!W~X~F+S 2*2*2*A A +;Y~Z~W~`~J!J! {}.E$'*2*v+A v+v+C J .{`~W~+{@{#{`*${D*2*i i i 2*%{:.&{ { {W~ {`~*{M%",
"={-{;{>{>{,{'{){!{~{{{{{]{]{^{=%/{;{>{>{>{({_{){:{{{{{]{{{{{<{V@[{}{>{>{;{,{|{@+1{2{{{{{{{]{3{.%4{-{({>{>{>{5{c.6{7{]{8{8{8{9{2-"};
